/* XPM */
static char *ceiling[] = {
/* columns rows colors chars-per-pixel */
"256 256 60 1 ",
"  c #3A3A38",
". c #42423F",
"X c #4A4A47",
"o c #51524D",
"O c #595857",
"+ c #4F504B",
"@ c #5F605B",
"# c #62635E",
"$ c #5F5F60",
"% c #635F61",
"& c #676863",
"* c #6A6A66",
"= c #676768",
"- c #696968",
"; c #6F706B",
": c #72726E",
"> c #6F6F70",
", c #706F70",
"< c #757574",
"1 c #777873",
"2 c #7A7A76",
"3 c #777778",
"4 c #7A7778",
"5 c #777879",
"6 c #7C7C7C",
"7 c #797673",
"8 c #716E6A",
"9 c #625E5C",
"0 c #3F403B",
"q c #817E7C",
"w c #7F8077",
"e c #7F807B",
"r c #81827D",
"t c #7F7F80",
"y c #817F80",
"u c #7F8080",
"i c #838382",
"p c #878883",
"a c #898A85",
"s c #878788",
"d c #8B8B8A",
"f c #898683",
"g c #908F8B",
"h c #8F908B",
"j c #94938C",
"k c #8F8F91",
"l c #969692",
"z c #A19E97",
"x c #A8A59A",
"c c #B2AD9E",
"v c #B5B1A5",
"b c #C2BDAD",
"n c #DAD2BC",
"m c #CEC8B5",
"M c #E1D8BF",
"N c #F5ECD1",
"B c white",
"V c #FFFCF3",
"C c #FFF9E9",
"Z c #E1D9C1",
/* pixels */
"<<<666tt666t6y66tt6<3ti6666daerrr#oo$;ddsiikdldkddkssdddiiiiyiiiiit66566iiiit6i6<663366436t6t66<335<3itt<66t66ti6633;6i<<6;;53<tiddsiy&oO<6iiitiiyiiiiiy6664tu66yitti634ttt6t5tt666tttitre122piiiiiast6tuii<5666<=tiiti6tiX&o&6skdi5<skkd5Oo+o&3t66y5<3<=,333<><",
"<<<36666ttti66636i66tit65<<ijjhpr;Oo=>dsdiddldldddldsdkddiiiiiiiiiitt66tiiitttii665<<6666t6t663,66656tt6<666t6=>it53=<i53i;>6>>tisdsdi=O=6iitttiiiiisisi6t666t3336ii63<<66664ttt366666t66ee2erriiiii66<363ti66t666titi3&>tX$o$6sdki<5ddddi;OO+O=53<t6<5==<33<<;&",
"<3<366636t66i6tt6y66tii6666rraajj*&&;<dsdssdklkkkddddddsdsi6tisi6iiyt66yiiittiist6<t656666i666<<66t666t63>&<i6<6u6666iyt6y>;t<<i6skdis>o<tisiitiutiitiiii66tt6<<6it665<><<33t<6t66466t6ipr6r2erriiiiisiyi<=tiit66636ti6&=>X=oO6ssdi<7ssddd>O++o$>==3336;8<<,<><=",
"3<53t636t6t6ttti6t3tiit66q6ireerp*O&>6didsdkkddllkkldkdddsi36ssitt6itt6tt6tiy66i366it6><66tttt666iyyi6iy<63yitiut4iuiiiuts>;t3<t6sdlsd>+=ty6666i66ttitiiit66i6336636636<6633<<<<665tt6tirree2rrriiiiiiisiy6itt<66y63636;-<X;$&3iddd63idddi6<OoO$=<63<66<<<><3<<>",
"<57<i66t66666ti6ttt66iitt666r6rrr&=;3ussddslkdlddkddkdadddi6iiiytiisiitui6tt66t666tiit>365tttt6666itiii665556ittiiiisy56ti>>6<>iidkkki;O>6it6666t66<t66ttt6<6t3<3366656<366433<56t4666i6rrre6r6<636isiiisiiiii3<6tt6t<t3>>X;$$6idds6<idski<=&$OO&><<<66<>=&663><",
"<565y53it6t666i6<6iiisit6666rrrpi*=;56ddsdsddddkddksddsdadii6tsiiiiit6tisii66ti63tyiiiiy64ttt66tt6tititt666iit666<<ti6636t><<<<islddkd<&5t66tittii6<<t636t6>36<;<66t6333<<656<<t<66ttt6666re2rr6t66tittisittt66>t6it,<i3;;X;o$tddsi6>idsdi;=&Ooo$&&6<56<=OO<6<<3",
"<564y<<6i6tit3i6&<it6siit66ee2rpp*;;<>isiiikls6dddddididdi6iii<<itiii6yiist6666t56iisii636666i6i66tiiit6666t6iitt36y3==>6i><6<<idddssd<=<y65itttiiu3<666ttt6t6<>56q563<<<<465<<6666666666<rprr6u6tt<<iiiiiii6yt666tt6o$6tiX&oO6isdii6iskks6>&$&&&=;:36<=<=&=<<33",
"5<55t6<6t36666yt6ii36iitti6ererrr#=;<5dsdddsklddldkdsdiaddriasttiiiiiiiiiit6t6tittiiiitt666666tutt6tii666566titiiiii63><6u>>63<ysdlssd<=<66titt5iyitttttt6666t<<366366336<<t66<56335666666rar66ytii6iityidsitisiiiiii<;tit.&OO<rissdiiddks63;&&*=@&;::&&:;;:<2:<",
"3<<5q536y6366ti6t6uityitiiiirrppa*:6><sdddlsdkkdlldkdaaaaaarraiiidsdiiisitiiiiisiiiiiiyt6656ttit6tuiti6t55uiiiitittii6<3ti;>33<tiisssd<O$&=<663<t66uy6<6636466>><366t63363<56i66t35tii633i6st66tiisisitiisiiiiiiiiiiuiiiue @@#:raaddiididk6;>&;:#O#**#*;;*;112;;",
"536t6556t<>666<3<=iiuiiii6iiprapr&;;&;sddiklkdddsddddsaapaarraiasisdiisiiissi6isiiiiiiittu66666yii666t665q6yiiittt6it6<<ti<><>>tiddiid6&O++$<3<<3<<6t3><<>6633<<3666y63<6333iiitt66yut6t6sist666iiiiiiiidsssiiii6tyt6;;tte @XO2paddddds6isi3==O&#O@###***&:11:;2",
"5564565<6&&<6t<<OO6tiisiu6irerppp=&;>=sssiddiii6sdsidsaaaaariiaiiiiisiiiisiiittiitiitiit6it<&36tsitttt636iytitit6<<3i66<6y<><;<uisdiidi;O+++$=;<>&;6it6<%O>53<3366i6i63<66656yi66t6iit6yisisii66iytiiittidiii66t6666i66tui0#+O2pdddsisidddi=OO&*#O##O#O**&:;1::1",
"7566<65=&O=3663<oo6q6tiirterewwrp@O;<&idssdd3;6uksidiaairarrriiiiiidsi<iiisiisisittii6t63y6<;<<6ituyi66356y6i6i<66t6<<3663;>3><iidsiddsi,$Oo+oO$&Oo$<=&OX+O<<<<36666ut6<<66<&<6ttt66666yudy66i6itu6iiiiiiiiit63<iiiiisitu6.#+O2rdsi66sssst6&&*<1;@#1##@*##:;**1w",
"6663><5;$O;6t<>$OO:it6tit6r6r6:<e@O;<<dsdddi;O<sdddddspaaaarrrriasiaii6isaisisiiiiiit=<66i66tt3tiit6iit<;<t663<6ti66><366i<>6>>y<iiidsdiy55<;<=$$;==>=&&O&&;;<<6tt6tii6336y6>6yt665&6<y66iriii6itt6ttiiiiiisiiy566ttyd6<i6 OXO26rade5ikdldi6;<66w::1:1:***;*#;1w",
"t66<<&>&Oo&6t<:&;;26ityitt6666o#1#O;<ikdddd6=O=dlsdsasspraaarerrirrraiiaiiissiiiiiiiitittsit6i><6i66iyit>>636<<6itiy633ti6<;5<<tsssiddiyt>=<6i4<<<666tt6662:>;>36ttti6635ti6<66t535=6666iir66qi6tt6iittiiyiiiitt6tit6iits6 OX#wprigaiijdsddit66iw2weer::;1662221",
"tiy63<=OOOO3<*&O*::ii66i66666<$6d&O&3tddssls;&idjksisrprrarrrrrirapriparrr6iiuieyttuissiiiist66;;6yiitst6663t6<4i6t666=<6,;;i,>iissisli53;>;;6466,3t6eeree2:<;>36ttyit666it6<666<56366556rr16re26ittiiuiittiiiisiiissii6i6 OX@2paajadhjhdkdsiiiarrrrr*;<<<666<:;",
"6itity3;$oO;<&OO**;2riyi65666tise&O$>ikddsddstdkdsdispprrarree6rrrrrrrrarrriiiieit6iiiiiiissi66<<tit36i666636t65ittit3&tit;;i;;s<6siddkit><3>6t66<3tirrr222<<<<36tuiiit6titt6tt666t<<6y6621::ir266tissiii66t6tsiiisiss636iX@X#waaaaahhhalldsi<<ippppi661<253>;;<",
"<<><&><=O+$=<;@@#*;26u6u6tt<<yiti&O&;isddkkdldldsiiiiyi2<2rrew2eweprrrrperrasssiiiis6ti6iiiit6iti666<tttt65<t6t6yt6si66tty<;5=;iiyssddss<&$=;666i33tt6626221::<2ttyuit66tiittt6ii66<<566w111wrwwttiiiiist3&;t6i6tiiiiyt5560OX@2ahhhdhhhdllliuieeprrpie2555663;;;",
"&$$&o;OoXO>=<>*O#@*rre66isi36tiii=$=;6sdddddkdkdsiiii66::;1r2reererprprprpppssisiyiiuytissisit666t663ttt6<>=6666i6tsi6<3tt3>6;;tisii66d53,&;,366ii6663::*;:11<<$<6t666t6ty66<6iiiui5<6566;:1wwwwtisisidit6<<utui6iiiti6<<uX#X@2ahaahjhahlklsiieeapaape1<56666<<=",
">=$$o=O+XoO=66=OOO&riit6iii6<>iis=&=;6diddkldlkdsisis6<6;*221ereerrrrrrrrrrrsssiiiuttisiuiysit666iit6si66<,=<3<;t666t6<3ti<><=;36lsi6<t;3i6t6<&6ii3<57:*#1;:<<;O<3356t66t63336<6tti6><56e;;1wrwwisiiissiiiurit6uiiyiuit6iiX&+@eaaaajlhhhkkldsisaappre;$=<t653666",
";-$O+-$Ooo$3t<*#oo*rii6tiii6<>itu&%&=,dssddkdkdiytiiirrr62222eeerrerprpreepeiiiit6666isiidtiiit6tiiitii6q665it536iiyyi336s<<6;;63sst6is6is6<6t36si6<<22::2::1<65636t6666666><t22tii656e:1;;wwrww6ssiissdie6ityiuituitii6ie.#O#eahahllhaphklkdsdpppre1*;>16536363",
"O===O=;OXo;36<;&+o<ii66iiissi6tii=O&;=dddddslssittiuiiitrr6626eewreearrreerispiiuttitiiissiiiiu6tiiiiit6656566titiit6656ii<<<===;ssi>titsdt6t6t<6ir226626663666<3645666666662666ii62ei1=#1:errw8riaasrrdseriiuuui666iit6s1+;#*paapallhpphjhhhhdprapw;1:><t66t66>",
"&><<&==OO&=><66=O&,ir6tiittiiitis=O&<>ssdsldksiit6iuiiitu666eew2222wrrrrperpiiisiitt66tisdituyittiiiiii6366t6t6iti6i6636ui6>>=&$&536ttsiii66ty666r62266666666<333t666666666226e66e612e6**;:ewrrrraaaiaife22eiiuusi<=6<66s<o;&*rhjaahhhseshhdhsierapw;1<=,t63t6t<",
"tti6&&>+O=&=556>;;3t&<it66<ti6iii;O;<>dddddkliyi6t6t6yut66666ee12222wrrreeeeiiii66ti6tuiii66yit6tt666yit366ttttuyi666t3<tst;>=&$&66<<tit46<<666622222rr6iet6626656665666646622wwerr2eee12:1erwrrrrararaarr21iiuuiiuit35ti1o:*;rhhahjlhp2pppspe2erare:1e24t65t4ti",
"iisstts&OOO%<63<;5<3666i<6isitiii=$=;<dssddskiti6t66t66636666e2<22222wrreeeesiiiii6666tiy6it6tt6366<6t6t666666t6tititti6ts3>>&$OO>s>;3t6t6;&<62662rw2r66tt6636634666555655<116e6wr22eee2ee12rrrrarrrraaripeee6uuiiiii63yu<O2#*rahahjlhappw222eeeerre1:255tt656t6",
"tii6yiuO&Oo$,>;&<533=&6666tii6iid;O&=<ssskdssiii6tt6t5<6<33666222w22r2122rrriuiy6i66635t66tit66<3t6<636366t66iit66iiiit6ts1=<;=&O<6;&,i6<5<>65266e2r266666633366t65656656<111eew6212eeerrrwrrrrrarrrrprpprprpuuettiii<<is<o2#&rgaahlljhue2122eeeerr21:;&3te666t6",
"6<<==<6&;Ooo;63><;;y66t6633666uii;O=;>tsssiiiiiit6it675i6><<3622622ere112e66ititt6663,36666ut<3<666<6<<<>6uye666656tie6i6s<&;&&>363>;>s3><5<<&*6ewe22<65666666562556tu65:;;1216e211eee2prr#rrrrrrrrrpappprrpduu5it66i;5is6X***raauujlhhh22221wweere:;;&;6tt666t6",
"<;>=&&&;;Oo+;3<<<;&<y6666<3<6ieri=O;>&;6iiiisssit6y6,,65;=;>7<626126221122666666t666<<6666665<<36t66t333<6iirq6q66ire616id<&<@@&t636<;66<16162<w2er22266ty6666652222663<>111:112e22ee2erw*#wwrrrr2werpppapaappwwir666;O:r6+;;;rawwwuueee2eee1222re21*;=:6u6<425<",
"**:;#OO&;&$+>t<>-;<322227<<<1662i*O;<><6iiiddisit666<;==;><366<26:;<62<1<6<<666i6<62:<1qitti6<;<<4666335ttii6266ierr662eri;&;OO@<aiai7<6e2e26er6err22q6rit66626662e612<<<1:1112eew222eeewrrr*rrrreeeeprpaaahsuw:ri66::O*2r+&;:rrw**;w*ww1ee22ee12we21;;w6<<<76:;",
"O@*&#*;;<;OO&3=&&=;;<<21<:**122:<;$;333isiississis633<;,5565<63<3<365<<<<6<6it6ti21121:rir6y5<336t6356<4ttii622rr6rp22w26r*@*#O&eaappp1:112212reerw22666it66116e2222w11111:11;226222weewr*rrrrrrrreepprrraaharw:riprr2:1e6o;::erw&*:&*;e2ee2ee2eee222eerw::;17:&",
"Oo**&266<>&$=,=&=>;;:<21::**:11*@&&<<<<tiyissiiiiii667556653<6<63<53<<<<<66rt66te6112r2266t63<6<666t3666tiit662rrewrrrreer&@:*@:rahhir1:1222:;:1222e2:266i662<:222221211<<11211222w26ee6*wr*qrrrrreeeerprhhahreerrrrrw2ew2o2w:erwww=@**w;2ee22eererrrpprw1w8**#9",
"oO*;*wret,>==>63>><;;:2::::*:1::#&=6<<<tiiiiiiiiiiii5566<65<<66366344<765366666t6611122e76663>66534t36<36tit6622rraprrrrip*#;;#epajhaa21eeew:*;:1221::6<ti666212111112211::12222e2e22eee*rqq#rrrrrrw22iaahaaarrrrrrrr22re2Oe2*1euuw>=;:*;wee22w2eereepra:*88&OO9",
"#&*;;2eut<=$&&<<>>336221::;:;;:;O&=6<<66iiiissiiissiq55<546<35366533t3656365636i6622222666t66<636665<<<666iir662prarpprrra&O::*erjjgpar2reee21222ee2<22<6<62<222w21222w21:11222ewe2eeeewqr&q&rrrrrrw2erraaaghaarrrprreere2o62*:euueewwww12e22eeee2reeewgr2:78&#8",
"***::2<6t<;$&&>=;<6662e211:<:;::O#=6666iiisissiiidsiii636333<<<6665>;<6655656<<tt611<112q666tu63636t636t66iieee2rrrggggrra8O::*rpjhhaaewerreeepreeewweu66265:2e112221w2e11w111werrww8rrr8;w*&rrrpeheeeeehhehphhheeheheeeee+:e&wehueeeaew=eeww=eeeeeeeeeuuewwww&&",
";*::1226y6>&&&;<=<66r6e12:*;:12:O@&<=666isddksisiiiit6366666<<36636<,56=<3<<<>-><3<<<::266666t63iit66336ttiir6eerrrrqrrqra;#;:;ephharareeprrrrrpeeeeeeeu6uuu222111w25ww2w51111wer8wwwr8rwww;qqrreeeehuehhehheeeueeheeepeeuOee&:ehhheeeewwweeeueeueeweeeeuuwww&*w",
";;::112663>&;&=>3<i6i6i62;=:1w62#OO==6tiiiddddiiuiiii63666i35633633<535,<55,;&&$;3<<<<2<t6636666666it6666iiir6errrrqqqgqra:O&::rrhhappaeeperearaeeereeeee2uee21e252252w511:1w55ewqqqw8r88qr8qqrrhwheeeeupphhheweeheheeeeueoe5&:euheeeeew=eeeweeeeewwwwewwwwwwww;",
";;;:<16236;;>;;=3<<ui6t<<<;<12wr#@O2<tiidsdddddiisiy6t<3t3t3<<536<5363<;<75<;<=%;>,3666<36t6ti63366itt6yt6yi6<26rqqqqqrrra*o#*;rrhhhapeppeeerreeereewwuee6ee222e2w;1w22ee5125eweqqqr8r8qqqr:qqrqeeeeehehehehhehuwhhhheehueOee&wehlueeewwwww==ueweuwweeewwwwwww=w",
":*::;2e6t6=<u563tit6t6t3><<112eeO@O<6iidsdsidssisssi6666<3t<<5656533666<<565<655<<><66665tt6<663666ti6tiiiii2<26rrqrrqqrrq8oO&;6rhjhaeprueeurreeeeeueeeew2ee12eeee:122w2e5w52eewq8q*q&q8qqqqqqrreeewuuuueuhhheeeehheeueeueOw:&eehhgeeureeewwweeweweeeulwweu>w>w=",
":;;;&;666t;3suiiiiit6t6<>><51w22#&$<ttsiiissddidsidisit666i<36y64<364t63565666643><<<6<54566<33<566ttt6iiiii6222qqqrrrqqrg89&;:wrhlareereeeureweeeeeeeee2ee212eeeee22w26ww2w2weerqqqqqqq8q8qqqrrhwweuuuewwheuehhhuhhhhheueOwe;euulheueew=w=w=eeweeuuueuuwuueewwe",
":11:&&;;6i;tiiieiitt66t661<<2211&#O6itiiiyssdddditdiiiy666tt6yii666665636656654<<3<;<;><<&<t5666666yiitiitiir662rqqrqqqqrg8O#;:iphlhapeeuew5wwwweeeeeeee2e2e22eeeee52152w55e22e28rqqqqq8qq8qqrrreewwwwww&wheweehheeheeuuuw@w:*wehlhereeeeeweeeeeuuuuuuueeueew>>w",
"121&#*;&;<=<u665t6y666t6t61<:1:1&#O<66dsdiisddsdsi66isit36ty66666tt6t666665yy66<333t<=<6-&6666t666tiiiitt63<261:*7rqqqqqrr7O&*:rrajaaarepew15wweweeeeeeeeeeeeeeew22w2ewwweeeww5eqqqqqqq*qqq8qqrruweww:ww&wwwwweuwhehhuhuuwOw;@;euhhegaewu=w=weeweeeuuuuueueweww>",
"121#@@@*&%$$=<==6666666365<::::1&#&<6yssddssddkds6&<isii<36365666t6663666666t66<><3y3<i6>3yy6ti666iuti6ti66656=*.8re6qqrra7O*;&2eujuaaaerewww:1wewe25eeeerpeeeeeww5wwwwe65ew5w5wqrqqqqqq2q2<6ewwww:w;:&#O&ww;;euehheppeeeeOw;@:ehlhueeewwwewwwweeeuuuuewww=wwe=e",
";:;###=:=$O$OOO;6tt6yt666<>;:;:1#&;6iiisdddsdsddssiidsit6t6366t6t66633666t6ti66665363666356it66666tt6i6ii65666&>.#i666qrrp:#*&=iahjhaaararwewweee1<weeeeeeeueeeew1:1weueeww5eew5rqqqq8qq2rr26221;#&::ew;www;&eeuhepeehhpe:@w;&weelluuueewweww==ulruluuee;wwwe;w;",
";;:*&;*:>&OOO$O=tt666tu666::;**:@&;y6isisddiisddsisiiiii6tt66tt66it636t3tt66iy6tt6666<66666uit66t6tt6it6t6666t<$X*fe6wwwra<O=&=6eahagaeeareeeew5u11weweerreeeee25<w5eeueee5weew5rqqqqqqq2qe211w1:&;ee5wewwwweuuheeuhheewwwow**eejuheueeweewe;wwwweueuuewwwwwww=w",
":;1;&:*<<=OO&$O=t6<>;5666672::*<#&&63siisdsdsddsdiidsiii6iy636t6tt666666tt6tit6ii636t6tt66tittt6t6yiiy6t66ttt66-*:rqr6e22s;o&&>yuhhhaaaerrerueeweew5eeuurppeeeeww:;5eeeeeewweewerq87qqqq22ee12eeeeeeeewuhueeuuhhheheeeheuw@;&&euullueeeeeeewwwwweuuuulueue=weew=",
":::::2<<3;&O$O$=t66<<6tt55<<:1:1@#=5<iidddsdddddsisssiiut66t<666i66365556i6titti666666t6<3666yi6yiiii6<tt66t66266<6ir2e;:a#o=>;ialjaaraaupeeeewe51wweeeerrpeeee2ew<weeewew1weeeer777qqqrq2wweeepewwweeeuhhehhhehhhheheehue@w;&wellluweeeeeeeueeweueluuuwww@w=w=w",
":;::12::3>=OOOO-36t<66ty66<;;;;:@&;uiiidddsddsksisdissiiiititt6tty6666556itiiiitiit636636t6<ti6tiii6t63t6i6it666iiiie2e6rp#O=1>iulhaaaerauuueewww55wweeererrpeeew5<weueeew515eeerqq88qqqq22eeeereewwwuuuehhewehheeheheehhuOw;*:eujluwweeeeeeeueeeleeuuuw$Ow&Oww=",
":;:::1:;<;$O$OO;66<<36u6661;**;1#&;eiiissddddkddsdiiyiitiiti6it66tyt7<6636iiutt6tti665666t66ut6tit6itt6u6tyiti666i6eeeewri;O;6<uuhhapueaehueeeeeeww2wwrprrreeeeew1<ee11weww1eeeeq7qqq82222ereeeeuwwweuuheheheeheeehhehheuu+;;;wejuluweeeewweeeeeeuuuuuwewO$&ww=w",
"*;::126==;&;==<6t6666666122:&;:1#*;itiiddsdiddddsdii6tsiiiiity66ii633;=66tiit3666iit436ttttiiuiiutt6t6666tiitit6iiui2er2er:&;<<rajhapaaeaeueewe56w622wepreeeeee255eww1<<;;:;:1eeqq8q8#7r212wrrrpueweeeuuhehhuhhheheehheeue+we&:euluueeeeeewwuuuueeeluuwwwwww$&=$",
"#*;#;:1;=;=<>=;tit6666r211:1::11#*>iisisdiiiddsddsiiiiiiyti6t66itit3;$>66tiy666t6yt666666itu6ii6i6t666y66iiiiiituit662eerr1#;:;rujhdudupirrr222w26e2eeeerrrrrrw2wwwee1>1>1w51weeee5e11:1::eeeeppewwweeehehhhphhhhwwuheeeheOww#;eulluuuueuew;eeueewwweeuewO&&&&&@",
"*&#*=*11;*;>;O&<6ti666r211:::::1&;;i6iiiddsdssdsisiddidsu6tti66tit66<,665tttiyiiiitt3366t6uiittii6666tt6tuisstyt6tt662r2rp1&;1*wahadddduprprwe2e2w6weeeerrrrrrew5e<we<;11eew225eeeew1:11:1eueerewe5eeehehuehpeehheeueeepeeXww&wellhueeeuuuewwweewwwewweww@&ww@&o",
";*****;;==;>;O&3it66<2r221:1;::2&&=y33itiissiiidiidissisii6ii666666663<<<66tiiiiiit6666666iy6ytiiittttuuiiissiiiiii16:w6ep:**:&2uhadsdduipr2ee226e2eeeeweerrrrewww::1w;w2ww2w62ee2ee22211e1eeeue:5eweeuueehhhehheeeheeeeew+ww@wehluueeuuuuuew;ewwwwww@ww@&w=@O@&",
";;;*&;*<<>>>;OO3tii626rr22221<12&&=<6idissdsiy66sissidsisi66tt66t666i63<6iitti6ti6666titit6tiu6tyitiiiiiiuiisiiiii6;1612rr:#;**ruhdusdduppreeee2ww62eeeereeprre1<ew511;;:1122eee2ww2e21:211eeerpueeweuhuhhheewehhueuheeeuw+#w&wuhhuueewweww*;=;@X+owwOwww$wwww@w",
"&;;;;*;<6<><>OO6it666errr22w1::w#*=<3tdsi6i6ssy<6sdiddsiy6<5666tt66ty6666iy6tt66t66666ttiiiiii6ii66iiiyiiisii36iist6<;#Orr:****wesddsspuiprewe2eee26ee2erprrrrr2wew<11;;;@;e2w2ee5e22212eeeeeprreeeueeeuehhheehhwewuehehueOww*eehhuueewww&@@;;w&@wwwOOwew==wwwwO",
"@*:1w2:;<<<<>;>titt622e621<<;*;1#*=<<iiii6i3qssi66yidiiu63>;&&t6ttt6i6556itttiii6666<66ytttiit6ti6ti6tsisiiit6tiis66;*&&rr;*&*&2psddsuupprree6ewe222e6;wpprre2w2><w<11>:;*;22e22ew22we1<1;weeeprueweeeeeeeeueehewhweheeeeeOwwweuullee;=w&;&&eew*wwwwwwuuwww$=&w&",
"&*:111;;><>==<=6iii62q6612<::;:1#*=<6iiisds65idiisi56ystt3;><<336666t6365<,66ttt6666<56tutiiiu66t66iiti6i66t6666iiu6&#76ee;***#:epdddsusir2e22e661116eeeerr22222<wwww>:w;121;:;;2111we11w;weeepeewweeeeeheeweehheewpueeeewOww&wehhhew;weeewweewwweuewuuuew=&$o&w",
";*;:<:=<663>><4ii66ti6<>2q211:12#&;66itsddsssddiissd66iiiy,>36<<6636y63tt6<6ii6646tt36i6uyiiit6ii65tiit666<>6ttt6ii:=O;t6e;=;;#1epdsuueer2e2eeree56666ee2e222w22<w<w<:w:111:;;;12w5wee2e21eeeeeeeeeeeeeueheeeehlheeehpeeheOww@:ehhhee;weuee;weeewuueeuuueewwwww&",
":*;<3<;;65<==&3tt66tt3<<666<::12#&=66ssdddddddsiiisksiiiut66t6<5366<66titutiii6tttit66ttiisstttiyiiiit6tii36uttiyiu6;$&=<6;*;*#repdsiitrr6e6rerrutu66riree211221<w<w111w11w5w112w22eeee1:2eeeeepueeeueweehhewehhhehuhepwuuXee#wuhhhwwweweeewweeeehheheeeuweuw&ew",
";;:;3<>;643>=<6ttiiit6t66661:22e#&=6uiididdsdssiidslssisi63it66t666<><tt646itiitttiit6iiiiiitttitiiitiiititi6<3<tiuit>$&&<O;:8*rpsdsiiiirrr6rrrruuttiiierr2221::;ww:1115111w1w2ee2wee62;:2eeeeeueeeeeeeeeheewehhehweeeeeeuOee@weehheweueeeewwweueuuhheueuewuw&ee",
":*:<66<>><<36<itiiut6tii6662222e&**56isddisssddssiddddiiiitiy663666<<3tttttiis66utit6tti666tttiyuiiiiis66iiit6iiiiiii3>;>;O;1:*rsdhhdiiirwrrrr6r6666uirrrre22r1:*w<w1w1ww5w122eeeeuuwew21:eeeweeuweewwweheeewwuheeeeeeeeueOe:&wehhuheeeeuuwwweuuheleeeeewww=#=ww",
"r;;<666<>>>36ii6ittt6iii6661121w&*&16isdsidkdkddsdsdi6iiiiitti5<3636t666ttiitii6666t6<6ii6t66ii6tiiiiiityissiittiiuiti6>;=O;1:#:rddsdiiieerrrr266666uqr2eerrw211<>>ww5w5:1w522eepeeuweeee2uwewepueee5;eeeheewwhhheheeeeeueoee&;ehhheueuueeww;ueuheuelheww==Ow=w$",
"1:1w62<&;;<t6tiidiiitiiit6661::e&*=33iddsidddlkddidii1taispiii6<5<;5266632666iai66rr6&Oii66i6titiittiiitttisi666yiis6tt;;5;;<<*211t6usi666662262666eii66w2226226w:5w<ww11ww52weppeee2we22eeeupeeeweeeeeeehheeeuheehhueeeeeOew&wehlheeeweeeweeeeeeeheleewewwwwuw&",
"w::122<<>=<663ysdiiiytit63621##e&*=<6issddddddddsdsiiiiiirrrie6221<2e2:w66i6rrir66r26=X<6iiiti66ist6iyit6tiit6tiiiiittitds<866:r1;6uiisu6e65666i6t6yut666226e666>w5ew55<155e62uspeeee2225weewpareeueweweheeeeeuhhhehuuueewOww&;euhueeeeeewweweeeeheheheeewwuuueu",
"w::::1<666<t=;6isytiiii6<6<<:*<a&*&;3idddddssdkdddsdiirrrrrrpr6rew2<e1:22rrrrrrr6rre2:;16it6yi66iittiii6itiiy66iiittt6tiii6<66,6;6iisui6ri66iy66t66666666663666tee5555e<5u5526usueeppeee2eeewuueuuuwwwweehheheuhueeeueuuewOw;&wwhhhwwweeeeeewwehuelheeueeueuulue",
"1::1:#;<3663=O=ii6u66ti66<<6::2r#&&<3iiskddkddsiisidr6rrrrrrrr2eeee2ee2222rirrpr22r21:::6it6ii66tiitiisiiiiiut6t66666666ii6>66=<1ddssiiiiii6ri666t6t6tit6i<66666e55555555e6565usppupepuw2ee21ereueeewwweheeeeeeuhehheheeew+ww@wwuhuwewhueeeeewwhuwhhhuuuuulluuuw",
"1:;*:;rrii63=oO;3itt36it6326<16r&&@=1sidsdsddkdddsssiyirrgparreee2222e12eeeeeppreeew1152eutuiitt6iiiiistit6it6yit6isiitiss6;t6;tdlliiyiiiiiiiiitttiiiutttt66666666t66655355656uuueeeeeueweew5uueeewww&weeeewuuluuuhheeeeewowwOweeuuueeeuee222ewe12prpeee12ahepp1",
"rw1:2rw*<t<,>;$;64it36i333662122#&&<6sissddkdlldisdsiiairrrrareee211122222weeiprre2w2w;epuuuii666istitiiiiit666ii6iiiiiiisi<t6<islkdd6iisiiiidiit6iiiyiit66646366ti635<<>566566udppuepauuewewww;ew;ww&wweeeeuullluueeeeeeeo*&&w=uuueeeeeee21ee6e6pr2eeea:*1uupe:",
"rw212rw<3t3==<3666i66t6<<6661112#&&56ssiisdddsddisdsddprrrriparwe22e22212eerereeeue21e2ee1:656636tttiiii<=&&=6ttttiiiitttd3>65,idlksitissiiisssittt6tiiitt6663<66ii66><<><6655<tueeueeuew5w5wew1eewww&eeeeeeuhuueuuuewwwwwow&&weuuueweueee6eep22pha2e2whw;whdue1",
"rr:;1we6<<<<<366<ty363633662<11w=*&<6idisdddssddiiidisarrairrrrwwe6w2221werieerreew2:wepu5<>&=>=><6titiit<<<<6iiiitiiiit6i5>6<>6sldsiiiissiiisisiiiiiiitit6tt5666tii6<<<>5525<5eeewewee1<11115eeeeeeweeuueeeeueeeuuueewwew+&#O&eulleewgupeee2ewepaare:pjuwhleww1",
"66<;:166==;;36iuuiut6635<2662w22&*=;<uisdssiisdsissiiiidsaiirrr21111w2e22eeerrpreeew2eeee3><3666666yiuiy336yityttii6ttyiiy3<<;3islkssiddsisiiiisiiissdiiiiitt6t66tiie11:1116ew5522<5wew11w1111weeuuueuuuuewwewwwwwweueeweeOw##w;uuuuewwwiiu66eeewpaee;euwwplw::1",
"u5>><5;==<t<itt6iu6t6664<<<1222r&&&<6idsdsdssldsiiiidddsdss66rrre11122ee2eeerprrpe2we2;2i6;<66t6666ti6it536ttit6uyitiiiuii<365,islkssidsiisiiissiiiiiiiisiiyt6636iiiee216216e5www1::<w51w1w:*11euueeeeweew$wwww&;;;ww5eweeO;&&;wuuuuww=wiutueueeerawp11e5eehew1:",
"u6><6<&;;&56iittiit43655<56211rr&=&<6yii6iddddddssidsddiidi6irr22221e21222wererreee:ue2:62;><366666ii6tt66tt6666t6tiiiiiis65s<;islkssiidsisiiiiitiiiissiiiui66<<6ii66ee2e211weeuw;::;<<w5w5::1>wuewwwww&w;@ww#&wwO&>>eewewo;**wwuluuu==eisuu6<11paaeew12ehhpeuew",
"66<<66==OO;tt6t666666663562e221:O&&<5tiiiddslkkddddisdddssiiirr2ww112112ewerrrrreee;2ee2:<;==&;5t6t6ttt66666656tt66usisiyi6<y<&5isdddsddsisiiisitiiiissiit6666<<6ii62e1;2w11weeee111ww5w1<w11<:weew#;w*ww;wOwww#O00$wee>ewo==*weluuueeeuuu6u66eerapreeuwuapeeuww",
"6663<3$O$&;6it53<3334663<3:<;;*#XO&<5uiiiddddkdssksiddsdisitir622w5221:2e22pprrrrrw12ew226<;;Oo66666yy6663<3t66<<3ttituiis6;t<;tdsiidsdssssiiiit6iiiiidiiu6336666iirre:;:w5weeeeew51we52e11:2211221:1221w=;;;1;;o0#>w;wwwwO&@&weluuuwwuuuuuuuuueeaperrpreeuewew5",
"ii63>>$&>;=-56-=<3665633<<<6*:*:0XO;6iiissddddkddddiiisii66i662222w21<:22::raree222:1622<<=<>;<<45<,66636<;366yt666ii6ti<66=6;>idddsissiisiiiititiiiyiitu666<666666i6622we1wweew;:w2ew2w1e1:;11212111221>w>w::;;*;wwwww>w:o#@&:eluuueeuuuluuuuuupaaparrrpeuww1:w",
"it63<&O&;==&&=$O=563333<;;,62<*eXXO>tisddiiddsdddsisiiuss6tt66722222<<<72wrwre2222212ee21<:<>,<;=;==33<66666tttii6iiutyi=&;&4&,idklsdiiiiiiiityiiiriiri6e6115666366irerrep1e5w<e21wee5we5ww2;1:1::11<:22>==;11;;>:ww>eww<:+;@#:ullluuuuuullue5euraaprarrpeeww55w",
"63633<;;==;=&&$O&66636<;;,;7r6;60XO>6sdsssiiddksiiiitiuyt6<666<556e21<162662w2:1ee2:1222<<<6335<5<<<6636t66tt6q666ittiitti3&5<<sdllssdsiissiiiiiiiir6r6626521666<66rrrwrpe11w<;1uw5eew5ew21111:;*:211<1<ww;w1w:;;;<ww>w;*&X*@&wullluuuuuuuuuu5wupppewwpppeewuw51",
"6666>==;;&=&oo%$,iit33<;=:<=e6<; +O3tdddkdddddsiissisiy6556665666uuu66666ir6ee1::;::1211<<3<<<3346666536666663356tiititiys6=65<sdklkidiiisiii<<6rrrrre21122e22we2eeerrrrrew:51;:e21ww11ww512211;:2211111w51:12:;w;w>wwwww;X&*&;eulueewuewuuee<>werpeerrrrperw5uu",
"666t>&&<>$&&oo&>6iy3<>=<<;566=<; OO<6ddkdkdllddiiiiiiiissi6t66656uttt66tui66r22211*&:112765<3<365456656<><,3666566ttiiiiii3=5<5slkdssiiiiisii66errrrr221eeeeeeeeere26rereeeeewwwuwee5:151511111111121w115ww11;;:>;ww5<ww<wX***;ujjewwOwweuuu5=;urrewrrpapprp5udu",
"tiyt=&;;;$&<$o$>6ii3=;>><<<tt;6& OO<6ssdiykkdsdiiiiiiiiiiit657tyuu563356eu66iw2rw2;;;;:262566<6t65<6t56336366tt6tt66ysiiii3;<<5ddlksiiiiisii66errr2rrewre2ee2eprrrrewrreereuuweeuee1eu2ww2w21:1122111111:1121111;<w:<$&e<wX*#;wejjuew&weuuuueeudapeerrppppprueuu",
"t66u;>,=$O&<$oo=t6t6;=;%oo=6i6t<XOO36dddi6dddikliddssdisittt556tt5556<366666err22111:<722666535665<55<3<<63666666t66iuttii<&35<dklls36iiiiss662errr2rrr2ewe2w1rrrrrrererreppeppeeepeee11ew511:<w2e221:11::1w1:&;w<ww:*&<wwX&&*:euljewwwwuukkuuuhaaprpeepprepiess",
"tt63<3;=&$=3>=>6iii63633;=%&;34<X$O,tsidtskgsissiddsissii65<<33<<<<7666666661<1622e:8:1<2663333<6t66t66<<ytyiit6<4qqyqqyii<&<51asllsuipusiiiu66rirrrr6rir2:1eweerrrrrerrprrarrrw;eree2eeee221:12221:11111;111:112111:;;;55.&;&>eahhrrrriddsidiaipueweeeueeeeuuuu",
"tt<-;<,3;=;66>&;isss63<566<<<>>>+%O,3siiisdlddissddiidsy6yq555<<5555<6tt66<<111726e1<<222663<663t6tt65566yuti666,7qyfyqqqr;=;;;pdslkprpippsee56eirrr6::re2222eeerrrrrrprprrarrew11weeeepie2w111e2211:1:111:111111115w:1wwe.@;&>wpaairaadddiiq262we1::;;weewee1;:",
"56<;=<;<<<>3;$OO6did64q566556y6t=-o=<isssdkkddsssddiiddit666555566566333666<<<5366666556766663<<6y66<<<666ii6r26qqqqyqqqii&O>>*eihlhrprpiuppr266iiti2:16rrrrwerrrrrrpppprprreppee&:er2wee2eew112221::1112ew1w1w212w21:w1weX#:&:wpaaiiddidsi6;6r61w:;@@;wwwwue:#&",
"5i6<3<<<53<<=OoO<isi66y63666y6yy&-O;4iskdsdddlkdddsissiittq65666y65<<566t666663<6655<366<36655665t66<556t6tirrewirgfqggqfa;O1:*relldhaarepprre2etiii66r6er2e2werrrprrpppararpprpi;1epe2eeee21e2ww1111:1112w225:1w2e61:5wweX#*&;wajdiiidiidiiusiiee1:11we1w5eu;&&",
"6yt65565i<<<Oo$O=iiit6y64t44yy4y-%9,6ddsdsdklkldksiissiiyit66666yt66tt6t66666t6<66363366<<5456566tt6665tt6iit6rerrprgqyqfg89;;;rahhaaarrrrprrr62tiiiiirre1errerarpprapprrraprprprrpwer2eerw2ee2211:211121e211:12ewe5w112weX@;*;waldisddsddiisiiieuw<eweeeeewew;1",
"6666<<<,6t3<$oO&3sut65653t4qqyyy-%O,<ssddsikdddddddsisiiiiiii6ttiit6666666iii66361556<56666555756666t656iiiir62rerirrrgqqf-9*:;ephhhaprpaarrrer6tiit6rrre2aprrrrrrrrprrpaprrrrpreeerrrreeee221111w2121:1122ew1:2w5ew511weeo@:*:waldisdiddsdsirifeew:wueew2eeee2w",
"t6653363663<oO==6iti6656<tyyyqqy%%+&<iiidsddlsddddditisiissiiit6iiyt6666iysii6663<3663<36<<3555666666666yuii6266rrr2qrrrrr-O*::rrhhaaarraprarereyiiiu6rrewrprpprrrrrrwwrprrapprprerrreeer6we222:;;:2w1;:2eee2212e5wew11eeeX&:;wedlduyiiddiidaiiiew51euep255ee2w6",
"565<33<>3<<<@o@;iity66<<444yyyqq=&o;3yitddddddssddsssiiiiisiiti6tiitt6ttssi6t66t6<363<<664666666t6tytt66t6ti2<22r2rrrqqrra8o@#;rrhhdaappaaapreerriiiiirrre2rrrarrrwrar2raarppeprpwrr2e2:w2162eeew2112;#;1:;;w212ew:5w1w5weX*:;:ehldisiiissdsiiirwww5eeue11w2w115",
"7626628&;<1;@O@*eiri665364ut6634%$O=,y6<iddsd66ssdsdddsdiiiittit6iiittiiisdisitiy55653tit466,>,><666yuttiiii2<e2rwerrrqrra;o#*:eeahhharagapapprppirriiiireei2epparraaiisppppprppi66r1122226<22ee212121;;1:;1w21e551ww5weewX=:*:pdlkussuuissiui6<w55weew:::51:1:1",
"626r6:*#:211;=@&1iir66636tttt65q&OO<3iiisdddit6iiddssisitiii6ti6t6iiiiiitddidsity4566<5i6656<<3<<33tittiitiiq2rre2errrrqrg1O#::rahjaarraaapprrrrrr2epsaii6iieraaaaaafisspuusuiupr66r222226r6<<261262211112e211e2www5w1<eweX;:;:edlkuuuusssiiii<*wwe115w:1wew112:",
"66rre1:*:222:;*#:rrr26<6tyisi66t&$O><issdssdi6tiddddsiiiiitiiiutttiiyii6issiisiyi65q6<;6tt663<<<<6tiiiiiit666e612eerr22rra:@&;;pujlharrrhhpprrrrrwrrrppiai66eeprrrriiiidpupuiuui6rrrrr1266ti6<1622w22111;2e1;&*;w51111weueX;1;:edlkuuiiiissu6u6<<:w5uee5eee1:;;w",
"222e1:122w11:1:12rr66636t66tyy6y-O$<3isssdsddsssdsiskdiiiitiytii6iittiiiiddiiiiii656655iy6ttt6<<<6tiiitii6<<662:22eeeerwrpw@*;;erhjhgrahhaparrrarrrrriaiii666iaparrriiiiuueuueuiieirrw2errti6<;66111w2:<;121;O@&;:@@;;5weeX;e;:ealduisieuisie662e11w1ww12eee1::1",
"211we2e22111112errr26666t3666t66=O;65iisdddlkdddddisdiiiii6iytii6i6<6tuisdddssiii6<<t6ii66653663<66tyt6ti66t6661rrrr2ewira1#88*qajlhaahrrahrrrrrraprriiri6666rarrrariiiii66tuuiiirr2112r6yii6<&2e222e211:12e6111w1:w11eeeeX&w*:edljssissuusuuue1eee5*1ew:;;w11w5",
"126rr2222:;:2222ewr266676<6ittii>%>6,iissdikdldsiisdssid6ttt6tii66t6ttttiisiiiiit636y66t65666t666ti66iiit636eeerraarrerrpa1#8*:rrjhhaghraapweeaarrraapr6i66ipprarrraiiiii66iu6iirprere22r6ity<=21;*12:11:1w6w211;:euwweepe+;1&:phlksiuiu5euuee55ew1w<ww5;&#;;:::",
"122121111:;:12::w211<66366tt66is;o=6,iiisddsddkiisyisiisiit<666t36tt6ti6iiiissy665656tyt6656665536ittit6t6tiu6rrrrrrrrrarg1@*#:ruljhhhagaraerrerrparrrsidsssaprprprriiir6666itt6<rprrrir66iit5:2:;@;1;15;16e2612::weueeeea+@w;:udldiieeiuiu<><<<w1>:11w:*@@@;11:",
"22w221:1:**1er1:2:;*<663tttt66ii;o&6;iiisdddiddiiddssiiitiitiiit6t6iiititti6iyy655566y56t65663<336iii6<t66t66qrrrrrrarr21g;O;12ahlljhhhaahagrrraaaaiaiiiaaidarrrrrprrr66e666uuu66rriiai66ttiii66w;;22;:2;166e111w55eueeeea+*1;wuhlaise6sdsu5><<1w1:;::;:1:::::1:",
"22222221;*;2wee1e21;16636tt6t6yi=Xo<;iislsdkddjsiiiiy>6stt<><tt6t;O6iiit66666t6666366636tt65<;;366ttt6<6yi66itiifrsdsqrqaj;#7q4gllllhlhhuagheaguhuhupspeppapprereppeee2eeeeu66tttiiiisi66t6iiy666<<66<<<1666e222wwweuueweuX;u;wahlhprrrpiu665<22:#**;;:*:::<:::1",
"e2122eee111e22eeee1w66666666iitu;o+>&tiskdslkkldisit<;3ts6<<3ii6i3>tiiit6tt66i6ty6666665t66<><><3<56t66tttiiiit6ssrsdifadl7;qfqglllllllhhhhgahuhhhkhspupepareprppeeee6eerrru66t66tiyii63,t<6t66t63333<<366666re2:w;whwwweeowa&wehljaaapriii66y6r<&;:1:::1::1111w",
"62w2epee221ee2ee21116556iuttiii6<&o&$6iddssddkkdiiq66643i666tii6tiiiiii6ttitii66t66yttt66<<,,63<6<5yit6t6iiiiiirsaifaaggglr2yggllzzlllllhhlhhgghhhhhdapaapapepaappee12eeeeeut66<;<t6itt6666tt65tt63;;>36ut662211:eweueeeeuowu;:ehldprarri66i66r611122226w12w1<11",
"wew2epe2e2:ee2ee:<;;1561666ii6ii>$O==6isddddsddi66>53>6iit336366tiiityitt66iiiy563tii666t656533<6<56t6t66iididdiadggajjjglgrfggzlxxllllllllljhhakkdddhuaaaapaaaprpp222eeree665<<;3tt6t6t5666tt6666t,><36i6626;O*:eeeaeeeeuX:e*wuhhaprahriuusd6iee111:wre612ee1;1",
"eie6e2:<w2<2eeee22116551366iiiii;$O>;tsiddssllkd6<;3ii6isit6t663><3tt6tt6336iii66<56u366<3633<436<5646i66issaisasgggjjlllzjrgllzxxcxxllxllllljllllhdddpupppppahaprrwrrreeeet66><<<6<t6t6=;3663<6t66316<6663666*1w5<wuerreaowu&wuhjharga1;iiis6ue21211222112e2111",
"eepre2;;122eeeee2e:we65<3<6eti6i>%&<&uiisddkldkiy6<5siiiiiiiy66t;$&<6666>;63ist666,<633<5t663<<<65666tiiisidddaggljjlgllzczlzzlxcvccccxxxxxzzllllhhhkdppppdaaaapprrwerrreru666<6i66<<6i>;56<>366665<656ti6ti6222ww<eeweerao;w&1ehjaparre<esds65e222rr61<1122**1w",
"eeii666ee21eeee1;21ee611<:162226<&=6>iisdsslkddki53isdksiiiiutt65:<<5tt6,53<666t65<t633356t6655366yiyiiisaddggjjlllgllxxccxzxcxcvvvvvvccccxxzlllllhlhdsdaddpapeapprewreeeee66t56itut6i663ii6663y65566662:;&e6166uuuueeereeo::&wehhaaarraidsdi162riiaiei6<;<;o$<2",
"6uuuee6ee2ewe2ee26eee2e2662e<<:2;#&6<siiddklllldsiisddldsdi66uii6tiiiiy66yt36566;3t66633<6y66567556issiiaddgggjllzzlzxzxvvcccccbbbbbvvvvvvccxxllllllkhdhsdppaararprrrrreeeeu6ut6tt6y6tt6<y6tttt666<<16e22;&1e6ttuuuerereue+;<&wuhlhgraraidsisiueiiiire6<==;===<1",
"636iii6ep2e12;*er1wewee2epee2w2e;&=t6dssddldkldddsddddkdssdiuttiiisisi6i6ii6tiii666>>6tt66t6666<65iiiiiaddgjggjlzxxxxxxxbmbbbbbmmmmmmmmbbvvvcccllllllldhddsuhdppprrrarrrrri66it6itiy6tii6t66666<565<6666e2epe266euupuurpdeo:w;wehlhaararauaupisuiiiiii6t<<63><<<",
"6336666re1;2e1;er2621122epeppeup:&;6=dddddkdddiysiidsisddiiiiuisiisi6iiiiiitt6iit6<63666366663<<66isqidsdagjgllzxcccxcvbmmmmmnmnMMMMnnnmmmvvvvclxlllllddhddsddaaarerrrrrrir66666t6666t6i665t65336633572<weeee666uusupeepueoww&wualleearhahdasssisiiiiitt;566<363",
"663<<6<2e11ere2ee22e<112weeeppup:#&6;idddksdkssddddkdsddkdisiiiiiiii6t666yiti66i636t66>465tit6636tiiidsraiagllzxccvvvvmnnnnnMMZZZMMMnnMnMbmbvvvcxxlllldhhhddhapparrrrreerri66<<56iti63t6<566<33366t4671::eieeuuuuuupppppuwX1>@<ehljahauaddddaspsiiiiisii6<55<<6i",
"6<;>3<;=121221;eeee2ew1eeeeeeeeu:#$66dsdsddkddsiiidddddddsissiiysstittiittiii6tu66tii6;<566ttty56yiidirfggfalzxccvbbbmmMMZNNNNNCCCNNNZMnMMMMmvvvccxlllllllhdaaarprrrrrwrrr633,=;3ui>&663,<5t6;>356666226erre66tuuuuperreewo1w#:uujjareuuududssssisi63y6>><<;&&;3",
"6t><<<;&161;*;:eeupee21we12wewee:&#36ssdsddsdsiiiisddddadariiitiiittttiyity666t666ttiit6666t6666yuiissfajlllxxccbmmmnnZZNCCCVVBBBVBVCCNNMMnnnmbvvcccllllllhdapapsa2er66rrrr663<36i<O->tt5<<63;<36t666<<6iirr22euuepeeprrw:@1:&wehjjuueaauusduusutistii3;%O$;;;<6",
"33>366<;<125;26eisuewweeew2eeee2:*&<3sdddddkdsdiiisddiiaii6ret6i6666tit66tu666tt66iti6t665t66ttiiiidddjgjllxxxvvmnnnnZNCVBBBBBBBBBBBBBBCCNZnMMmmvvcccllllhddddaaairerr66rii6t6tt<6<;>5di65<t364666566226iueee5euueeeeruwwwo;:*1ehjhhauauudusseuuiiiiii666366ttt3",
"65<;363<>;;<66euuueeweeee22e111w;*&><iiddiddkdksiiidisraare26e7<33666666tti6ttt6t66t6666366y66uiiiiadgggjzzccvvmnnnZNCVBBBBBBBBBBBBBBBBBBCNZnnMnmvvccclllhdsdpesiiiieiitiii66663365<6tii6666,6666<6t63266uu6e51eperrpreree@1*&1uuhlueeuksudsdusuisiiiiitii6t3665",
"666366<<;>>56uiiuuuu6euee5w5:1:2;&&<<iidsssdddhdsssdi6<rrrrrri6<5<<3666t66ittii666ty6;=iittyt6iiiiiidjlllzxcvbbmnnZCCBBBBBBBBBBBBBBBBBBBBBBCNMnMMmvvvcxxllhdassdsiitiii6ti66663356<636tsyyi6<3634363;<<ttuuue2wepphrraeree+:;*:ehlluwwuuusdssdpsssttsisssi6656tt",
"<66tt6>;==;6t6tissiiirrew22e1;@::&&6,sidddssddkgsdiiiiiirrrrrr6<<<<<6666<666tisi66y6t;X6ti6t6iitdiiigjlllxcvbbnnMZCVBBBBBBBBBBBBBBBBBBBBBBBBCNZnMmvvvccclklhddjdddiiiitt6t6ttt6366t6<<<yitttt6566t66<66ytytie6errpppappeaao:1;:ealdi<56isiiissiiisiiiissii63t66;",
"&><663366<<t3>6isiiiirre11:w1&#5:&&><iissddddkdddsddsiiirrrrrr66666363,5uuuiuui6itt6t=$3tii6titysdisgjllzxcbbmnMNNVBBBBBBBBBBBBBBBBBBBBBBBBBBCNZnMmvvccclllhiiddddsiitt6tt6t4636i36=<<<tt6666t66ttt665566iiiy62eeupeeppppeX;;;:udldi<6<6iissisiisissitiisi6<56&O",
"-&=<<;;><663;$;yiiiirerr2112:;we:*&;<issdddddkdssdssi66rrrrrrr6iii6<y63666eiiidi66666<;<tii6iii6iaadjllzxcvbmnnZNVBBBBBBBBBBBBBBBBBBBBBBBBBBBBCNZnnmvvccxlllldjdissiiy66666363&&63>3>,6tti666t6tiyt6666tiiiie6erepuupereeeX:w*:edldi663tiiiit6><6iiiityiit663;O%",
";&=>;=<ttit,>oO>66t622rr22121;2w:#@>,isddkdddddssisdi6eqriairr6ry66666<66ueiiiii66i2<6><6u6iiiiisadjllzzccbmnnZCVBBBBBBBBBBBBBBBBBBBBBBBBBBBBBBCNMnmbvvcclllljddassiit6666636>&;336t6366t666yiii6iit666tuuii12ereeeeeeeeeeX;w;:edlkit666ysisit;;ttiiitiiiit3=O=;",
"Oo&64ti3<t6><$OO;iir61rr222e2122<@O=<disddiddlkddissiiiiiiiiii2rr22222222e6eeeperrrr22<6ii6uiiiiiaggjlxxcvbmnZNCBBBBBBBBBBBBBBBBBBBBBBBBBBBBBBBBCZnnmvvvxzllljdldddii663<5566<<63<6<3<6<ty6iiiiisiiitttt6ii6<262ewweweewee+#w&:ejlkii6iisidsui>&666t66iit6<&;<&O",
"++O>5tt<>6t;;><<t3tr6re1:22ee112;#&<>sdssiddddddiidddddiiiiiiipree22621<122eeeeprr2226:2q66tiir6ifgjlzzccvbmnZCBBBBBBBBBBBBBBBBBBBBBBBBBBBBBBBBBVNMnmmvvcxlllldidddit63<>3664<<36<>3t666ii6uiiiiitiiitiiiii6<122w55eew5erpo@w*1uhldsit6tssdiii63iit66i66<==;<t3&",
"OO<><6t6666;><6t6<ir2r2:;2w21121:O&<<dddsdsssddsiidsdsdiiiiiprr2222222222erueererr2212re6<,6<<<<6fdjllxccvbnZNVBBBBBBBBBBBBBBBBBBBBBBBBBBBBBBBBBBCNnnmvvcxllljdiddsi6<3<>566633t63<6ti6tt636tt36it6iitiiiiii6222w1eeuw5wrao@:;1ahldsst6iissdiiiiitty663<>3t633>&",
"333<<66t<;;;33titii66w2211ee1121:#&>>isiskddiddsiisiiiisdiaiirrr221221222ereeeerree2222r66<,><6<<qdjlzccbbnnZCBBBBBBBBBBBBBBBBBBBBBBBBBBBBBBBBBBBVCnnnmvcxzljddaiiiyt3<<<536643663<66tii663666><uiyuiii6u666ee2ewweuuuewer+ww:wuhldsii6iuiddiuiu636it6it666t<;&>",
"66366666<><;6ui6tit626221:11wee2<#&;3tidsdddisdssiisidddsdsyi6r211112e2e22eeerrerre2ee12e6;5i6iiifallzcvvbnMNVBBBBBBBBBBBBBBBBBBBBBBBBBBBBBBBBBBBBCZnnmvccxljgfiiidii63<53666666663<y36tyt666t56iiiiiuuii6<662261w*euuwwee+1p;wpdlkdsuui6sdsdii6>&=66tiutt3;&;46",
"6t366rtt566t6i6666<66ww21121622e1*&:3iisiisiddkddiiddkdsissqer6re2111222w6weeerpre62er1;66;<66iiiagjzzcvbmnZNBBBBBBBBBBBBBBBBBBBBBBBBBBBBBBBBBBBBBVNnnmbcczljaiqiisii66<66t34t666t36i<6iiiiuiutiiiiiu66it6r666ew>w1eueweep+wp*1edllasssiesiissie636i6uu6<=;<;;36",
"666<riie66<66r6e<:<:22222122w;211==6<itiiisdddddkddssdsdidiirir22e112w222e6weeepwrr:1eew<<>>>1iifaglzzcvbmnNCBBBBBBBBBBBBBBBBBBBBBBBBBBBBBBBBBBBBBVNZnmbvcxlggi6issi6573366<36tttt66653tiiiyiyuis6itiie6i6626<#:<wweaeeeepX;p&1ehlhsisesi616ipiiiirriirr<&;6=<<3",
"2e66e212e2<5r266<;<:222222211:11:#=<<i6iidsldkldddsssdddssiiirwew2212w12eeerpreprre11ee265<;;9O6fdgjzccvbnMNCBBBBBBBBBBBBBBBBBBBBBBBBBBBBBBBBBBBBBBCZnmbvczllafiidiy666365<355tyt663336it6666ttiit6666226666e:O;1eeepeeeeu+;p*1rhhdpppse1e6erirprr21<6ew6:72<2<5",
"rrrrw1*;16wweeee26:1we2wee21;1:1:#&6<isdisskddkddddsidssiitti6r22212221161;pppeer2611221<2><<=;6saglzccvmnnNVBBBBBBBBBBBBBBBBBBBBBBBBBBBBBBBBBBBBBBCZnmbvczlljaiiiii66456556666itt3<<<tit666366tt633616eee2e2211ww1ereeeep+:e&1phjhpppp1*ewwerre::;1w22111211:12",
"errre211w222eeee:w16e22222w622e2:#=<;ssisdiddddkddsiiiiii66tr6622ee212:1121eeewe22w122e2<<><<<6<2rrrzzcvmnZNBBBBBBBBBBBBBBBBBBBBBBBBBBBBBBBBBBBBBBBCNnnbvcxlljgi666r3<7556566665,6;>6<iiitttt66t6633662ew22ew122eeweeereepo:1&:ehjhprprper22wrre228:222222212e26",
"2err2rw2r222ee62:22e21:112eepprp1@*6&issdsiisdddssisiiiisit662222w6w1:1222ewwe11rw2:1w221<<65<66q2razxcvmnZCBBBBBBBBBBBBBBBBBBBBBBBBBBBBBBBBBBBBBBBCNnnmvcxlljgsi666<,<565qtt666<t<<tiyiii6t6656663<62221&@1e2r2eereeeeeepo;:*wrhlhpprrree::1erwe211r222w221e2r2",
"2wrrrreer6e2211re1rrr1121weeeree1O&<<iidsddidsdisiiiiiit6<<66222222e21e2wee2e6:;211:11:21<6666qefaglzzcbmnZCBBBBBBBBBBBBBBBBBBBBBBBBBBBBBBBBBBBBBBBVNnnmvcxllljf66663<,<656t6666tiiii6ti6ti6tyt666<<61e6w1:wr6w2eepeeppeee+;1;1rdlhpppprer2;1212e21:122121212wr1",
"222err6rr2:12;;ur1e621122122226w1O$<5iiskkdslsdsissiissisity6<6226rrreq6eir2r62<1:;*:112<<6562iriaglzxcvmnZCBBBBBBBBBBBBBBBBBBBBBBBBBBBBBBBBBBBBBBBVNnnmvvxlljgs6q6t6<<5666666666titiu66<yii666<6t5<6462qr6re2226erprrrrar+1w;1rghdippeeepe;;;1ee2;;:w::w11512e1",
"2626erwre::we2<ui26621112112ewr2:&&36sisdddlkddi6iiiisiidi6t6266eee661<6err6rr6626:*;;:1766666iiffglzxvvmnMNVBBBBBBBBBBBBBBBBBBBBBBBBBBBBBBBBBBBBBBCNnnmvcxzljda666i6<666tti6t6666tii6666t6663<366655<<::6ee66r6iirrrrrarr+11&1ealhsaeeiew11;21111*&we1:2ewww525",
"<<<66<1<::errp66r66612e221122221:*&<<isdi6sddiddisdiidsiiit6<<66666<2<<666666rt6621::::1666666iiffajlxcvmnMNBBBBBBBBBBBBBBBBBBBBBBBBBBBBBBBBBBBBBBBCNnnmvcxzljfii66ii666ttyii6ttt66y666t6i663<<5666665<<76iuq6eiyqqfararr2X:1#1rdllds61662;1111211;&;:*:ww15266<",
"<6666<<:;1epri66uie6122w2111:111:#%><iisiisddiiddsdsdsdiii66<<6326<<6636i66636666621:11276666666saallxcvbnnNVBBBBBBBBBBBBBBBBBBBBBBBBBBBBBBBBBBBBBBCZnnbvvxlljafi6riittt6iiiu<6ttttiitiit6t63;>355666556iriy6666iyifrrrar1O11#:rphldi<;e2eee;1;ew:**&*@:w5<e2155",
"<663t<;;;;weee>;6iit62eew222:112:#&<<tiiiisldsidsdsdiisitt65<<3><<<6336ii6633<336262:1:1126656i6rdgllxcvmnnNCBBBBBBBBBBBBBBBBBBBBBBBBBBBBBBBBBBBBBBCZnmbvcxzlgsriiiii6t6tiit63666tttt6iittt6,<5666655536iiiu656iyyyqrrrr11o::&1ralkss6><;;122w1::1;;*@@:21;26565",
"<<<<u6<<**211e>;36ti62e2121w2162:#&;<iisdddkkdssddsiidsdiy66363<66656656666<<<362626221226666t6rsagllxcvbnnZCBBBBBBBBBBBBBBBBBBBBBBBBBBBBBBBBBBBBBVNMnmbvczljgaiiiiiit6tiiit6it66t6ityiiit66<56656q66666tiiii6tiyqyfrrrrwwO1**1rajlss6<;;;;11:1;;&*:;;@*w2;1:u65",
"><<6ie1<#;1eup<&=<tie1ee:11671261O&;<idsdsddddkddkdssdsdit66663666<33<66366t663<62222126<666yu66fagjlzccvmnZNVBBBBBBBBBBBBBBBBBBBBBBBBBBBBBBBBBBBBCNnnmbvczllgaidddsii6isi6it6ty6tiiit6tyt66<56555454<<yi6tt663uyfgrrrrrreO:**1pallssi<<1;;*;&;;&&;1w1&&#2O&:555",
";><3ur6*@:;1e6;@;=6iew2e2e222q241OO><ssdddsddlldddiiisiiiti65666t66<3656t6666663<621<1162<6666euiadgjxxcvmnnNCBBBBBBBBBBBBBBBBBBBBBBBBBBBBBBBBBBBBCZnnbvcxllgaaiisisit6yii6tit666tt6titiyt6t67566665<5566tiitt6tyyglrrrrpp+:1*:edlkdsi<<::;1;*@*&&::;@&;&@O*2<<<",
";;*2661;;:*#w22266e662662e666q642O$>>disddskldlkdddsddsiiiit6tt6iit66tttt6iitt63665662<66<65666yrfajlzxxvbmnZCBBBBBBBBBBBBBBBBBBBBBBBBBBBBBBBBBBBVNMnmvcczllgfafdiiit6ii6itiiyi6i666<iiitt66ti366t66636t6tiy6r66rrrrrrrraaO;1;2adlhspueeueeew1*;*##*;###&;#*;<;1",
"<;;ee22*;*O&1weerrer62e6<666iyqq7oO&=iiiddddksskkddsyisiisisiit6iiit666666iiyt663<<66<<6t5<65566isfajlzccvmnnNCBBBBBBBBBBBBBBBBBBBBBBBBBBBBBBBBBVCZnnmvcczljgddsdddiiiit6tiiiii66it66itiit666t<6utt6t636iiii66rrrrrrrrrqrrO:*;2rajheppepppee1:*;;O#*:@O#:;;*:;&<",
":;<2rrr**#O:12e66ree666<3666qy64<OOO<isiiddkdsddddddiiisiisiiii6yiit6666iiiiii6663<56<<<3<36q6iqriagglzxcvbnnZNVBBBBBBBBBBBBBBBBBBBBBBBBBBBBBBBBCNMnmbvcczladgdssssidi66tt6itttttiiiiitiiit666646tyi6666iiii222rrrrrrrrlrrO**:2rahhppeew1ee2we@@#O:;*###:;:;<;&>",
":;12errOO*O#;;2er2rwr65666tyqyq3,O&%=tt5tddsliyidsdssdiditiiittytiiiytiisddiis6i66<66656t6633666qsagglzzccvmnnNCBBBBBBBBBBBBBBBBBBBBBBBBBBBBBBBVNZnnmbvcxzlglgafiiiiit6666ttiy566iiiiiy6tt63y66565ti6tt666it22rrrwqrrrrrrrO##*rrahhhae1;&*@@*#oooo:;*;111:22<3<;",
":;1;1w&o@:@#&*12eeer<62536tyqq45,oO=;iy3isdds66idssddisdiisii6ttt6usitiiiidsssitt634657yt363><3<26iddllzxxxvmnMNCBBBBBBBBBBBBBBBBBBBBBBBBBBBBBVCZnnmbvcxxzljdaiiiiiiii6666iiiiiitsiittt66tt<6t55666yt6iiiii6<1re7r7rqqqrgq99O*erphhaee;;**@@O++O+o**&@12w2ee1<;;",
";;*&::+X@*##;#@:eeer:66<6uiiyq464o$;;iiddsdsst6iidsdsdiiiyiittuit6isittttiiisiittt4665>66666<3666qfaagllxxcvmnnMNCBBBBBBBBBBBBBBBBBBBBBBBBBBBBCNMnmbvcczlllgassit<isii6tiit6iisi6iiitii6itt<<635566iitiiiiii21227qrrqqqqfqO#&;2iahhpee221:&Oo#o+oo@#@#2221ee6<==",
":**:&&OX+O::1;:1eerrq6<<uiyyyyqy3O&;>iddddddsi6iddsddsiitt6ii6ui6iiitiiiissiiisiu65663>6t66665><6siigglllxcvvmnnZNCBBBBBBBBBBBBBBBBBBBBBBBBBVCNMnnmvvcxlljjdaiist6iisitisiitiisity666it6t666636566yiitti6iiirr22qqqrqrqqrr9#*:6phlhpaaeew2&@@;@+++O@o&211:222<<>",
":;12@OO++O1222rr6rrru6666t34yyt64O&<3siissddddkdddidssyiiiiiityitt666ytidsdssiiii6<<666t666i6y63<riqqfljllxcvbmnnZNCBBBBBBBBBBBBBBBBBBBBBBBVCNnnnmvccxzlljgasiriitysiiiiiiitiisiii6t6t3<t66666663tiiiiit66<<62::qrqqrqqqgr9&#;2iphhsaaue:1;&&=O+XXo.XO&;;111<<;<",
"1;*:#XX@XX&w122prrrr216666<t66i6<O>6>tiidsdkllddsssddsisuiti66ii66666ttiisdsisiii63<6i6t666t6tttiiirrallglxxcvbmnnMNCVBBBBBBBBBBBBBBBBBBBBCNZnnnmbvcxzzllggasirii6t63tiiiii6t6iddi6tittisiittt6t66iyittii66633;Ootue6werrr#;==;6ildidss6;;O$@&O@##oXoXO;&;*#OOo:",
"2*;:+..@XX&weewprre126<6636ittiito-5;iiisddkskkdiiiiisidiit366it636t6ti6iiiiisitt5656i666666t6666idiiaaggglxxcvvmmnnZNCVBBBBBBBBBBBBBBBBCCNZnnnbbvcxzzljldassiist<<<>66tii6333isiy6ii63ssiit6y6t66itiiuut6366;<O+<i662erre@:==6idkddddi6=$&&O&oo@@XoooO#O@@@oo#;",
"2*11+.oO+o;wee1wrrrrii666tyit6ty4o%t=6tiddsssdddidsissyiiii6ytyt66iiuiitiiiiiiit66<6666tt66464557iisiaraglllxxccvmmnnMNNCVVBBBBBBBBBBVCCNZMnnmbbvcxxzzljgdddsyiit6;3<637t63<<<6tisitt66it6iii66t6ti6it66666tt6=Xotite6errpO<%$<tidddsii6;&>OOOoXoOX+#;##@O#:#@@:",
"1*11X0.X.#::we1:1rrpii6<t6t666ui6XO,=tiisdsgdddiisisdq6iiit66ti6t6&3yiitt66t6t663363ty6ttt566<856isiiarraggllxxccvmmnnnMZNNCCCCVVCCCCNNZnnnnmbvvcxxljljggsddsq6iit66t655tt5><36tiiiitissi66iii6ttutty66i6i6tty<&;6iyre216a+=O=6islkddist<>3&&>&++o.o;;&@o.@&&#@1",
";*;;O00.X;&&;::wrrriiit66666tiittX+>=tidksddklkssii65=<dst;;>5ity3O<iii6i6666it66t3666366t65,;>366ittirrrgggllxccvvbmmnnnnMZNNNNNNNZZZnnnnmmbvvcxxllaggdasisai6iyt6t66666yt6666tissiitiidiii6it6tiii6<5i666666666<eie21*riX;=8rrdldsdt66<>=$@=&+X..+o*;oXX+OoXo;",
"1;*O+000X&&@;;::rrrriit66t66iitt6Oo&O3isdddkddldsiii636<6i66tii66ttittitt6ttiiiyi6t666t6633>=3<,336tqirrreggggllxccvvbmmnnmmnnnnnnnnnnnnmmbvcxcxllagggaaiiidiityi66t6666ti6i666itiiiiiiiissiittiiii6t66tt6itt6tiiuiie2eerrX=:<2rikdsi66<>6<$O&OX++oo@;;@@++OOoo;",
"1;&oX.XXX@*@;&&O<6iriy66ui6tittit=$$O6isdddsksddii555<<ti666tt66ttiitiir66ttiii6636yitt6t3<<<6<<63666iieweahaallzxzcvvbbmmmmmmmnnMnnmmmmbvvczgzzjllgddasiisdit66t6tit6t6tt66656yiitiisi666iti66iii6iitt6tti6tt6iiteee2eer6O;<<rrigssd66<<2<**;@O@O@@&;;;;#@O+o+@",
"2:*#+XXX+@::1=;&;6i66it<366iisii4O$==6iiidsdllddt38<663iis65665<<66iiittttt6iii6635tt666656<6<6<3<<66i66eapahghlzzzzccccvvvvmmbmmmmmbbvvvvcxzzlgljgaffsfsiiii6<666tit46tui6it66tiisiiiiiuy6;3iiitttit6666iiiyi6tiie22ee2ee#1;:rrdldsi3;<;22;##O#@Xoo@:*#&:1@@;&:",
"1:##++OO*w::e:>1<t6ttt66<366tii66O&>&6ssdsskldkdt6<>tittiiiyii66>&=<666t6>33iii666<<33663<66<>6<63666t66wuupsaalllglxxccxvccvvcbvbbbvcccccxzllljdfdfiiisaiiit666yuii666tit6it6t6iiii6tiiii66tiiit66666t6tiistiiiii666e22rp#:8;2rajdis6><*;#O#@@#@OO@;2&&@&OX+OO&",
";#@o..+O::;;:w<e66<<tt6<<<<666665$=<Oeissidlkdkdi636ddddsiuii6t65;-;3635><336it666,363<336t663<<6663tyi6euupsrpjgjdglzzzxcxzcxxccvvcccxxxzlljljgrfdaiidiii6i66556t6t66<6ttt6ttt66ttiyiiiiit6tttit6666t66tiiii66tti<622ewrr#:::1radaisq<<<;@@*O#*;:*122*&*#@X.Xo=",
"###..0O;1w;#15<ui6t<3it363<5<3<36$;6;iisddskkllddt6iddkddisi66u6t3666iyi<6663636><36y666<6t6636<636<6iiyeuussrsdgdggglllzzllzzzxxxccxzllllljgggaraasisiiq66ti666t66it635666t6ttt6t6tiiiuiii6tt6ii66tttuyyisisiitii6611eere&;*88rpdisii6<****&#***##;21&o@O+XX0+$",
"###..0o:w:&*ee5ut6tittt6tiy633315&=5>diiddllllldkdsdddddddi65tiittiiii6i6yit6tti<6t6>656366t66t<63636ti65uusrriaaifa2dlgglrdlggzzxcxzlllllljggsfiriiriiti636ty6tyt6ii6366t66666t36ttittisiiiyuiiiitiiiiiiiiiiiiiii2=62:err#:*#1rpddisi6&&@;*#@*##OO&1:OoOOX+X..O",
"#;#oX+;26e65eu6uiii66ir66irie6ii6&;6=addddhddjiidiidssdadaiipi6iuisiiiiiiiiittiiit6<<66666t6t6<<66t666tt<636iq><aiif2gjdglffjarlllzlllljjjgjdddii6i63uiit6ttit553tit65<<6666666666366ttisiitittit6iiiiiiisidt3iiii6<<<o<rr#2#&7risdsii6;;O@<&O&&OOO*>>+Oo++X+X0+",
"XO#Oo=<6ri612u6tt6ttr66r6ieiaaai6#&6#ragjdhaldiaiddsdsaadaiisuiiiiis66itiii6itiit63t463664tt663366tt666t6<=6ai6idqiraaadfgrqgaalglzlljgjgaiddaid6qir6titiiitt6<7tit666<,<33633456666666tsitii66iitu66iiiiiti66utsi63*;O<ee#7#&&qfsdds66=&<:;&#OOO+O&$$oX0X00.00X",
"o$O+O=<6ii6665556t6r6qre2rrerrrrr@#1*wahdahhjhhaiadddsdhjarriruuiiiititt6tituy6i63titt;>666uy6636tytitt6356tiiiiirfssaaddaqqdaigdlllljddaiiiiasii66666t666666633q636555<363<<<<>466666iiiiiist6it6tititt66t66ttyii6>&;tiu6&6&#-qrasds63;=;<=O=&;=&$;=$++++0X0000",
"O=o+O<6uii665=><6ei<;6r22266e2wrr#O*2aparraharrp6adddahagarapiiiisi6tiiit6tt666666tiii33636ttt666tuuiiit66<6iiiiissadsqrfs<6qq6adlllljdsiiaiidiiy6<64ti66663363<565q656<56363<565t66t6uyiiitiitiy66tii66t3><tti6iy6;O$6666#2*-8qradi3<=&;=&=O;<6<>=&$+++O$O+XX0+",
"&>@O;t6tii6<3>;5yi;&;2r22r22rrpreO#:1rwrr2raprraahkdksdaarrrrpisis666ii6tty666ty66tiiiiy66666t6t6tii6iit666t6tiyi<<iit66ii<6666sdlljljddiisiii6i3<<<6tt6636565<;<66663<<355t6<<56656t66iiii3666yiiiti66tiy5iit66tiu;=$&>7q9q&&7rfssi,6%&=><=$==&>;=&$Xo%O==$&o..",
"><=$6u6tii6tt3t666&&:6a22er1ewrr2O#:1w2rperhhphadhkkksiprprrrruititttti66666666i66iiiiit63366tuyt6tiiiu66666tiiti6ti6;;<ys<2r66sdlkglksiidiiii<6<;366tt666665<<,56t465<<556t6,<66666666iitittitiiiiiuiyisiti<<<6iits6&&=;#9q89qffaki6i<,;&>&;;$OOo+OoOoOoOO$;>o+",
"&<=$;t6ttii666t3366;6raie6rer22r1oO*1:6rrrpgapaaddhhdaprrrrerpeeiiyittit6356tiiiiiiiiiit6t3666ittt6iii6t6366iiiiuisii6<7ti<<66<sddldldiiiaiiit6ittti66t666663<;<<363t6<345<6666463366ttytisiii6tiiiiisi6tiii6iitiiiyt<>;,&Oq8&qrgdgdys<,$;>3>=;;O=O$OO=OooO;=$Xo",
"&>>;><tuitt66t<633<4erid2212rer21oO;:226reespppaddddariprraerruutiiui6ttt66itttssiiiiiii6t36itttiiiyiytt636tiiiisttitt<6ti>,6<<iddddsdsyiiit6ttiiuyit6666675<<=;<363t65<6<57tytt6666titiiiiiittiiiiisiitiiisiiitiiit6t<;=%9q8&&6fgssst<=O;<3666t3=$;O$;$=3333$Xo",
"6333<66666t66t336<63<66aie61rrrw1+O;5iidaapppw1eapapaeraprarrr66tiiiiyuiitiiit6iitiiyiii6yt666ttiit6666636t6iitiy66tut<<6i<,3<>idskiissiiiitti6tti66662226211<<<36t6i65<63<<tiiytt6yiitytt6iit6tiittiiittiisiu66iiii6i3=<5&y,:;7<quts3=&O&=3uyt6i=$O$>;OO35tt<=$",
">;336u66t6ttt66t66y;6;56ii62rhpe1O&<<isipaapha22ppaapeeaaahaaitt666ti6tiitiiiuisstiitiit6tt;&<6iiit6ttt56ti6iti66<<<t6666i<>3;>iiassddiiiiittiit6i6666222221<:<<6666it33665636tt6t6tii666<<iit6tiittiitt6tis6tiisiiitiiidi&i5<6t;16ii3,&=;><ti66i<Oo$3<$%<5t5<&$",
"O&<46636663665-y53>=<<t6idi6epp2<o&;5dsiiegadhe;wahh21ppgagriiiitiisiiitiiiiissiittiut<t3t6<><<6i6iti66636y6itt<<tt5><5656;;3;<ttiiddsiiiiuiyi6i6ii66qr6222:;;<<646tit6<<66<&<6ttt63t<6,>;;iit6uiitiiiiu6iiit6iiiitiyiiiii&i33<3;iisi<=$&%$>t63;<>&=&&;>3<<<<<=$",
"&=3<663666636>o<356t<3ytiiarepr1:O$<;iisiphahapeepharpprprsriaiisisiiiiiiiiisidiiiiiu<=t6it66t36iit6ii65=<t663366tti<>666i3>6><t6yiiddiitt6666666t6iue62622:::<<66ttii663tt6<66u663&6>y6t6ttiy66tttiiiititsyti6y6t6t666tts;i3<;<ikssi>Oo$OO;<63<3<&;;&,363>%=<,>",
";>t6663<336658<<<6i56666iiiserre1oo;;siidaaajaiaappapeeippprasiadisdsisiiiissii6tiististiiiti6<<tit6iiiy><636<<6t6ii65<666>;6><tdssiddi6655556ytt66tye666e2:<>,566tui66536i6<366633;t56463tiiut6yiiisiitit6t6iiittiiiiisss=iu<3sklss6>Oo;,=;=>6,;<=3;=<6t3<=>663",
"36t63<3><56655<t55<33336iuqirrr21Xo=<iddpraajaaapaappeeprppaaaiisdddsiiiiiisiiiti66iiisssiiitt6==yiittit3663t636ittty5&>6,;;i<;i6isidsi63<6<=7663<6tiurrr22<:,,<6ttiit66ti6636653<6<5556666iit666iiiitiiiy6t666t6tiiyssiis;i6<6dklkst<O&3tt66y6;$<6y633t6tt66t6t",
"tii6<>3>,5665<6y6<<itt6tti5<121:1OO=<iisiradhdddeaapde6isrrpaaaaaaisapspiiisiiiiiiuiyiiiiiist6635it6<6i6663<6663tt6yt3=tst;;t;;y6tiidddst;>6,666t<<tt6i6e22<<<<<6iyiiiyyiiit6it66t6<<665ti636<6<t6tiiii6;=&&<tit66isiii6ys;i3>3iklddt<&$><6t6y656tiiii6iti6<>,3<",
"6itt6<<<36366<665<6tiitiii<:;;;*:#&<6iisiaaassdddssdie5eiieiiprrrriprprrrrpassissiii66itiisit66ii656<6ttt63<466t666ii666ts<;5=>siiisdski<&O=;666i6666t666236<,356iit6tt6tytttyiiit63<t66is6<=;>=>6uiiyst5<3<3tittiiiititts=i<;<iddssi5;O;3ti6iii66iiiiiiti6=<<<<",
"6iii63<<5566645555<666ty66211:;&;#=;36iidssisddspssssupsiutisaprerprpprprripssissiituiiiiiiii6t666363i6t6<;=6536i66t66<<ti<>3=>6idit3<d563=;<33tiit365<>=<><<<,O<6335y66t663<6tiiii6>6tiis6<36t3566iuii6<6tiittttitiiiiyii;s=;6sklddi<&O<iisiisi3<<tiiitttit6663",
"tsiiy63366656t6666<y3<66651<2:1::##;;6dsdddssdddsshddsssei6iiirrrrriarprrriirisiitt66isiiiyii66666636itt6<>;<6<;6t66tt<76i<>4;>66kdit6y>6i665<%tii6333<;&<,;<<>&<<<35566666tt3<66ti6<6tiiiyty6y6t66itiit63t66t6tttiitiitii;i<<ysdlddi6==5iisiiiitiiisiitiiutt6<6",
"iiit6636665<666665366<66662<;;:::O&;5isdsdddddsddspdssssuuuuirrreeerrrrre1reiisiy66t6tisiitty635t6336yt6tt56ity66ti66i356i3<6>;<<kdi6ii6is6<6t5<iu<=&<3,<<;<<<<<<<66<<<><=>6it66iit666t6i663<66666ti66itt66t6666uitiiiiisi>s6>6iklddt;oo;<>556tiy6isiittit6tt6<<",
"iii63336573,5ttiy655<<ttt311*;;;;#&<6tisddddddkdssssuupiiiiii662eeere2we21ereii6ti6iitiiiit6tt66t6<<36566546ttiiiitit65<ii3<<==&=iit<titss6ittt<t<=>%;<<3=;<<3,;<5665==oO0O6tt66t663<>,66t6>==3yt66it6t66y66566666tisiiiis>i<;;isdsss6+O,6;;&&356tssiiiitit664>3",
"iiy636556<566ttiyi63<6662662;**::#=;6aiisddsddkddddii6riiiirr6e2rrr622<:226rit666tiit63t6ti66666366<346666666ti6yt666656ti5>>&&$&5<<t6si6u66iu663=$;<;;><<3<,3<,<,3;<;>& $<63;&>6<<<<;;6665<&o;6t66ti6666><6t6<><6ytitit6s;s3><isiisstO$6tt6<=6t6iisttt666666666",
"33665756666t6ty3666662<62<11:::::#;<6isisdiiisdddssiiiiiiqrri666rrr6<;O&6riiy63tttiit536ut6ut663<66<63366t6tt66iiit66t636s6;>=$&&6t<<6yt66>>6i6>>;&;3>;t6666<<3<,<<>>O=>&;564;$=5<2r67<6665<>,573<<<t3366;>666t666it66i6<i&y>;tisdid6t==663663ttiss63iiitttit666",
"<36<,<663<t6666>3yytr62r2<:::::::#=<6iiiidssdsddiddidiiai22rrr66iii66;;6666iti6itit66466ti6y6<<366635<><=3tiy66tuttiiyt66s3;>&$Oo,i;;3t666=$;5633<<;><<6y353>3<<5456$ $><<<65<=<66662:<1566<,,,;-;=<633666tiiytit6iit6i3$;O6;;6sdlssit$O,3><<66iit63tiisit66it63",
"6653<<,566ytt6666itreee221:1:::::*=<6<6iyssdsidssiisdiaapr2rii666uq666<6<2i6tuiuiiut66666tt6t<><3t63t6365tti6t666ttiii63is<;<>=&&<6>&>i63<t66t<;333<<<t6566<=3<;666<=&,<336it3<tyi622r2266t6<555<,<66<36tt6ytt6666itittttt&6<<6dklddsiOo<6<<66ttii66iiiii6itiyt6",
"3565,<<53666666tiity<:rrw2211:1:<#=:<6iiissdii6isiisiidrpap26r66666666<3,666itutii6t6tui66663>;<5t666375tyti665qi6ii6t66is<&>O&<555<;>i3><;<u>O=<<<,,3tt3<6<><>o<tt63<<<<66uut53errrrr11665<3<3636346633566663566tiiitiiii=65<tdkkkss6Oo<56iiiii66ttttiiit6ittt<",
"<366<<3666ttt66666i6r6errr212::12#;=;6isiitsisi<<iisaidirrr26ir6t6ttit6366itttt666656tyitti6633666666633uiii666iu66t6666id3&;&O$qt6i3<t6665<<O&><,<<,<3tt,<3>;>;3tii6<<<<<6u666&<6rre22ei663<<66366t666<,>36t635i6tiiiiisi=4<>iksldis6&+O>>6yt6t<&<3656t66iuuit6",
"556t666t6tii6tt66666e2eee2111:;:<#;;;tuii6<i6sis<6issairrr1:;;<u6ii6ty66t6it6iitit66666yityt<,66t36t665yiiitt656iyii6it6is>&;OOO<didi6t315:><$O;3,<<><666<;<;=;<66tyt6<5<=665te;;<2rrreii65636y66<565366655666666t6uisiiii&6<>ikkldsi>;OO><t6tt6;$;36yiutiyut666",
"55666tt6tiis6t6ti6tt21ere21::**;:#;;>tuiisii<6isity66rirw1:*;=;66t66ty665566y6it66665<36tit66<566334<<<56tiii655iisiii6iai=O=&O*ysdddsi<6>=;=&O=53653<566<;,<;==3t465363;=<6iie&**:rr2er6t6636566<35333,6666tt666t6tttiiiu&6<3isklld<>6;&<6663666666t6iyisitt666",
"66tttt6ttiii<366tii6ii62<1111:<1:@;;<6iuisdkiiidiidst<6irrw#12<<3665tt6666,;6iutt66t6<5ttttit6356665<33666iie66eriaaifirfg-O8#&:adhhhep21e1<;&;166655<322:;2<:><<633116122112e:#;;:6re26266<3333t6ty665<6ytiytt<<6<6t<6itt&<<3idsllss==>3>&=&;6tt5tiiiiiddiit636",
"yqyy666iiii66t6666tii67<:66<<:::1@=;66iddddddkdiiidsli6rrrr1225<6664666tiii6iiitt6tyy566iiii6t66t6666656i6iirer266rprrffqg-O&&;wrdhhheew1;;:;;;26566671;;*<1<2<<<6<<1w26212:1e2errr2wrerri6<3666t66ytt66tyiiu665<66tsti66t$6<<ykklldd<+$>,&$$6t36ttissiisisi6666",
"iiiit66uiiytiittt6u6i6635661::212O*=1uisdsdsdddssiiddaarrr22re<63666336tt666iust6iiit666iiit6y65tii6666tiiii66rwrrprqrrqrg89*:8weahdahpee1;:::12556666212121<<3<<63<222e221122er22rrrr6eit6653<6t6t66666iuiit6iiiyi6tt66i6$6<<6dklkds6O$o&&OO3it3<6iiiytiii6t66t",
"iiiiy66iuut6t666tii6t6ti666612e2e@;=<tssdidsdssssiikdaaaarrwrr66666<<<3t6t66iyii6tii656ui6i6t66666uytt66tyii662rrreefrqrrr8O*::rpdhgappe222222156t66662::<1<<<<366<<2eee2111:;1e2rrrrreei636664466656i336it6iitiii6=tityi6$<<>5dskskdt;<;=<;;6ii6;<iitiisiiit66t",
"iiiit6uiiiitiit6yti6t6ii665211212#;=<6idssssddddiisddiiirarrei6<<63<33666utiitt6666i666iu6666t66663tit66t6ii212rrqqqrqqqrg8o@*;rrajhaper12e222165655666211171<<<363<162222212;:2rwee622<<66656666t66it636tiy666tttttittii6%3<>6idsdkku655<666tiit=&6it6uitit<tty",
"siituiit6tiitit6u6t366iii6661;222O*;,6sddssdddkdddsdsi<rfrrrei62<5<<666666uu66iit66ti6&>iyy5365<666titttiiii2:w2rqqrrfqqra-o@**eegjae1;ee2eee12645664622111:<233366726e22w222;*;2ewr1122<6<5753666666i3<66iu663666tit56ttt&63<6tddkldit633>=<iiiy6<3t6<5it6itiii",
"ssiiiit6tiiiyit6iii6itii6622w:#*6@=;<6isdsadssddddairiiiiairri66<<<<26<3676666ri66t666$+6ti5,363366tu66iitiiq1wwqqqrrrrqra:O#::rrhjhpeeeeweee12664666762222:<6666t6622e22w21e<&&2e6r2222<<<5655666366t3356tt6i6666666<3666O636iusydddid<>6;;3tt6t6<ty666it66isii",
"itiiit36666u6663tiiiitii65621;#;r9=&>6isddddddlkdssdisiiirrrii666667<6<<66errrrr6rr666&&<6i6636666tiiiyiit6trr1:r7qrqqrqra1O#::rphhapaapeeeeuww66566566626622667<666222e622666212rrrrr226<666666tit66i66366t6y666<3t66uy66$5666sddsdk36;>66yiiiit66it66iii6uiity",
"t6yitt6i66iut6t6isiit6ii633<1;:2r@===1isddsddddddssdii6t6tiytireeee21e212e2errrrrewe21:;26i6666t666tii6tu66<<6<;#1rrrweera1@**;rrphaparrrrpriee66<6<3665546666665666222262<6666sieirre2e666<<>,<6666uii66==t6665<><u666666O36>tsdlkdd<<>tt66iiii5,6666ttssisiitt",
"<6iiit6ti66tidityssu66ti66611112w@&&;6isdddkdkdssdiidy6itisiiir2e2eew6w6eeeeprppewee111:26itt6t666ttityiit6662**.*rre22rrp:@**#2rahaprrrrpprpeee63666t66336366tt6ee262w1:2:665<yirre1:22<5t3>36<336t66666&;t656536tyitt3;3O<6>6sklldu==;>=<3tiiit<;3t666tiiititi",
"<3issiiiii6tidsiiitt63tut6<62222w@&==6disssdkglkkidsisiiissiirr2eew2112112eereepreee1ww1ei6it66666t6tiiit666r2**X@rr22eerr:#;#=epahaapppprrrree666t6t666t6t54tt6i6e6w66:*1<6666yiirw2r2666663<<33tt6tiyt63666666<irii6tt56O<6<tsslkss;&=<;<66ttt6y<<66ttiiyt6it6",
"6isiiiiiisyuissii66666y6<<16r2122@&=<tdsisdddddkdisdsdsdiiitiipreee22ee1212eeerrrrreww2:66tiiuy666titi6666ttr21@X;rrrerrrr1O#@&eragaaaprreereeee6titttt6t6666t6663626w22e266ty<56rrprrew666tt<>><6666uttt36ty65<<i6r66<66>O33>6islsss<&&&==3t66it5<666iiiiii66ii",
"t6ttt6ysisitysssii6iy663<<6611122@&;<6ddiddddsddiisssdddsiiiiipr2eeee22222eupereeue5<:ew266qtii6tiiiiu3t666i666:::6rrr2:2a*o&&;ephhaaarweeererreiiiiiie6666666t6636<722erre66t<5<eiiiar666tt666<3t6<<6i6666666<666666t<6<=O<3,6yslsis,OOO&&<6tuit3<<yiiiiiiit66i",
"36<<56yiitt666idit6it6565<66e2226@=;>5iddssdsiddsidii6siiddirrer2212w2222weeeeeepee55we:<666ti66iiiii6<uit6yr6r2e<6rr221wa@o*:;iajhpssrwweee6ere66qree6266626666636672662r2665<56iirrife76666t666tiitti6366i66;OO<6i66355>+<3>6idkssd;oO+oO36iiii6<566iiiiitityi",
"3<><<6<5t63<<6iisitt6<<33<6<22e26@==<6tsddddsidddiisiidsdddiir6r221116e222eeeppeeeeeeee22663ti6iitt6t666t6t66r6eiirir22wer&O*2>uudhdsie51wre2we62662eee26r6166666t66565<62666<>;<tirii63>33663333it66t36636666&X &2i663666O<<;6iidskd=+oO$;33tsiitit6itttiiit6ii",
"i<<t6656t6<;<66isiit6it63<7<222ew@;=;iiiiissddkkdiissddssidirrrree221ww22w22eeeeepww5eew6666iitttt6qtt6tttii6666iie6err2rr;&>6<ishhdsiu6eree22ew22162eew222666tytt66666666666>=O&<666i6<66666<336yii6i33tt6622O  *<ii6<666%33>tisksdd>++O><3<tiiitt6<>666tist66t",
"i66i6636t63<366yisiiii66<662w1:22#;&<6tyitssddldsddisdsksidiiire222122222e6weerrreew:eeeeuuiiyiii666tt666iiituiiiii666626r<=;3;ishkssiuurr622eeew2122wee2ew2e2666665<556y6666,;>;6tyui6t636<>>>666t36t666y66<:*O#22rret66i%33<tidldds<o+$=3u6yiitt663;><6tiit66t",
"y5665636yi66666ttiiiit6662<:11:12&:=566iisdkklddddksiddssdsiiirree221e112ewrrrerpeew1eeeueuiiiuutt6666t66iisity66it626wrra1&,<,ysdhsssiirr2222e22211221<2e2:61<6665<365666ty63;<>666i666>;3<<<<3<3666t6666i<<:22rerr6tiytiO3336isllks3o+O$>66ti35iitt<&&66isi6ti",
"i6tt6t6tiu6t636itiiti6363<<<21:2<&<;6tiisiddkddddddsiisiiii6rr66e222e21122:2parruww5112e66iiitttit66t6t666isiitttii<r2r6rp<&,<*7ikdsisuer62w22w21111121::21;12366<3<566556q663<6666<<6t>;<<;<6,33366tt66<3i61:2rr;2i6iit6iO<<<6iikkdst$+$OO<<<3666iiit&;6iiiit66",
"66ty666tut6666tuisiit6336<1:::221*<;6isiiisddkdksdssiisiii<tier2222211::212ewre22ww112ee66te6ti6iittyttttiiiiiiiii6<2:rrwr<&=;*qidssssue6e262622112121:::::<26653>335537356656<5t6i63tt33iy653<43<<6yt3<66t6622rrr2i66titu$3<<6sssdiy,Oo=;<<3366;33ti6666tist646",
"t6ii666tiutt66ttiiii622666<<1:112*<;66idddsiddsdddiiiiiyiit66622<2661<<<26e22r2:1ew112uuei6iit6ititiiiiiiisiiiiiiit,61;:ei:&8&&qidsdssr6ee226221<<2<21;;#&<<666<>3<7667<<5556t66t6ty6it6<yi6<6<333<6t66<66t6622ri6;6iyt6t6$66<6idddsi<$O=<3<6663<6ttit6ttt6it63t",
"i6itt666ii6itt666ii6<16w62122212e*1=56sdsddidssddiiiiti663<3e6366666665652e6222::1<5<66uituyiitii66tttiiiisii6tuiit5<;&O6i:*&&&qqaddss666ee1121<<<6661<&=><<<53<<3656655<3566it6iiii6iti56y5,5<3663666636666626it6;iut66ti&t3>6iiddss6OO;;<36666yiiiiiyt666t6666",
"t6ti6636666tttty6tir6wwrer622212e&<=<6sdllddddddiisiisiiisyt666663t666666ui6w2215<>;;3tuuuiiit66i6ti66iisiiy66ttiit6;;;;yi;&&&97radkdi666ww11122<<<6<53>><<<5<<65646455<<<556t6666665iti66566<336665ttt6366y63ii6t36t66tit&i<>uyidiii6OO>3<ttitisiiiiit6633it636",
"t6tit636t66666i66u6r662rrr212:;72&1=<3ddddsklkdst6iiiiisiit666666uut6615uei2rre2w25;=<5t6iiiit66t666iti66636t666iii3=&<ii6**8898riddi6<2e62e21<6<<<65<5<><;<3765556665555666t633t66y65t65366566<55336it3<66t66ii666<<t3366$t<<iissddi6oO=66iyiittisisit66636t66t",
"3yti63<6yy66336336yu126rr21:<:::<&<;<6dkd66dddissidsiiiiiiy6t66ttt6363<6tt666rre233<<56ttiiii66uyt6tit66it<;6tittii<%O;6q6:&88&qrrgst>>=76e221:15<5467<7<<>3335<5555<<<3566<6,&;3yi<=6t6;<666663<6656ii<36ttt5;ti65;=i6<66$i<;tiddddi6OO<tiiittii6isiiitt666t63t",
"ust666<,6566636666it6re2122211111#<=<yissisdlsidsdsdsdssiit66336756<<6366y62211w66t666iiiiii6t6tiiiii66tii6tit66tiit<&$&;6;;8*#qrfaa6<6;<2222::<555536453<<363<66666<45756t663>36i6O=<yt3<<463<666t66666<;-6i3=i66366t66ti&t<>6tikssstOO6siiutttitiiiisi6tt666<3",
"6i6666<<633<<3<366ttrr2::2q521121#;=6tdidsdlkdidsdssiisiit66<<<<,353556q6i6<21<212666ttiytii6i6itiiiiiittiyi6<66isiit>&===O878-rfsgkti6<122111;;<<<35<553<<<3354647<56<<5ty6t66i66<=;3ii3<<t66336iyyt6t6<<6it6ti66ytiiit6i&i<>t6iklsstOO6i6itiii66ittiiiit6ii5<3",
"666655<<656<<<<5645tre26766321226&;&6tisdsddksiiddsdiiddi6t6466366666556666<11<22666466i66tt6ttytiiuiii66iiittittiitu6<><<O;78&rfgkdsy6<<111:<:<<33<<<<5<<3<>=36665556546qit6t65556,5iii666tit666ytiitt636<6uiu6tiiid6tttt&y3<ttdddddtOO<tt66666666tyt6ti663y6<3",
"<66645<<33666<533tt666564t44y4yyq%=&<yisddskldkddddsiidiit6666646665<6<666y6663<<6656><ttu6i66ttiiiiiiittiisiit6tiiitt6;==O;7<O;qsssii3<6<<<<<<1533<<><3<3663<36655546556tu66y3<56,63tiitti666666ittitt6335tt66t63iis636tt&i<>tiskdddi&>6ytttt6iyt3<ti63y63;66<>",
"3ttt66<<<36t<,566666r66ittttyqyyq%&O=6dddsdddklklsdiisssitit65t66t663666666666t6<66<6=+6it6t6tt6iittiiii6tiiit6ttiii6iy<<i<>5<<6<<t6it;>5663<<6<,<33<<>3<3536564664566656ttt6t666t363<<itiittt6t66iiiit6666ytitt5>66><,<t6&i,>tsdddski=;tt66iitsii6=<6t6i6y6t6<<",
"66564t<5636t6<663666t4664yy4q4yqqO&%<6ddsdsdlkkkkdddissiitiitttttsi666ttt6tiit6666656=O3tii6ti66tit6iuyt6tii666iisiittiisd5;66<t5<6iit<3353<><<<<<3<<<>><t33<7666t666y6566tt6666t66;<33ttiy66tit66tiity66666iittiiit<;=6tt&i3,tidsddss=;6t66it6tiitii6t6u6t666>3",
"<336t4<56<<66t663366t666,4t4yyy46O$o=<iisdsddddddsddiisiiisiii6ttistt6666tiii66t56<<6<;<yit6tt66tittiiittiiii66utit66tiuii6,6t,3-ysis6;3755<<<6<>><<<<<<<456556666566536664666=&63<<><66tui6t6iittuii6tu<66tiiiii6iyt3<6t6&i<<6isdddsi&&;=<6663tittii666665563<<",
"356ti6<36<<6tiyu656yi666<<4tqyyqqO%+>4sisddddsdiddsssiiiitisiiit6iii66t6iiiiii6663<<63;36i6tiit66itiisituitiitti6uttit66ti6,t6;5ukdss4,<66567<5<<<<<<<366<3656566633<56336336<$=366i366tytt6tttiyititt665t6iiitutttt6636tt&i;>6iidiisd=Oo+O>t<<56<3yt;;6<33363<<",
"66tyt<<36535ti6tt6tii63366tyyy646O%O;<yt6iddkdyisddddssidisiiitiytisi6tiissitiit663366<6iyttit666iiisiitiitt66ttiyiisissdst>t6,islldi6<336566355<<<<<<33<53366646t6<6653<6656<>63<6666666t3><i6iii6t66t6ytiiiiiy6<5iy6<3ti&i;;ttdsdiss<OoX+$>>>5=>3ti6<>$>653<<3",
"6t6ii66<5t6;;66tt66tty6663t6y66<6O$O>3i66idssi6tidddddsdsiiit6tii66sittiiidiidsiy67166<7i66ttt6666tiiyii666336tt6itiiiiuis6<t3<isllsi6<<335565565<<335t<<3336t6tt6666<33><6t636366>6t656ii<&&36ti6itt66<6ttiii6<665<363356&i;>6idsdssdi;Oo+++$$-OO&53<;O+O>5<<36",
"66ttit33566;<tu6t6><35635tiyiy66tO%$<3sssddsdi66iddssiiiitiit6i6i6tiiiityidsssiit622266e6<<3<<3<3iytiiii>&$&&6yti6iiiitt6i3<t<;tslksst3<<<56377533664433<6636tt6tyy663<3><46333t63;ttt6yi666663uiit6i66><t66663<6yi6;<6tt6&i;;666iiissii4<>=$&$$&=O&=$O+oO$;><<6",
"t66yi6<35yi3366t6<;<666<tityittt6$&$<3isddddsiissdssddiiituuittyttii6iitisdsiiiiir21eeerr2;<;=3;><6tii6i66t66tiitiiuuiyiti3<3>>tkkdssy333336555666663656565566t6tsit63<<<456666663>6ttiit66ti6<tii6ttyt<=6665<3ttiit<<5yts=t;>6tisisddii<;>66t<;,<36666633<>;>36",
"6tuii6666y6<<663<6<3t46666656i6t4O$-55iddddsldddsddidkiiiiiiii6iiiti36yiiidssisiir2;1e2ei6;<66t6666titii3<6tittt6iittiiiii6<<><idkldsi<;<<36666y6tt66t6t65666666iiiii63<36366666363<y66it6tiy6>;6ititii66656633ty6ut6<;6,<&i<;6iidisds65<&=>6t6t6<6i6t6ttt<><,<6",
"tiiiit6tiu666t63366,366666<t666tt$&<6<sisdddlkgddiissssiituyi6tit666<ut6tsdsidiiie2122:1q6;,666t666ti6ii663t6y6itiiiiiiiii63t<<idlkdit;$=<36t66yt6tiiitiy6y66656yiiit66366636t666t<3t<3iiisit66=<iti5it636<66646ittt5=&i66$i3;tt6disddit6<6;<63633titity665<<<33",
"ititt6t6iyt6tyii6t6<6535653yi66ti&O,<<iiissdkkkkiiisisissii6666i3666titi6iiiusdiu622222165;<,565666tt3tt666666666t6yiiiiiit<i<;6ildsi6O+O<>;<<<t66tsiiiiiiy666336iit6333366,<66t6636663iiidi66tui666<utt6656664t66ii6<6iiy&t>&tiyiiddkd6<%,;356i6>6ittuy656<>3<6",
"tt666t6tii636iisi63<666366tit66it$O>6;tiiddddsdddikissiii6it6ttit66ittii6tiiiiii66222r2r<<>==&&66t66t66636tt7665666uiiiiist>t<=6isdsss=o=63<;$>636iistiit66666<36ii6635576<<<6ttytt3336yiiiititt636<5i6u63>>666i6tts66<6ti=i>=ttsiii6ist3$=&<36ii66663<><,35,<<>",
"t3<6633t6366336ttii<<tt36tit666iiO+&<>tidkddddkdiisssi6isit6t6i66i<&iiit6t666tt66<2112222<><<O&36646tt666<=<t56<;3t6ittiidt;6<>iskiidi3O<tttt<6itisi66tiy6t6tt6tttyu656556<666tiui6<>3iiitisy666tti6iiiu<>&;<,<5i66tt3>66i&i;=66ddiy<56;i635<=>yii356<;=;,><3<&O",
"<36<<55536tit633tty3666636t66iiiiO+$<=sidddskkkddsd66<&tsi6;;5i66t=$tiiiyt6t6ti6666<122r7<><>><>><8;556363<666tiiiiti6tt>><=6;>iiddii65O;6<3<<6tisit36iiitiitt66<<666<36656t66t6<6>,6<tisitii666iii6yiutt6<4t6<<yt66it<6it=i>=t<sks6ist3ii33t<<tit<>,3>&;3;>:1;:",
"<6t4<;=O;X6iii6tit636566t66tiiiii=O+$$issdddldllsiiiy<63tii6iiitt6iiitiii6t6tiiy662<2r215<,5<><<;==;65<3666iyt6tt6yti6ti<=;%<;,iskkdss>o&6<,;5ytii65titiit666it63365>,<3636tt666>6;<6iuisiiiii66iii6tittt66it6ii6iit6t>6it;i==>;idd66itisi<6yi66i<;&$<53<=<<11;;",
"<363>%;0++t533<46<<<,;3t6yt6ittiu==O$&tiidddddddiit<55,6tt6366i6tiiiutsy66tttiit661:12227<6633555356t436t666t66y666tttiu6i6&6<<sddlksd>o&63<6iitii66ttiiiuy6iit666363<<<556i6t6i6iiiititsiisiit6iiusity6366ttti6uttt66,t6i=y&&=O<65t6iiiii6tt666<&=;=<<<<><<<:::",
"<3>&>><$+436<$&<3<366<63<666iiiii@$O;>iiishsdkkdi6<;6t66isi63665<66i6tttit6tiiit62:*1211<<6<<<7535656663333663556tyiiiiiis6=63<sdkksis<o$,6tsitti5666tiii66iyiit63<63,<<566y5666tuiiii66iiiiii6tyiiiyii636t66itti6t66636id;6&&&O>6<65yii66<tii3<>&=,<&>t6<6<:1::",
"5<6<+X;3><36<&=<636iiist<6366iiii$&&;=tispsslkkdi66<<iittiiiii665==;6666t<<<6iit66;&;11176653<tt56566665<;>3t666666usiiiii3;3<6ddlkssi;oo&><tt6t5$%<636tt66ttut63<6t5<666tyit66t36yit666tiitityiissi6itt5t666itii6i66t66td=i=$=O=i6;<6t663$;<6<<>,=><<<t636<:11:",
"3t4;XO>,<5663;<itt6tiii6<,<666666=&;;;iissddlkkhst3<ydssditiiytty;=;>666<><66iit66<::::26565666663<7653<663666566666ysiiii3=<<3dkllsi<>;o=<6i6i668>366itiiiit6666336y666qtiiit6t666it6tiisitiiiiiiiit66666666t66itiiii66is&6=&=o&6<==6t663;>3t56<3<>>666656;:1:1",
"6i6<<3<<466tt36iiityiitt66<62<116&&;1:apphadkklksi6tiddksdis6ttiu6363iii6666<6<65<7<<<36266655736436636<<666t666666ty63ii6<&<33sdlkl6<;6=;33<>36t66tiiutssiiit666356uttt6tiii>t6ttiii6iiisdiiiiiisiitt55<6656y6666iit666is$5&&>;55<==iy<><3ui>$><5<<<6t66y6><<&*",
"tt6t3<<<<3tt66ttiy666i666ii62:111#&*11araadlllddddddkdsdddsi66yiitiiiiit66ttttti6<6<>363<6y555576t6t666<666iit63><55i66iuy<&<36ssllld6O=<<=&&;36tt6siisiidisi636666yt66ttiit6<t66ttiutiiisssititissi6y6633t5t66ttyi666t6is$6&O;<i565;6i<3><<>O=<<><,><6t<<4<><&&",
"tiit53<<><tt666663<36t6<66ier2rrr&*:1:aahdlkdkdisiiidisddsiiiittitisiiityiii6tyiit6633363663<656tt6yttt36iiiit6t366titttti<=36<sslkkkiOo%;;&O;iu366iiiiiidiii6t6yutti66tiii666y66tittuyiissiit<<sisiiit6366t6i6t6tut656tsuO6$OO;yiyi6t65t63<;o=>,,<,><566;<<=;;1",
"66tt6655<<6i66333<>6t6<366iraaaap&&::&hhhhkddhdisdsdddsddkdisiiiiiiii3ituiitit6ti633466436666533666t6tt66tt6t6tiitt<<iitit>=33;idkksss;$$O==O=ii6<6iiiiissi6iyt6iiiiti6tsi6tt6ttittitiiiidsittisiiiiiii66t6iyu663<6iyt66iiO3O$$<ydsdud<<>;;>>O&><<3<,3663;<>;**:",
"66665566<<3t6t4<3><363<66t66rrrrp&@&::raashkkkddiiddjssdhddidiiiiiiti6ii6titt6ttt6<35566<36666666t66<i635yiitttiiii5<tt6it<=<6<iskddld<<5><3<<6it;&<iiiyssit3666iiiii666it6tttt6ttt6iitiidiiiiissdittii6<6tiyit64666iit633X<&%&6dsdlssi66<>;%$-3666653663,<<:*;:",
"-,4566663<<6t6t35;6635<656i62weer&@@:rpaprsdddisd6dkdddlkdiiii6tiiiyitiiiu6t6666665665365336335656666i6666ty6636iyisiiy6ii<&33>tsdklls66663<6ttti3=,6tt6iiti33iiiiiittttii6titi6i6t66iiiidii6yiiiidiisyt6iiiitt6t666t6663<X3&=<iikdli6t<3<<<>=<5645333<,;;<<:;:*",
"-<<<55566<<66666576t3<3665e6errrr&@&2eeereesdspsddlkdddadiiritiiiit6ttit6iit66663356673665673<<366666t6656ti6t666t6tt6566t,=66<tsidkkdut<3<=;6ittt63it3<itt6tiiiisiiiiiu66iyiii6i6663iiisssiiiiidssddsittt6ti66t6336t636i<+t==66ikkdss6t3;;>=&<<,;>><<>><<<<;#*;",
"<>5366663<56tt63<66t<36666e22rerr#O#21wepeeadpaaddkkddiiasi6riitiitt66uy636666363<<65<<<6<<5666t6t6636t3356i6666363666<66t>&663tiiisddi6=<3;66yti6<5i6t6ii66tisisiisii66titiii66iyiutit6iisidsisidssiiu6<>>66uiiutt6i636i5Ot&&5slldlddyi3=O&&&&&><<<66663<:<;*;:",
">;346itt<<66yut6<6ti6issu666e22rr#+O111weprpaarpdddkdsiarrrrepe6ttiii66i66<6ttttq5366<36656633366ytt6ii633666666<<>6t66i66>&663islldki>>>3i6iiiii65y66ttidsyidiitttii666666tt6666isutittidddsdssddssssii3<;;tsiit6ttit36i6O6>=6sllkdddt<=&O&&$O$><3365433<<>;:;:",
"<<3t6t<<;>36tit6<66iiiisi66<ewere@o&:;1weerppaaadddddsiiarpirpiiiiiit6uttt6tititt6556<6it366>;<><<6t66i6t>O<i563><<ti665<t,$56>islkds<;<5666iiiyi<>666ttissiisiit6iyitt6t6itiiii6dsitit6issiisiddiiiisdi6ti66s6iittii66iitX<<=5ssisdist<>;&$$%OoO=3<6663>>><;:*:",
"<3666y553566t66<56tisi66d66<6rrew@+&1wpaaaaprr22sddddarrapppriuiyiiittuti66tiiitt6366<3u66663<6333tt66i66<>6633636uiiiit<,=$66;sdllks6&=,&;5tuitt6<;666t6tii6ttt6<iiiittii6yisdt6sdi6yt6isiiiiissddi6iiitiittityyttit6yt66X3<=6ii<<s3i6;>&$$O$o$$&<>66<<<>><;:;:",
"3666tiq6636yitt6y6tiiyttidi2waare@o*11papapgajr1iidsdiriagagpiit666tiiiyiitiiiit66365<;ttt363<-,<it6tyi6t66tt665<6iiittt63=&363islldsy&&;;;366tt666<t6tiiitiiiiit6iiiitisiittisitit66ii6tiiiisyssii6<36tyuisiut66tiii6uit3+5;&6t563i<s6=>&o$Oo$&;;<<t63<>>;;*;*:",
"<3566y6it<6i666tt6tiitti6da6rrprw@@@:eaprrrhdjp1<qddi<6aaagaiaiit6iisiiiiititiiyy6<3666it66t6t3<<56366i662<et666<i66t66<<<$&<3>siksisi=$O&&,6iti6t45i3iiiitii66t6iisiitiiiiitidsii6t6t<<udiiistiyii6<<<6itiii6i666iiitsi63o5>;6i<6is5i6;&=o$$+o$;;<36666<>;<:;;1",
"33666666633tt66666i6iiitiidarrre2@O*;1prprphdhai6iddiiaprpparasssisdsiiiiiisiiiii6<3yttt666666666yi3<5i6<66666<6:66e666<6<&%<3>iikksstOOoOO;<tiii6<<itiiiiiii66iy6t66tysssi6iiisis6tii6tiiuyiiiitisit<6iuyitt666t66tiiss63X<<=tt=3ddiii;=>-$O+O$>,<6ttt6<><<:;*1",
"3<65<<666636ty6it6t6666t6iiirrrre@+@:2arspasdhiaiipaaprppaarpssiddssdiidisiiiiiit6366t6ttt6666666tiiy66r222re22OXO266y6565&O<3;sidddssOO+oO>3tidsi6<6ttiyiiiittit<<<<56iii6665yssi6iit6ssiiiiiiiiisssiditiiit6366666tiiii<o33;3t6ddsis5$=>>;o+$&>-=3tut<<<>;;;*:",
">353355533<6tiiiytt663<i6itirrp21@X@:1aasusdkdddaaaadrerararaasssdddsiiiiisisii66366ti6t646t6633<6st6r21262r211+ X1eyt6<6t,&<<-iisdssy+o+$;3<6iiytts66ti6tisiitit5><<3656t6<<<tiiiiit66itiiiuyssiissssii6tiit6666666tisiito>,<6ssisd6is=>>=&$oO&;&=3i6633,<;;=&;",
"><35663<36636iiii6366t3tisuepapee&o@11pssrdksksdprarareeprrepaspisidsiiiiiiiit663366tt6t6t666<><66it6rr21rw6e2:0 O12ii666t>=<<>isdkddiOoo&<633ittit66=6<66iii66iyu66t6636t5,,<6tisiitiisisiiitiiiiisissiuttii6666i636iiui<+>;=6ssisi<ty=;;$oo+O>;==<t<35<,>>;-=>",
",<33663666y66ytti6<6ittiiisdahape&@@;wppipdhdskhppappr2eraeepaueiisiiiississsitt66666656yy66>;><63666622ee221:1::2rrr6i66i>%36>iillksiO+o$>tutiu66i6y,;=3tiiit6ti6666635t663566tiiiitiiiisiiiisiiidiiddiii6titt6it663<iis3$<3;3tssi6;iy6<3O+++$&=&&<i63<<<><>;;>",
"<<<t<3<66tt666i6i<5tiiyipuperhape*o@&wappikddiddaapprprrprrwrsiuiiiiisiiiisiiitt6t666t66665,>3<<33666r6e22ee11:wrr1i66iiti>&<6<tikllki&++O$<666t5iiit6;$>iissitii6366666tt66t66ttiiiiiisisidsisiiisdsssiiyt6t6666356t6iis5O<<;36dki5;ii6<3&$OO%>;,;<t633<<<3<>><",
">;<6<<3666556ii36,<6isisuepprparw@+@*:aaadddkdddapajarrpperersiiiiiiidiiitiuiy66636tty6t6<<<<33<3<<36i6q<:re2122w1;rr66iti<=<6<yisdsss=OO=O><<356<ytii5;5tisi636ut6it6t6y666666iyiitiis66iiiiisiidddiddii6tiy653666iiyiii6X&;=tiddi6;t3;<3$Oo+O=<3=,5<34333<>><<",
"=;33,<36666336t<<<36tiisiuissppre=+O;:ddsaddddkddpesdspapeeerpeie6eiirrpi66itii665tii666t655656<6<<<6t5<266t22666i62i6t6tu>&66<sddsdu6$oO;<35666><<6iit66tyii636t6iit366y66i666tiisisiiittiiiiiiidsdssissitiiiit6tytiiiiss oO=6iksi<><3<><O+O+oO;>>36<6633<<>><>",
">,53><<66y53566,3<<666iiuupsperpi&+O&5ddsddkkhkdadsdhdppreeere6ewrre6erpireriiy66<<5636<<765<<535333665<5666266rii:<iit66t,;66>iisldi6&$%><33666>t6tiittt66ti655i6ti6466it6ut66t6iii6tiiiisisdsitssddidiii6iiiuttiittisiiiXOo&tidlt><<t>;<%O=&OO&;3yt6666<63<><>",
"<<<,><3t6i56t6;<3<<3<6u66espw2rrr#+X&5uu>idhkkdsdshhdkappe2weeeerrre2rrrarrriit6y6,<55556566553<566566t5666363<e6i<<yit5ti><3<3iissids&O=<>66ytitsiiiii66666y656tt6it666tit6tit66iuttttitiiy66iiidksdisssitiiii6tist6tsssy+$O=6dkki<<6s<5;$$&;&O;666t6t655363;><",
"3<3<<6666tt666<3363;;3ui66rsewerr&oX$;ds6ssdkddssdkhkhappe2werrrrrr622rpr6r66336366qq55555y6453665676yi666ti666it6t6t6666i;;5<<itiddis=O&<66tiitiiiisiit3636i6566ttit636666666tt66tiiiyiit666tiisdddidsisytiii6666ii6isssy+=O&6dddi,;sids;+oO;;=>><6y666<<536=<<"
};
