/* XPM */
static char *cible[] = {
/* columns rows colors chars-per-pixel */
"420 552 86 1 ",
"  c black",
". c #010101",
"X c #0C0303",
"o c #0B0B0B",
"O c #140B0B",
"+ c #131313",
"@ c #1E1111",
"# c #1B1B1B",
"$ c #210707",
"% c #240C0C",
"& c #320B0B",
"* c #390D0D",
"= c #3C1C1C",
"- c gray14",
"; c #2B2626",
": c gray17",
"> c #343434",
", c #3C3C3C",
"< c #5A1414",
"1 c #521B1B",
"2 c #661A1A",
"3 c #791F1F",
"4 c #742F2F",
"5 c #7B2C2C",
"6 c #434343",
"7 c #4C4646",
"8 c #4C4C4C",
"9 c gray33",
"0 c #5B5B5B",
"q c #626262",
"w c gray42",
"e c #747474",
"r c #7C7C7C",
"t c #832323",
"y c #8C2424",
"u c #9D2929",
"i c #853939",
"p c #9D3131",
"a c #943C3C",
"s c #AC2C2C",
"d c #B42C2C",
"f c #BC2929",
"g c #A33434",
"h c #AC3131",
"j c #AC3B3B",
"k c #B53535",
"l c #BA3333",
"z c #B33939",
"x c #A14040",
"c c #AC4C4C",
"v c #B84444",
"b c #848484",
"n c #8B8B8B",
"m c #939393",
"M c #9B9B9B",
"N c gray64",
"B c #A4A4A4",
"V c gray67",
"C c #ACACAC",
"Z c #AFAFAF",
"A c gray70",
"S c #B6B6B6",
"D c gray72",
"F c #BBBBBB",
"G c gray",
"H c #C1C1C1",
"J c #C3C3C3",
"K c gray77",
"L c #CBCBCB",
"P c #CDCDCD",
"I c LightGray",
"U c #D7D7D7",
"Y c gray86",
"T c #DFDFDF",
"R c #E2E2E2",
"E c #E4E4E4",
"W c #E9E9E9",
"Q c #EAEAEA",
"! c gray92",
"~ c #EFEFEF",
"^ c #F3F3F3",
"/ c #F4F4F4",
"( c gray97",
") c #FBFBFB",
"_ c gray99",
"` c #FDFDFD",
/* pixels */
"                                                                                                                                                                                                                                                                                                                                                                                                                                    ",
"                                                                                                                                                                                                                                                                                                                                                                                                                                    ",
"                                                                                                                                                                                                                                                                                                                                                                                                                                    ",
"                                                                                                                                                                                                                                                                                                                                                                                                                                    ",
"                                                                                                                                                                                                                                                                                                                                                                                                                                    ",
"                                                                                                                                                                                                                                                                                                                                                                                                                                    ",
"                                                                                                                                                                                                                                                                                                                                                                                                                                    ",
"                                                                                                                                                                                                                                                                                                                                                                                                                                    ",
"                                                                                                                                                                                                                                                                                                                                                                                                                                    ",
"                                                                                                                                                                                                                                                                                                                                                                                                                                    ",
"                                                                                                                                                                                                                                                                                                                                                                                                                                    ",
"                                                                                                                                                                                                                                                                                                                                                                                                                                    ",
"                                                                                                                                                                                                                                                                                                                                                                                                                                    ",
"                                                                                                                                                                                                                                                                                                                                                                                                                                    ",
"                                                                                                                                                                                                                                                                                                                                                                                                                                    ",
"                                                                                                                                                                                                                                                                                                                                                                                                                                    ",
"                                                                                                                                                                                                                                                                                                                                                                                                                                    ",
"                                                                                                                                                                                                                                                                                                                                                                                                                                    ",
"                                                                                                                                                                                                                                                                                                                                                                                                                                    ",
"                                                                                                                                                                                                                                                                                                                                                                                                                                    ",
"                                                                                                                                                                                                                                                                                                                                                                                                                                    ",
"                                                                                                                                                                                                                                                                                                                                                                                                                                    ",
"                                                                                                                                                                                                                                                                                                                                                                                                                                    ",
"                                                                                                                                                                                                                                                                                                                                                                                                                                    ",
"                                                                                                                                                                                                                                                                                                                                                                                                                                    ",
"                                                                                                                                                                                                                                                                                                                                                                                                                                    ",
"                                                                                                                                                                                                                                                                                                                                                                                                                                    ",
"                                                                                                                                                                                                                                                                                                                                                                                                                                    ",
"                                                                                                                                                                                                                                                                                                                                                                                                                                    ",
"                                                                                                                                                                                                            +...X.....  ......X.o                                                                                                                                                                                                   ",
"                                                                                                                                                                                                       9..............  .....o.....X.9                                                                                                                                                                                              ",
"                                                                                                                                                                                                    +..X.....o.,             0......X...o                                                                                                                                                                                           ",
"                                                                                                                                                                                                 >+....X..6                        ...+o...-                                                                                                                                                                                        ",
"                                                                                                                                                                                               ..X...+.      ...X.....  ....X...      -oX..X..                                                                                                                                                                                      ",
"                                                                                                                                                                                             ...X...     ...X...X.....  ....X.....XX     +.X....                                                                                                                                                                                    ",
"                                                                                                                                                                                           ...X...    ................  ..............X0   >....X.9                                                                                                                                                                                 ",
"                                                                                                                                                                                         ..o...-   ,...X..............  ..............X..o   7.X.X.o                                                                                                                                                                                ",
"                                                                                                                                                                                       #......   #o...................  ....................   7...X..                                                                                                                                                                              ",
"                                                                                                                                                                                      Xo....   :..o...................  ....................X.   ...X..#                                                                                                                                                                            ",
"                                                                                                                                                                                     .o...#   X..X....................  ...................+.o.+   ..o...                                                                                                                                                                           ",
"                                                                                                                                                                                    X.o..   ......S`)/#+..............  ...........Xo`^`A.X......   ...+..,                                                                                                                                                                         ",
"                                                                                                                                                                                   X..XX  0o...../)````...............  ............``)`)Q.......o.  6.X....                                                                                                                                                                        ",
"                                                                                                                                                                                  7o..+  ..X.....``>.``...............  ............``.o/`........oo   ...Xo.                                                                                                                                                                       ",
"                                                                                                                                                                                  ..X0  .XX.....XV/`)`^...............  ............^^))/BX..........0  oo....                                                                                                                                                                      ",
"                                                                                                                                                                                 ...   ...X......m``)`^...............  ............E`/``A...........+o  .X....                                                                                                                                                                     ",
"                                                                                                                                                                                ...  8..........X``.X`Er.............o  ...........9Q`.X~).............#  .X....                                                                                                                                                                    ",
"                                                                                                                                                                                ..   .X..........)`:.`)M.............X  o..........w`/.X^`............X.X  .o....                                                                                                                                                                   ",
"                                                                                                                                                                               ..  q...X........XU```)`X...........X.+  .o..........``)``YX..............X  o....                                                                                                                                                                   ",
"                                                                                                                                                                              6.>  .X...........X.:VCw....o..oX#             6.X.X.o.mSB7.................#  .oo..                                                                                                                                                                  ",
"                                                                                                                                                                              .X  .o.............X...X...o..       7X#  .>       o.o..X.X................X.o  .o..#                                                                                                                                                                 ",
"                                                                                                                                                                             -o  .o.X...........XX.XX.X..     .o.X....  .......     ..X.XX..................9 8..Xo                                                                                                                                                                 ",
"                                                                                                                                                                             X  .......................    .o.........  ........o.    .......................  ..X.-                                                                                                                                                                ",
"                                                                                                                                                                            :  +X....................    Xo.o.........  ..........o.-   ....................XX  ....                                                                                                                                                                ",
"                                                                                                                                                                            .  ..................X..   ...............  ..............:   ...................o.  X..7                                                                                                                                                               ",
"                                                                                                                                                                              ...................o   .X...............  .............X..   ...................o  .X..                                                                                                                                                               ",
"                                                                                                                                                                           8 XX..................  q+..X..............  .............X.X+o  o..................X  ..o                                                                                                                                                               ",
"                                                                                                                                                                             ................X.o  +........o..........  ...X..............X  :..................+ 7X.>                                                                                                                                                              ",
"                                                                                                                                                                            .................XX  X............+.......  ....oX..o.X.........  +..................  .o.                                                                                                                                                              ",
"                                                                                                                                                                            X.................  ...........Q/`w.......  ...X.E``n............  :.................o q..                                                                                                                                                              ",
"                                                                                                                                                                           .o..............o.  .........o.`````AX.....  ....`^```U............  .................X  ..                                                                                                                                                              ",
"                                                                                                                                                                           .................  X..........w/)..`/......  ...+/`..``X..........X.  .X.............+.. 7.o                                                                                                                                                             ",
"                                                                                                                                                                          ..............XoX  ...........Xb`~XX~`..X...  ...X``.X`)..............  .X...............  +.                                                                                                                                                             ",
"                                                                                                                                                                          ................o  ...........oo``````X.....  ....``````X..............  o................ +.                                                                                                                                                             ",
"                                                                                                                                                                         ...............X.  ..............-)),/`..o...  ....X`)w/`...............  +...............X  .                                                                                                                                                             ",
"                                                                                                                                                                         X...............  ...............rIX7E/o.....  ....nLo+/~................  X..............o7 o                                                                                                                                                             ",
"                                                                                                                                                                        0................  o..............`/`~^w......  ....^)``/m................+ -................ >                                                                                                                                                             ",
"                                                                                                                                                                        ................  o.............o..m`Do...o...  .....e^A+o..............Xo.  ..............X.  ,                                                                                                                                                            ",
"                                                                                                                                                                        ................  ...........................o  ............................ +o..............7 6                                                                                                                                                            ",
"                                                                                                                                                                        ...............  ..........................o.o  ...........................+  .X.............X 7                                                                                                                                                            ",
"                                                                                                                                                                        .............X.  ....................X.o..cffffffff.o.Xo....................o X...............                                                                                                                                                              ",
"                                                                                                                                                                        .............oX ..X..................Xo.vffffffffffffo......................X  ...............                                                                                                                                                              ",
"                                                                                                                                                                        ..............  o.....................#fffffffffffffff o.....................  X.............o,                                                                                                                                                             ",
"                                                                                                                                                                        .............X  ...................X.,fffffffffffffffff #...................., ..............X.                                                                                                                                                             ",
"                                                                                                                                                                        X............. 7.....................fffffffffffffffffff .X................... ................                                                                                                                                                             ",
"                                                                                                                                                                         ............. ..................... ffffffffffffffffffffX...................o  ..............o                                                                                                                                                             ",
"                                                                                                                                                                         ............: ....................0fffffffffffffffffffff ....................  ..............>                                                                                                                                                             ",
"                                                                                                                                                                         ............  .................... ffffffffffffffffffffffX...................  ..............                                                                                                                                                              ",
"                                                                                                                                                                         XX........X.  .................X.+ffffffff.X.f.X.ffffffff ...................  ..............                                                                                                                                                              ",
"                                                                                                                                                                         ............  ..................X ffffffffo.of.ozffffffff .X.................7 ..............                                                                                                                                                              ",
"                                                                                                                                                                         7...........  ................... ffffffffi..+..ffffffffff.................... ..............                                                                                                                                                              ",
"                                                                                                                                                                                                           fffffffffX...offffffffff                                                                                                                                                                                                 ",
"                                                                                                                                                                                                           fffffffff.....ffffffffff                                                                                                                                                                                                 ",
"                                                                                                                                                                          ...........  .................X. ffffffffz+....ffffffffff+..................6 .............                                                                                                                                                               ",
"                                                                                                                                                                          o..........  ................... ffffffffX..f.X=fffffffff.X.................  ...........X.                                                                                                                                                               ",
"                                                                                                                                                                          ...........  ..................o ffffffff..ofXo.ffffffff ...................  .............                                                                                                                                                               ",
"                                                                                                                                                                          +..........o X...................ffffffffzzzflzzdfffffff ...................  .............                                                                                                                                                               ",
"                                                                                                                                                                           ........... .................... ffffffffffffffffffffff.................... 6.............                                                                                                                                                               ",
"                                                                                                                                                                           ...........  ...................+fffffffffffffffffffff .................... ..............                                                                                                                                                               ",
"                                                                                                                                                                       66  ...........  o................... ffffffffffffffffffffXX.................X  .............  8                                                                                                                                                             ",
"                                                                                                                                                                       ..X............, .....................fffffffffffffffffff#X...................  ...............X o.                                                                                                                                                          ",
"                                                                                                                                                                       ................ >.X...................fffffffffffffffff7X..................X. -X..............X X.                                                                                                                                                          ",
"                                                                                                                                                                       o...............  .o....................fffffffffffffff.....................X  ................  .X                                                                                                                                                          ",
"                                                                                                                                                                     + ................; .......................@fffffffffffx.......................  X..............X  o.                                                                                                                                                          ",
"                                                                                                                                                                     . X................  .X......................Xjffffff%..o..................ooo# .................  ..                                                                                                                                                          ",
"                                                                                                                                                                     +  ................9 .X.................X.....o..  .+X........................  ................. .X.                                                                                                                                                          ",
"                                                                                                                                                                        ................o  .................o#........  ..X....X.................o0 .................  ...                                                                                                                                                          ",
"                                                                                                                                                                      o ..X..............; oo...........Xob`/`~.......  ....b`)^`+................  o..............Xo  o.>                                                                                                                                                          ",
"                                                                                                                                                                      .  X................  .............o/`r~`~.XX...  ...X)(rP/`...............  .................. o..                                                                                                                                                           ",
"                                                                                                                                                                      X  ..................  ............n`^.X``#.X...  ...;``oX`/..............9 #................o  ...                                                                                                                                                           ",
"                                                                                                                                                                      6. ..................- 9.X.........6`).e``......  ....)`.:)`o..........XoX  ..................  +.o                                                                                                                                                           ",
"                                                                                                                                                                       .  ..................  o..........X`^!``/......  ....)`~))`o............  ..................+ ...+                                                                                                                                                           ",
"                                                                                                                                                                       .: ..................X  +..o.....oo.7eX`)+.....  .....7e.``............  X...............XXX  .o.                                                                                                                                                            ",
"                                                                                                                                                                       ..  .X.................  #X.......o)`#F`)......  ...+``6w``...........  X..................o o...                                                                                                                                                            ",
"                                                                                                                                                                       ,.0 .................X..  -........L````+..X...  ....n```)+..........  ..................X.  ....                                                                                                                                                            ",
"                                                                                                                                                                        ..  ...................o   .........oX........  ......XXXX.........  X.................... ,.o.+                                                                                                                                                            ",
"                                                                                                                                                                        .o8 .....................   ...........X......  .......XX.....X.o   .....................  .X..                                                                                                                                                             ",
"                                                                                                                                                                        +..  ................o..X..  +......X.........  .....X.........#   o....................> ..ooo                                                                                                                                                             ",
"                                                                                                                                                                        >X.o >......................   ....X..........  ........o..X..   .......................  X...X                                                                                                                                                             ",
"                                                                                                                                                                         o.X  ......................X.   X..X.........  ............   ;......................o  .....o                                                                                                                                                             ",
"                                                                                                                                                                         ....  X.......................-    .+........  ....XX..X>   6........................- :.....                                                                                                                                                              ",
"                                                                                                                                                                         ...oX  X.....................X...     +X....o  o.oX..     +o.X.....................o.  ......                                                                                                                                                              ",
"                                                                                                                                                                         .X..X  -.........................XX.                   >X.X...o.....................  .......                                                                                                                                                              ",
"                                                                                                                                                                         ....o.  .X    0..+X....o.   o....X.....X9          .#.o..........X.................  o.......                                                                                                                                                              ",
"                                                                                                                                                                         .....X+          -.....oo     o.....X........  .......X....o.o..o.................  :o.......                                                                                                                                                              ",
"                                                                                                                                                                         .....+    ...o     X....  .    #.......X....X  ..X...X......^``)`................;  o.......X                                                                                                                                                              ",
"                                                                                                                                                                         9o..o7  ........     ..  oX.-   .............  ...........oM``.`/A.............X>  ..........                                                                                                                                                              ",
"                                                                                                                                                                          X...  ...........    + 0.....  .............  ...........on)`.``m.............;  ..........o                                                                                                                                                              ",
"                                                                                                                                                                          X..  .............7    .o.X.   .X...........  ...........o.E`/)^+X...........9  ...........                                                                                                                                                               ",
"                                                                                                                                                                           .  .............o..  ...ooq  +X............  ............N``w`)J.X.........   .....XX.o..                                                                                                                                                                ",
"                                                                                                                                                                              Xo...........XX..+oo..o   ..............  ............)/bXn)`........X.   .....XX                                                                                                                                                                     ",
"                                                                                                                                                                             .b..............+oX..oX   ...............  ...........+/^)>^`).........  oo.......                                                                                                                                                                     ",
"                                                                                                                                                                            ooo+.............#+7o.X   X...............  ...........X.```_).X......9  ..........                                                                                                                                                                     ",
"                                                                                                                                                                           9.Bo..............X.o.w..    ..............  ...........+...+.........   X.........X                                                                                                                                                                     ",
"                                                                                                                                                                           .CX.....X.........XX...~..    Xo...........  ...................o..X   ...........X.                                                                                                                                                                     ",
"                                                                                                                                                                          .o>.......q/``(``^;.+....A:o;   8.X.........  ...................X.,   ..X...........                                                                                                                                                                     ",
"                                                                                                                                                                         -.`o...o.b````)`)`/`)wXo.X.7P..    o.........  ...............X.o.>   ................                                                                                                                                                                     ",
"                                                                                                                                                                         .YoX.o.X)````)`/`)`)`/Qo..X../+.    ..o......  ..............o..    ..................                                                                                                                                                                     ",
"                                                                                                                                                                        .7A.....^~``Vo.oXo.;`~```+.X...(#o   #X.......  ..............>    ....o...............                                                                                                                                                                     ",
"                                                                                                                                                                       +./...ooR`~`+o........B```8X..Xo./+.   ..X..o.X  .Xo......X.0    7......................                                                                                                                                                                     ",
"                                                                                                                                                                       +)7X..Xr`/`.o+.........C``Q...o.o.`X.   .o.o...  X.....;      ,..X......................                                                                                                                                                                     ",
"                                                                                                                                                                      .q`.....``^>.........X...`Q`...ooX.UwX                      ...X.oXX.....................                                                                                                                                                                     ",
"                                                                                                                                                                     ..`o.oX.M)``.+..........X.:~)K.....X-`.o  ..o         ;.X.................................                                                                                                                                                                     ",
"                                                                                                                                                                     .`IoX...```eX............oX```......./..  o.oX..o  X..o..X................................                                                                                                                                                                     ",
"                                                                                                                                                                    XB`....o.```o.X.............``).o...X.`..  .......  .....................................X.                                                                                                                                                                     ",
"                                                                                                                                                                   o.`0o....+```................```.....Xr)X;  .......  ......................................X                                                                                                                                                                     ",
"                                                                                                                                                                   .,`.....X9```X.X.............```oo....`M.   .......  ......................................                                                                                                                                                                      ",
"                                                                                                                                                                   .VQ.....o9```#.X..........X.X``)X....M`..  -.......  ......................................                                                                                                                                                                      ",
"                                                                                                                                                                   .VCX.....+```Ro............X.)``XXXX;`7.   ........  ......................................                                                                                                                                                                      ",
"                                                                                                                                                                   .bH.....o.````.............oK``wXX..`~+   .+o......  ......................................                                                                                                                                                                      ",
"                                                                                                                                                                   ..`.......`M`/R............o```..X.P/.+  o.........  ...................................X.                                                                                                                                                                       ",
"                                                                                                                                                                   ,.Goo...o.JN`/)S..........o/``9.X.:`o.   ...........o....................................                                                                                                                                                                        ",
"                                                                                                                                                                    XXQ...o...`.```Q......o.0)``I.o..`A.   .............................................o..7                                                                                                                                                                        ",
"                                                                                                                                                                   ....V......C.9``~`R>...m`)``~..o.~`.,  Xo.............................................X                                                                                                                                                                          ",
"                                                                                                                                                                  o...X.bo...o+E.+Q/^`))``````Ko.XX0`..   ................................................                                                                                                                                                                          ",
"                                                                                                                                                                  .......w...XX.,..b```````/Q#....._ro   o................................................                                                                                                                                                                          ",
"                                                                                                                                      8.......+                  oX.....X....X.X......qBDr:X......`/.   ..................................................                                                                                                                                                                          ",
"                                                                                                                                     .....X.......o9             .X......o...#XXoX....X...X....Xob`..  0.................................................X                                                                                                                                                                          ",
"                                                                                                                                   ,...................         ................................X`9.   ...................................................                                                                                                                                                                          ",
"                                                                                                                                   .................X.X.        ................................`/o   ...................................................X                                                                                                                                                                          ",
"                                                                                                                                  o......................;      .........oo....+.............X.V`..  X....................................................                                                                                                                                                                          ",
"                                                                                                                                  .......................+X    ;..........o...X.q.+...........+`;.   .....................................................                                                                                                                                                                          ",
"                                                                                                                                 ........................X.0   .........+````>..oX9..........o)UX   o.....................................................                                                                                                                                                                          ",
"                                                                                                                                 ...........................   ........o/R..w`+....E.+Xo...o0)T.7  #.....................................................>                                                                                                                                                                          ",
"                                                                                                                                 ............................  9.......w`X``o`RX....MCX+X.o``e.o   o.....................................................7                                                                                                                                                                          ",
"                                                                                                                                 ............................+  .....o.A/o`).).o.....M)-....X..   ..o....................................................                                                                                                                                                                           ",
"                                                                                                                                q.............................  o....X.+q`X.n`.X....../)V+...    ....................o.X.................................                                                                                                                                                                           ",
"                                                                                                                                .............................X. 6o...XX..m``/.o........^        .o...................   .................................                                                                                                                                                                           ",
"                                                                                                                                ..............................o  ...................o.`,     q.X.....................0  .................................                                                                                                                                                                           ",
"                                                                                                                               :...............................o  .................o.`>   ...o.......................0  .................................                                                                                                                                                                           ",
"                                                                                                                               X.............................X.#  .................o~    ............................0  .................................                                                                                                                                                                           ",
"                                                                                                                             0.................................  X..........o......`,   .XX..........................0  .................................                                                                                                                                                                           ",
"                                                                                                                        ,.X.o.................................  X........Xo...ooX0`o   .X.X..........................0  .................................                                                                                                                                                                           ",
"                                                                                                                    ...........X..............................  ........o;m...+L`9    .XXoo..........................0  .................................6                                                                                                                                                                          ",
"                                                                                                                  ...........................................  ......X.X.Xo0Vb9.     ................................0  .................................o                                                                                                                                                                          ",
"                                                                                                                 ...X......................................o  ........o.            X..o.............................0  ..................................                                                                                                                                                                          ",
"                                                                                                                -.X........................................> +.........-           -..o..............X.......X..X....   .............X....................                                                                                                                                                                          ",
"                                                                                                                .X.........................................  ..........   o....o     ..X..................X...o              0o.o.......................X.                                                                                                                                                                          ",
"                                                                                                                o.........................................  ..........   X...Xo  7.   #o...............,                             >....................                                                                                                                                                                          ",
"                                                                                                                .X............................o- .......o8 >........X0    ....   ..XX   .XX..X.....        0XoX......0  ......o..         8o..X...........+                                                                                                                                                                         ",
"                                                                                                                ...............................   .......  ..........      ...  ......>  o.Xo..       .XXo...........0  ..........XX...9      -............                                                                                                                                                                         ",
"                                                                                                                -.............................     .....  .X........   ..  +.   ...X..+#  .o     9..o...X.X..XX......0  ............X.....X+     7.........                                                                                                                                                                         ",
"                                                                                                                 .X...........................     -..X  X.........   ...o  7  .........      +..X...................0  ...................X..X0    9.......                                                                                                                                                                        ",
"                                                                                                                 .............................      ..X  #........o  9..XX:   .X.........  +.o.......................0  ....................X...o.,    o.X..                                                                                                                                                                        ",
"                                                                                                                 o...........................X   X.  .  ........o.   ......   #..........  .o........................0  ............................X    ,...                                                                                                                                                                       ",
"                                                                                                              .8 .X...........................  qX.q   .........X   ........  ..........+. ,.........................0  ..............................o>    ..                                                                                                                                                                      ",
"                                                                                                             +o. -............................-  -..   o........;  -o........  ...........  .........................0  ...............................X..    o                                                                                                                                                                     ",
"                                                                                                            +.X# XX...........................o-  o..   X.o.....   ..........  ...........# .........................0  ....................................    7                                                                                                                                                                   ",
"                                                                                                           ...o  X...........................X.o.  XXX    .....   ..X......... X...........  ........................0  ......................................   ;                                                                                                                                                                  ",
"                                                                                                          o.o.   ............................+o.oo  ...    ..o6  oX........... ............+ ........................0  .....................................o..   .                                                                                                                                                                ",
"                                                                                                         ..X,   X.X...............................8  ...     .   ++........... .............  .......................0  ........................................X,                                                                                                                                                                  ",
"                                                                                                        ...   7X.................................o.   ..X       oo...........  ............X  .......................0  ...........................................   X                                                                                                                                                             ",
"                                                                                                        XX   .......................................   ...     ...o..........  .............  .o.....................0  ...........................................X.   o                                                                                                                                                           ",
"                                                                                                       .X+  ............... X........................  ;.X.#  7o...........oo +X............  .......................0  ..............................................   X                                                                                                                                                          ",
"                                                                                                      o..  ................0 .......................X.  +.oo#   o...........  ..............0 .......................0  .............................................Xo:  -.                                                                                                                                                        ",
"                                                                                                      ooo  .X...............  .X......................+  .X..o   ...+....o.0  X.............# .......................0  .................................................   .#                                                                                                                                                      ",
"                                                                                                     ...  .o.................  o.......................0  ....X    .X....X.  .X............XX X......................0  ..................................................   .+                                                                                                                                                     ",
"                                                                                                     X..  ..o................. ;.......................o   .....o    ....o   ...............X .......................0  ...................................................,  .X+                                                                                                                                                   ",
"                                                                                                    ....  ....................X .........................   ....+.           ................ .......................0  .....................................................  ...                                                                                                                                                  ",
"                                                                                                   7....  o....................+ X.......................X  9...+o        .o ...............: .......................0  ......................................................  ....                                                                                                                                                ",
"                                                                                                   .....q ......................- .o.......................  -...   ........ ..............X0 .......................0  ......................................o....o...........  ;...,                                                                                                                                              ",
"                                                                                                  X.....0 X......................0 .........................  +X   7X....... ..............o  o......................0  ........................................o..X............  -XX+o                                                                                                                                             ",
"                                                                                                  ..o...  ......................o+  o........................  .   ........  ..............o -.......................0  ......................................ooI`^^...........o.  :oo.X+                                                                                                                                           ",
"                                                                                                 X...X..  .........................  ..X.....................o    ......o.. ,............XX  ........................0  ......................................X^`Y^`Q.............  ;oo..X                                                                                                                                          ",
"                                                                                                ......X.  X......................... .+......................o+   +.......  ............XXo -........................0  ......................................+`~+X.o...........X..  +...Xo.                                                                                                                                        ",
"                                                                                                X.o....#  .........................o  .o.......................X   ......X  X............o  .........................0  ......................................r`````8............X..  ......o                                                                                                                                       ",
"                                                                                               ......o.9 >........................... :.........................X   X....X  ............X  ..................X.X.....0  .......o..............................V``.7`)................  .......o                                                                                                                                     ",
"                                                                                              o.......X  X...........................X X.........................X    .... ..............  ..........................9  ..o...................................0``.+``...............X.  ......X+                                                                                                                                    ",
"                                                                                             .........   .........o...................  o...........................     + o...........X  o.............X...#                   -...XX.......................X.`````E.................o  oX.....X+                                                                                                                                  ",
"                                                                                            X.........  .........X.oX................o. 7...........................o.     ..........X..  .............6          0oo0  .,0          -.X......................o-/`QD...................q  X........6                                                                                                                                ",
"                                                                                           .o........  >.......... ...................Xo X............................X.Xo 7...........X .o........o       .o........   ..........       #.........................+...................X  +......o...                                                                                                                               ",
"                                                                                          X........X.  .........X.  ....................- q..oX...........................  ............ X.o.oX..     ;..............0  ..............>     +XX.X........................................  .o..........                                                                                                                             ",
"                                                                                        +...........  X............  -X...................  6.o..........................X  ...........X .....     oX.X..............0  ..............o.X.     ...X.....................................oX  .........o.o.                                                                                                                           ",
"                                                                                       .............  .o..........X.o  ....................+  ..........................o.. o........... ...    +o..X................0  ..............X...XX.    ++.....................................o.6 6........X.....                                                                                                                         ",
"                                                                                     >X.............  ................  .....................  .+oo........................  ........... .    .......................0  .......................9   #..X....................................  ..............o.                                                                                                                       ",
"                                                                                    ..+.............  ...............o+  .X................X..0 -o........................., .o........+   0..X......................0  .........................+   -o.....................................  ...............o.                                                                                                                     ",
"                                                                                   X...............o  .X................ 7..o.................X- 9oX........................  .........  9...........................0  ...........................o   .....o..............................X9 #o.................                                                                                                                   ",
"                                                                                 ;..................  ................... .X...................o.  .........................o  ........  o...........................0  ............................X#   X.o.................................  .................X..                                                                                                                 ",
"                                                                                o...................  ...................  .X.................o...  .......................X.   ......  .............................0  ............................Xo.   #.X.................................  .....................                                                                                                               ",
"                                                                               .....................> 8..................o  ..o....................  >ooXo..................o0   .X..  >.............................0  .................................   ..o...............................  .oo...................-                                                                                                             ",
"                                                                              X....................o.  o................o..  .X.....................X  ..o...................  +      -o.............................0  ..................................   ..................................  .......................                                                                                                            ",
"                                                                             X.......................  ....................o  +X....................X.   ...................  -      .X..............................0  ....................................  0X...............................  .X..................X..X.                                                                                                          ",
"                                                                            .........................X  .....................9 +.....................o.o  -X..............X     .....................................0  ...................................X.   oo...........................X..  .........................                                                                                                         ",
"                                                                           ..........................X  oX.................X..o  .......................XX  .............+     ......................................0  ......................................   .X..........................oXX  .......................XXXo                                                                                                       ",
"                                                                          ............................o  XX....................#  Xo.......................  #X.....XoX..9   X.......................................0  .....................................Xo,  ..X...........................X  ...........................                                                                                                      ",
"                                                                         ..............................  +....................X..  ........................XX  6X.....o     .........................................0  .....................................X.Xo  .............................o  ..........................X.                                                                                                     ",
"                                                                        #X...........................X..  o..................X..o.  ..........................+            ..........................................0  .....................................o.oX.  +.............................  X.........................X0                                                                                                    ",
"                                                                        ................................q  .X......................  .X...........................o...oX  X..........................................0  .........................X................#  ..o.........................X  X...........................                                                                                                    ",
"                                                                       .................................o   .......................X0 8o...............................o7 >..........``````_.........................0  ........................X/```)`~............  ............................. -............................                                                                                                   ",
"                                                                      o.................................oX   .........................  ...........................o.....  ..........```````o........................0  .........................`````^`........X..X+  ...........................X  ............................9                                                                                                  ",
"                                                                      +....................................   .........................  ................................  ..........oo.+``oX........................0  .........................o.oo`)............X.o  oo.........................  ...........................o.                                                                                                  ",
"                                                                     .oo...................................    X......................X.X  ..............................  .........o...`(6X.........................0  ...........................o`^XX............X.>  o.......................... 7..........................XX.                                                                                                 ",
"                                                                    :......................................     +X+.X.....................   .X...o..................o.X.  ............e``X..........................0  ...........................M``.................  ;.X.......................+  .o...........................                                                                                                 ",
"                                                                    .......................................       .......................XX.   +.X.....................o  .............`)0...........................0  ...........................`/+o.................  .o........................  ..............................                                                                                                ",
"                                                                   9.......................................;  .X   o........................X.9  +o....................#  o............``............................0  .........................../`....................  .......................... :X............................                                                                                                ",
"                                                                   .X.......................................  7.o    X.o.......................X-  ....o...............  +............+``............................0  .........................X0``....................-  .......................X.  ..............................                                                                                               ",
"                                                                   X........................................   o..+   X...........................  ..X..........X.o.   9............................................0  ..........................-.+....................o  .......................o.  o...........................X.                                                                                               ",
"                                                                  ..........................................7  ..oX.    ...........................  6..........X.8    X.............oooX............................0  .........................X+.....................++.  ........................8 ............................Xo.                                                                                              ",
"                                                                  ...........................................   +X....   ++X........................o   -....:       ,.o..................................X....#              6..o..X......................................o 9.......................X X..............................                                                                                              ",
"                                                                  o........................................X.9  #ooX...    .X..........................           o.X..X................................X..,                       oo.......................................  ........................  ...............................                                                                                             ",
"                                                                 .X..........................................X   ........   .o...............................  ...o.....................................9     #......0  ........q     o...X.X................................  .......................  ..............................X                                                                                             ",
"                                                                 .............................................o   ..X.....    XX.............................o  ....................................X+    9..Xo......0  ............     ....................................  ......................X  ................................                                                                                            ",
"                                                                 ..............................................    ......XX+   #...........................o..  o..................................-    .o...........0  .........o.o.oX    o..................................  ......................  ...............................X                                                                                            ",
"                                                                 o.............................................X    .........    o............................, -.............................oo.+   :.X.............0  .................    .................................  ......................# ..X.............................0                                                                                           ",
"                                                                 ................................................    .X......o.    .X.......................... 9.............................oo   -o................0  .................X.   9X.............................o.  ....................X. .................................                                                                                           ",
"                                                                :.................................................     .....X+...    +.........................  ............................o6   Xo..o..............0  ...................o.   X..............................  ...................... o................................                                                                                           ",
"                                                                .XX................................................9     .+.X......     X.....................  .X.........................+.   o.o..................0  ......................-  7..o..........................+ ;..................... ................................+o                                                                                          ",
"                                                                X....................................................        ..XX.o        +.................X  .X.........................X  0o.....................0  ......................Xo   ............................X  X...................o ,.................................                                                                                          ",
"                                                                .......................................................              9..      7XX.X...X.....o   ..........................8  ........................0  .........................   ............................q ..................... 0X................................9                                                                                         ",
"                                                                ......................................................X.X.           ..X.X.        0X...XXo.   ..........................   .........................0  .........................oo  .o.......................... ,X................... 0X...............................X.                                                                                         ",
"                                                                ........................................................X...X.X....  .X...o...o               .........................X   ..........................0  ........................o...  +o........................X  .................... 0X.................................                                                                                         ",
"                                                                XX.................................................................  ...........X.+.,       #........................o.   ...........................0  ............................X  o.oo......................  X................... 0X.................................8                                                                                        ",
"                                                                ...................................................................  ...........o.o.X...  X.o.........................   X...........................0  ...........................Xo.  ........................X. .................... 0X..................................                                                                                        ",
"                                                                o..................................................................  ...........X.......  ..X........................   .Xo..........................0  ............................o.o  ........................o  ................... 0X..................................                                                                                        ",
"                                                                #..................................................................  .................X. 6.........................o7  ..............................0  .............................oX-  ..o.....................  ................... 0X..................................6                                                                                       ",
"                                                                 ..................................................................  ................X.o .X.........................  o+...........X.................0  ..............X...............Xo  9.......................  ................... 0X.................................oX                                                                                       ",
"                                                                 ..................................................................  ..................  ..........................  ............XQ`)`)..............0  ...........o.``/`b..............#  oo.....................6 ................... 0X...................................                                                                                       ",
"                                                                 ..................................................................  ..................  ........................X  .............q/`q`Qn.............0  ............``Lr``o.............X.  ....................... ................... 0X...................................                                                                                       ",
"                                                                 X.................................................................  ..................  X.......................7 8X...........om)~.`)V.............0  ............`~0.)`..............+X- ,...................... ................... 0X....................................                                                                                      ",
"                                                                 ..................................................................  ..................  ....................oo..  ...............````)..............0  ............,`Q^`V.................  ..X................... -.................. 0X....................................                                                                                      ",
"                                                                 +X................................................................  ..................  .......................  .X............o0)`I``r.............0  ............/``/``X.................  X.................... 9.................. 0X...................................X                                                                                      ",
"                                                                  .................................................................  ..................  .....................X#  ...............``n.M``.............0  ...........o``.o^`b................+  .o................... 9.................. 0X....................................7                                                                                     ",
"                                                                  .................................................................  ..................  ....................X.  XX.............X/``./``.............0  ...........X`/eX``0................X.  .................... 0.................. 0X.....................................                                                                                     ",
"                                                                   Xo..............................................................  ..................  ....................o. q.X...............``)``#.............0  ............M)`))^..................X  o................... 0.................. 0X...................................oX                                                                                     ",
"                                                                   ................................................................  ..................  .....................  .....................................0  .....................................o ..o................. 0.................. 0X.....................................                                                                                     ",
"                                                                    ...............................................................  ..................  .....................  .....................................0  ......................................  ..o................ 0.................. 0X.....................................                                                                                     ",
"                                                                    +..............................................................  ..................  ....................6 ......................................0  .....................................X  X.................. 0.................. 0X.....................................X                                                                                    ",
"                                                                     ..............................................................  ..................  ....................  ......................................0  ....................................... +o................. 0.................. 0X.....................................X                                                                                    ",
"                                                                     9.............................................................  ..................  ....................  ......................................0  ......................................o  .................. 0.................. 0X......................................                                                                                    ",
"                                                                      .o...........................................................  ..................  ..................oo .o.....................................0  .....................................X.  o................. 0.................. 0X....................................X.                                                                                    ",
"                                                                       o...........................................................  ..................  ...................  .............................X.o..X            .X...X............................  .................. 0.................. 0X......................................                                                                                    ",
"                                                                       -...........................................................  ..................  ..................o  o...............................      +0  .7     q................................ .................. 0.................. 0X......................................#                                                                                   ",
"                                                                        ...........................................................  ..................  ...................  X.............................    o....0  .....+    X..........................X.o .X................ 0.................. 0X.......................................                                                                                   ",
"                                                                         oo........................................................  ..................  ...................  ...........................X9   .......0  .....o.X   oX.........................X. X................. 0.................. 0X.......................................                                                                                   ",
"                                                                          .........................................................  ..................  ...................  ...........................   .........0  .........+   ........................... .X................ 0.................. 0X.......................................                                                                                   ",
"                                                                          -+.......................................................  ..................  ...................  ..........................  7...o......0  ......X.o.o   ........................X. .................. 0.................. 0X.......................................#                                                                                  ",
"                                                                           ........................................................  ..................  ...................  .......................X.  ..o..o......0  .....o.X..o.   .......................X. .................. 0.................. 0X........................................                                                                                  ",
"                                                                            .......................................................  ..................  ...................  ........................  #o.M`)V......0  .....m`)J.X..0  ......................X. .................. 0.................. 0X........................................                                                                                  ",
"                                                                             ......................................................  ..................  ...................  .......................  .oXQ^)`)`..X..0  ....G``/``....  ,XX..................... .................. 0.................. 0X.......................................o;                                                                                 ",
"                                                                              .....................................................  ..................  ...................  .....................o  ...X~`X.``-....0  ....``o.``9...o  ....................... .................. 0.................. 0X.........................................                                                                                 ",
"                                                                               X...................................................  ..................  ...................  .....................o  ...o^`..`/N....0  ....)(o.Q`E....o  ....................X. .................. 0.................. 0X.........................................                                                                                 ",
"                                                                                X..................................................  ..................  ...................  .....................  ...o.````/)SoX..0  ....E`)/```.....9 .X..................X. .................. 0.................. 0X..........................................                                                                                ",
"                                                                                 o.................................................  ..................  ...................  ...................X> +......Y/G)`m....0  ...X.IEU~`S......  ...................X. .................. 0.................. 0X..........................................                                                                                ",
"                                                                                  ..o..............................................  ..................  ...................  ...................X  ....o.eBq.``-....0  ....qBr./`9......  ...................X. .................. 0.................. 0X..........................................                                                                                ",
"                                                                                   .o..............................................  ..................  ...................  .................... 6....oXA````/....+9  .o..bQ``E)........ ,..................X. .................. 0.................. 0X...........................................                                                                               ",
"                                                                                    ,..............................................  ..................  ...................  ...................> o.......w^`w.XX.ufffffftXo8/`b.X.......  o.................X. .................. 0.................. 0X...........................................                                                                               ",
"                                                                                      .XX..........................................  ..................  ...................  ..................X  ..............dffffffffffuX..........X.  o................... .................. 0.................. 0X............................................                                                                              ",
"                                                                                       ,..o........................................  ..................  ...................  ...................  .X........XoXffffffffffffff............  .................... .................. 0.................. 0X............................................                                                                              ",
"                                                                                         .X.o......................................  ..................  ...................  ...................  ...........offffffffffffffffXo.......X.0 ..................X. .................. 0.................. 0X............................................X                                                                             ",
"                                                                                           #+......................................  ..................  ...................  ...................  ..........Xffffffffffffffffffoo......X.0 ..................X. .................. 0.................. 0X.............................................                                                                             ",
"                                                                                              .....................................  ..................  ...................  ...................  ..........hffffffffffffffffff1.........0 ..................X. .................. 0.................. 0X.............................................o                                                                            ",
"                                                                                                 9....o..XX.....o.....  ...........  ..................  ...................  ...................  .........XffffffffffffffffffffX........0 ..................X. .................. 0.................. 0X..............................................                                                                            ",
"                                                                                                          ,67           ...........  ..................  ...................  ...................  .........dffffffffffffffffffff.........0 ..................X. .................. 0.................. 0X...............................................                                                                           ",
"                                                                                                                        ...........  ..................  ...................  ...................  .........fffffffffffffffffffffO........0 ..................X. .................. 0.................. 0X..............................................o                                                                           ",
"                                                                                                                        ...........  ..................  ...................  ...................  .........fffffffffffffffffffff4......X.0 .................... .................. 0.................. 0X................................................                                                                          ",
"                                                                                                                        ...........  ..................  ...................  ...................  .........fffffffffffffffffffffh......X.0 .................... .................. 0.................. 0X................................................                                                                          ",
"                                                                                                                        ...........  ..................  ...................  ...................  .........fffffffffffffffffffffd........0 ..................X. .................. 0.................. 0X.................................................                                                                         ",
"                                                                                                                        ...........  ..................  ...................  ...................  .........fffffffffffffffffffffa......X.0 ..................X. .................. 0.................. 0X.................................................                                                                         ",
"                                                                                                                        ..X........  ..................  ...................  ...................  .........ffffffff<<ff23fffffffg........0 ..................X. .................. 0.................. 0X..................................................                                                                        ",
"                                                                                                                        ..X........  .................X  ...................  ...................  .........ffffffff.o&f.Xfffffffd........0 .................... .................. 9.................. 9......X............................................                                                                        ",
"                                                                                                                        oX.........  ..................  X.................X  ..................X  .........ffffffff.....&ffffffffX.......6 o..................o o.................  .................. 0...................................................X                                                                       ",
"                                                                                                                                                                                                            ffffffff3XX..fffffffff                                                                            0............................................o.9                                                                      ",
"                                                                                                                                                                                                            ffffffffd..X.fffffffff                                                                             ...............................................                                                                      ",
"                                                                                                                         ..........  ..................  X..................  X..................  .........ffffffff&.X.o&fffffffdo......X8 ...................X Xo................ 0..................  .....X...............................................-                                                                     ",
"                                                                                                                         ..........  ..................  ...................  ...................  .........ffffffffo..3Xofffffffs......X.0 ..................X. .................. 0.................. 0X...................................................o.                                                                     ",
"                                                                                                                         ..........  ..................  ...................  ...................  .........ffffffff.o<f..3ffffffg......X.0 ..................X. .................. 0.................. 0X.....................................................o                                                                    ",
"                                                                                                                         ..........  ..................  ...................  ...................  .........ffffffffffffddfffffffa........0 ..................X. .................. 0.................. 0X...................................................o..                                                                    ",
"                                                                                                                         ..........  ..................  ...................  ...................  .........ffffffffffffffffffffff........0 ..................X. .................. 0.................. 0X......................................................+                                                                   ",
"                                                                                                                         ..........  ..................  ...................  ...................  .........ffffffffffffffffffffff........0 ..................X. .................. 0.................. 0X.......................................................                                                                   ",
"                                                                                                                         .X........  ..................  ...................  ...................  .........fffffffffffffffffffffpX.......0 ..................X. .................. 0.................. 0X........................................................                                                                  ",
"                                                                                                                         ..........  ..................  ...................  ...................  .........fffffffffffffffffffffXo.......0 .................... .................. 0.................. 0X.......................................................X                                                                  ",
"                                                                                                                         >.........  ..................  ...................  ...................  .........5ffffffffffffffffffff.........0 .................... .................. 0.................. 0X......................................................o..                                                                 ",
"                                                                                                                          .........  ..................  ...................  ...................  ........o.fffffffffffffffffffho........0 ..................X. .................. 0.................. 0X.........................................................                                                                 ",
"                                                                                                                          .........  ..................  ...................  ...................  ..........fffffffffffffffffff..........0 ..................X. .................. 0.................. 0X.........................................................X                                                                ",
"                                                                                                                          .........  ..................  ...................  ...................  ..........Xfffffffffffffffff$..........0 ..................X. .................. 0.................. 0X.........................................................o                                                                ",
"                                                                                                                          .........  ..................  ...................  ...................  X..........Xfffffffffffffffy...........  X.................X. .................. 0.................. 0X..........................................................>                                                               ",
"                                                                                                                          .........  ..................  ...................  ...................  .X.........oXfffffffffffff*...........+  ..................X. .................. 0.................. 0X..........................................................o                                                               ",
"                                                                                                                          .........  ..................  ...................  ..................X0 oX............kffffffffff..............  X.................X. .................. 0.................. 0X..........................................................X                                                               ",
"                                                                                                                          .........  ..................  ...................  .................... >.......D``J....4fffffg.+.M``Y........# oX................... .................. 0.................. 0X............................................................                                                              ",
"                                                                                                                          +........  ..................  ...................  ....................  ......^/)/Q^.....9  ....P`)```......X  ..................... .................. 0.................. 0X...........................................................o                                                              ",
"                                                                                                                           X.......  ..................  ...................  ....................; .....X``..``:.o..0  ....``..``r...o.+ -...................X. .................. 0.................. 0X............................................................                                                              ",
"                                                                                                                           ........  ..................  ...................  .....................  ...o./`..``Mo...0  ...X//o+``Q....X  ....................X. .................. 0.................. 0X.............................................................                                                             ",
"                                                                                                                           ........  ..................  ...................  .....................6 >o...E/````S....0  ...XK`)````....  X....................X. .................. 0.................. 0X.............................................................                                                             ",
"                                                                                                                           oX......  ..................  ...................  .....................X  ...XoP/m)/bX...0  .....A/I)`D..o>  .X...................X. .................. 0.................. 0X.............................................................                                                             ",
"                                                                                                                           .X......  ..................  ...................  .....................o.  ...bJ9.`R+....0  ....rLb.^/,.oX  Xo....................X. .................. 0.................. 0X............................................................X                                                             ",
"                                                                                                                           ........  ..................  ...................  .....................o.;  ..G``/``.....0  ...+n^`)_`..o  .o.....................X. .................. 0.................. 0X...........................................................X..                                                            ",
"                                                                                                                           ........  ..................  ...................  ........................0  ..8AD,......0  .....6DZq..#  .......................... .................. 0.................. 0X........6..................................................X..                                                            ",
"                                                                                                                           o.......  ..................  ...................  .......................o.   .....X.....0  .........X   ........................... .................. 0.................. 0X......X.r....................................................X                                                            ",
"                                                                                                                           0X......  ..................  ..................o  ..........................>  X...X.....0  .......X.   ..........................oo .................. 0.................. 0X........ro....................................................                                                            ",
"                                                                                                                            .......  ..................  ...................  o.........................o.   ........0  .....o.   -X............................ .X................ 0.................. 0X........ .....................................................-                                                           ",
"                                                                                                                            .......  ..................  ...................  ............................X9   oo....0  ...XX    .o...........................o7 X................. 0.................. 0X........ oX....................................................                                                           ",
"                                                                                                                            .......  ..................  ...................  .o...........................X.      o.q  .#     ................................  .................. 0.................. 0X........  .....................................................                                                           ",
"                                                                                                                            .......  ..................  .................... .............................X..Xo            >................................o.  X................. 0.................. 0X........  .....................................................                                                           ",
"                                                                                                                            .......  ..................  ..................Xo 6X...........................XXo.....o.q  .o..................................... :.................. 0.................. 0X........  o....................................................>                                                          ",
"                                                                                                                            .......  ..................  ..................X.  o.....................................0  ......................................  ................... 0.................. 0X........  ......................................................                                                          ",
"                                                                                                                            .......  ..................  ...................X  ......................................0  ......................................  X.................. 0.................. 0X.......X   .....................................................                                                          ",
"                                                                                                                            o......  ..................  ..................... -.o...................................0  ...................................... .................... 0.................. 0X........   Xo.................................................X+                                                          ",
"                                                                                                                            9......  ..................  .....................  ..o..................................0  ...................................X.  X................... 0.................. 0X........   .....................................................>                                                         ",
"                                                                                                                             ......  ..................  ....................., o....................................0  ....................................# 8.................... 0.................. 0X.......X   0oo................................................o..                                                         ",
"                                                                                                                             ......  ..................  .X...................X  ...............X..0^)b.o............0  ............o.M)^9o.................  ..................... 0.................. 0X........    o....................................................                                                         ",
"                                                                                                                             ......  ..................  .X....................  .o...............D`````.............0  .............^^```I.X..............# ,X.................... 9.................. 0X........    .X...................................................                                                         ",
"                                                                                                                             ......  ..................  .....................oo  ..............+.``0.`)o.+..........0  ............X``.7))................  ...................... +.................. 0X........    8.....................................................                                                        ",
"                                                                                                                             ......  ..................  .X.....................9 +...............T^/G``.............0  .............))K~`U..............o  X...................... ................... 0X........     X....................................................                                                        ",
"                                                                                                                             ......  ..................  .......................o  .............o.9`)`~A.X...........0  ...........oXK`/)`q..............o  ......................+ ................... 0X......X.     o....................................................                                                        ",
"                                                                                                                             ......  .................X  .X......................X  .............o`/+.`^w............0  ............7``.-``...........o..  .......................  ................... 0X.......X      .oX.................................................9                                                       ",
"                                                                                                                             ......  ..................> X........................  ..............``+.``b............0  ............b``..``............X  ........................  ................... 0X.......o      .....................................................                                                       ",
"                                                                                                                             o.....  ................... ........................X.  .............~``)``o............0  ............o`~``)`...........X  +........................  ................... 0X......o.      0o...................................................                                                       ",
"                                                                                                                             9.X...  ..................o  .........................o  +...........XV`/Y#.............0  .............+Y``M...........o   X........................ +................... 0X........       o...................................................                                                       ",
"                                                                                                                              .....  ...................  .........................X7  ................X.............0  .............X....X..........q  X........................  .................... 0X........       XX...................................................                                                      ",
"                                                                                                                              X....  ................o..  ...........................   ............X................0  ..................X........X9  .Xo.......................  X................... 0X.......o        X..................................................o                                                      ",
"                                                                                                                              .....  .................... XX..........................  7............................0  ..........................X8  ........................... :.................... 9.........        ....................................................                                                      ",
"                                                                                                                              .....  ....................  ..........................o.  0...........................0  ..........................   X..........................  X.................... 9.........         Xo..................................................                                                     ",
"                                                                                                                              .....  ...................o  .o...........................   o...X.....................0  ......................X..   ...........................o  X...................X X.........         X..................................................X                                                     ",
"                                                                                                                              .....  ....................X o.............................   ..X......................0  .......................X   X..........................X> ...................... o........X          o..................................................8                                                    ",
"                                                                                                                              .....  ...................X.  .............................o   #.......................0  .....................o#  -.............................  o..................... ..........          ..................................................o.                                                    ",
"                                                                                                                              .o...  ....................o  ................................  ;X.....................0  ................X....   +X............................- 7...................... o.........           ...................................................                                                    ",
"                                                                                                                              .....  ......................  ..............................X.   .o...................0  ..................o+   ..............................X  ......................9 .X.......X           X...................................................                                                   ",
"                                                                                                                              .....  ....................X.  ...............................X.0  0o..................0  ..................   ................................# #......................  X.......X;            ...................................................                                                   ",
"                                                                                                                              .X..., .......................  ...............................o.o   #.o...............0  ...........X....    X..............................o.  .......................  .........8            +o..................................................                                                  ",
"                                                                                                                              +..... ......................o  ....................................   >.o.............0  ...........XX+    ..................................q oo......................  .........              o..................................................                                                  ",
"                                                                                                                              8X.... 9.......................  ....................................o    X..o.........0  .........X.+    ................................ooo.  oo...................o.. o........X              #.X.................................................                                                 ",
"                                                                                                                               .....  o......................  .....................................X.     oXX....o..0  .X...o..X     .....................................  .X......................9 o.........               ...................................................-                                                ",
"                                                                                                                               .....  ......................X.  ....................................o.X.+      >.X...0  ..#.:      +oo..................................oX8 ,..X.....................  o.........               7...................................................                                                ",
"                                                                                                                               ....X9 .......................Xq oX..........................................                   qo.o.......................................  .........................  .........X                o..................................................+                                               ",
"                                                                                                                               ....X. #.......................+  .................................................7       ,.o.XX.X......................................X  .X.......................+ ...........                >o..................................................                                               ",
"                                                                                                                               .....+  o........................  .............................................X..X..0  ...X...X........................................  -.o......................X  +..........                 o..................................................X                                              ",
"                                                                                                                               o.....  X........................  +..................................................0  .............................o.o.............XX:  .........................o  o..........                 :oX.................................................                                              ",
"                                                                                                                               ......+ X.........................  ..................```````.........................0  .........................^`````).............X.  oX........................- .X..........                  ...................................................                                              ",
"                                                                                                                               .......  oX........................  ...............o.```)~``.........................0  .........................```)```..............  X.......................X..  ...........X                  oX..................................................                                             ",
"                                                                                                                               .......  .........................o6  ..X...........X....+``+X........................0  ........................Xo.X#`/..............  ............................ 8...........X                   ...................................................                                             ",
"                                                                                                                               .......o #.........................o  ,.X............X...``0oX........................0  ............................`).............o  o+.........................o  .............                   ...................................................7                                            ",
"                                                                                                                               ......X.  .o.........................  o...X............7)`...........................0  ...........................r`^.X.........XX  0oX..........................  X............                   8................................................X.X                                            ",
"                                                                                                                               ........  ............................  ...............o``q...........................0  ...........................``-.X........XX   X..........................o  .X............                    ...................................................                                            ",
"                                                                                                                               ......oo.  ............................  #............Xo^)............................0  ...........................``XX.........X   Xo.+........................X  X............X                    ...................................................                                            ",
"                                                                                                                               .........  .............................  .oX..........o``............................0  ..........................0``........XX+   .............................  ...............                    ....................................................                                           ",
"                                                                                                                               .......... >..........................X.+  ..X........X+90............................0  .........................X90q..........  0o..........................o..  ...............                    ...................................................X                                           ",
"                                                                                                                               o........#  ..............................  oXX.......................................0  ......................................  ,.............................o  ...............X                    ....................................................                                           ",
"                                                                                                                               :.........+ -..............................  .........................................0  ....................................o  o...............................  X...............                    ...................................................o7                                          ",
"                                                                                                                               9.........o  ...............................  9.......................................0  ...................................0  .+.X............................  ................X                    .....................................................                                          ",
"                                                                                                                                ..........- ,...............................   .o....................................0  .............................o.X.X   ................................> 6.................                    .....................................................                                          ",
"                                                                                                                                ...........  ...............................X   .....................................0  .............................X.o.   o..............................X.  o.................                    ....................................................X                                          ",
"                                                                                                                                ...........X  ..............................o..  -...................................0  .............................+.q  o.X..............................+  o..................                    .....................................................                                          ",
"                                                                                                                                ...........o  ..................................   .X..o.............................0  ..............................   XX.............................o..+  oo................+                    0X...................................................X                                         ",
"                                                                                                                                .............  .................................o0  ,................................0  ............................   -...................................  ...................,                     .....................................................                                         ",
"                                                                                                                                .............7 ;...................................   .o.............................0  ......................X....   ...................................X  ....................9                     .X...................................................                                         ",
"                                                                                                                                ..............  X..................................o#   o............................0  .......................o.   oo...................................7 qX...................                      .....................................................                                         ",
"                                                                                                                                ...............  ...................................o.    X..........................0  .......................   7oo..o................................X  .....................                      .....................................................#                                        ",
"                                                                                                                                ..............X  -..o...................................    .oo......................0  ................X...X    ....................................o..  o.....................                      oX....................................................                                        ",
"                                                                                                                                ...............o  ........................................    ;.X....................0  ................X.,   0......................................X.  .......................                       .....................................................                                        ",
"                                                                                                                                .............o.o.  ..................................X.X...o>    o...................0  ...............o    -oo.X.....................................  >.......................                       o....................................................                                        ",
"                                                                                                                                .X...............-  .................o.0``Q`;..................     #.X..............0  ..........+.#     ..X................o.0``W`;..............o.9  ..X.....................                       +....................................................                                        ",
"                                                                                                                                .X..............X.  >.................X`)+0`Q..................X.X      ,.X.X........0  ......X..      o..Xo..................X`)+0`Q..............X+  o........................                       X...................................................o>                                       ",
"                                                                                                                                .X.................  ..X..............q`VN/q.........................9         X.....0  ..o         ..........................q`VN/q................  ..........................                        .....................................................                                       ",
"                                                                                                                                X...................  .+..............A````/G.........................o.X.0                    ;...X..........................A````/G...........Xo.  .oo........................                        ...................................................X.                                       ",
"                                                                                                                                ...................o.  X..............b`~..^`............................XX......XX.X   .X..o.......X.........................b`~..^`............X  ............................                        o....................................................                                       ",
"                                                                                                                                .....................+  o.o...........-/`.-`/........................................0  ......................................-/`.-`/.........X.o  X............................                        >..................................................X.                                       ",
"                                                                                                                                .....................o>  .o..........X./R)``b........................................0  .....................................X./R)``b..........o  ooX...........................                         ..................................................X.                                       ",
"                                                                                                                                +X...................oo0  ...........o..w/So.........................................0  .....................................o..w/So...........  ..o............................                         X...................................................;                                      ",
"                                                                                                                                .....................X..   ..........................................................0  .....................................................X  oXo.............................                         o....................................................                                      ",
"                                                                                                                                -........................   .........................................................0  ....................................................X  o.o..............................                          ....................................................                                      ",
"                                                                                                                                ,.........................8  o.......................................................0  .................................................oo-  ..................................                          ..o.................................................                                      ",
"                                                                                                                                 ........................X.0  .......................................................0  .................................................X   .X.................................                          #X..................................................                                      ",
"                                                                                                                                 .......................X...-  -.....................................................0  ................................................+   o..X................................                           ..................................................o                                      ",
"                                                                                                                                 ............................X  +.+..................................................0  .............................................ooo   .....................................                           o.................................................X                                      ",
"                                                                                                                                 ..............................  -...................................................0  .............................................o.  #o.X...................................                           -X.................................................X                                     ",
"                                                                                                                                 o...........................+o.   ..................................................0  .............................................   oo+.....................................                            X................................................X.                                     ",
"                                                                                                                                 ...............................o   .o...............................................0  ..........................................oX   o........................................                            ...................................................                                     ",
"                                                                                                                                 .................................-  ,...............................................0  ..........................................,  >..........................................                             ..................................................                                     ",
"                                                                                                                                 ...................................   .X.o..........................................0  ......................................o..   ............................................                             X.o...............................................                                     ",
"                                                                                                                                 X...................................   #X...........................................0  .......................................>   ..........................................X.X                             ;o................................................                                     ",
"                                                                                                                                 XX..................................X.   ...........................................0  ......................................   .o.X........................................X..                              .................................................                                     ",
"                                                                                                                                 ......................................Xq   X........................................0  ................................X...   ,...............................................X                              XX...............................................                                     ",
"                                                                                                                                 .X.......................................   #.X.....................................0  ................................X.>   o.................................................                               ...............................................X-                                    ",
"                                                                                                                                 X.........................................#   +.....................................0  ................................#   ....................................................                               .................................................                                    ",
"                                                                                                                                 ..........................................X.-   o.X.................................0  .............................X+   ..o..................................................X                                ................................................                                    ",
"                                                                                                                                 .X.........................................X..7   -X................................0  ...........................o;   >.......................................................                                #...............................................                                    ",
"                                                                                                                                 ................................................;   q...............................0  ......................o...    #........................................................X                                 ...............................................                                    ",
"                                                                                                                                 .................................................X.    -............................0  .......................#    ..X........................................................X                                 .X.............................................                                    ",
"                                                                                                                                 .X................................................o.o     #.........................0  ...................Xo     ..............................................................                                  ..............................................                                    ",
"                                                                                                                                 .......................................................X     ++oX...................0  ........oX....o...     +o...............................................................                                  6.o...........................................                                    ",
"                                                                                                                                 ..........................................................o      +..................0  ..........o...,     ;..................................................................X                                   .............................................                                    ",
"                                                                                                                                 ..............................................................9       +.............0  .........+       X.....................................................................X                                    +...........................................                                    ",
"                                                                                                                                 .................................................................o>           7....X0  ..9          o.........................................................................X                                    ,X..........................................                                    ",
"                                                                                                                                 ................................................................o..XX.X.0                      o...X.X.........................................................................                                     .oX........................................                                    ",
"                                                                                                                                 ....................................................................................0  .......................................................................................o                                      .X.Xo.....................................                                    ",
"                                                                                                                                 ....................................................................................0  ........................................................................................                                       oo.X.....................................                                    ",
"                                                                                                                                 ....................................................................................0  ........................................................................................                                        ,o......................................                                    ",
"                                                                                                                                 ....................................................................................0  ........................................................................................                                         .......................................,                                   ",
"                                                                                                                                 ....................................................................................0  ........................................................................................                                          .o.....................................                                   ",
"                                                                                                                                 ....................................................................................0  ........................................................................................                                           ......................................                                   ",
"                                                                                                                                 ....................................................................................0  ........................................................................................                                            .....................................                                   ",
"                                                                                                                                 ....................................................................................0  ........................................................................................                                             ....................................                                   ",
"                                                                                                                                 ....................................................................................0  ........................................................................................                                             o..................................o                                   ",
"                                                                                                                                 ....................................................................................0  ........................................................................................                                              .X................................X                                   ",
"                                                                                                                                 ....................................................................................0  ........................................................................................                                               o................................X                                   ",
"                                                                                                                                7....................................................................................0  ........................................................................................                                               9.o...............................                                   ",
"                                                                                                                                #....................................................................................0  ........................................................................................                                                ..o..............................9                                  ",
"                                                                                                                                .....................................................................................0  ........................................................................................                                                 oo.............................X.                                  ",
"                                                                                                                                o....................................................................................0  ........................................................................................                                                 o..............................X.                                  ",
"                                                                                                                                .....................................................................................0  ........................................................................................                                                  ..............................X.                                  ",
"                                                                                                                                o.X..................................................................................0  ........................................................................................8                                                  #.............................X                                  ",
"                                                                                                                                .X...................................................................................0  ........................................................................................;                                                  X..............................                                  ",
"                                                                                                                                X.X..................................................................................0  .........................................................................................                                                   ............................Xo                                  ",
"                                                                                                                                .....................................................................................0  .........................................................................................                                                   .............................Xq                                 ",
"                                                                                                                                .....................................................................................0  .........................................................................................                                                    ...........................o..                                 ",
"                                                                                                                                .....................................................................................0  .........................................................................................                                                    ...........................o.X                                 ",
"                                                                                                                                .....................................................................................0  .........................................................................................                                                     .............................                                 ",
"                                                                                                                                .....................................................................................8  ........................................................................................X                                                     oX...........................                                 ",
"                                                                                                                               7................................................................................................................................................................................X                                                      ............................                                 ",
"                                                                                                                               +.................................................................................................................................................................................                                                      o...........................                                 ",
"                                                                                                                               ..................................................................................................................................................................................o                                                      ...........................X                                ",
"                                                                                                                               ..................................................................................................................................................................................X                                                      ..o.........................                                ",
"                                                                                                                               ...................................................................................................................................................................................                                                       ...........................                                ",
"                                                                                                                               ...................................................................................................................................................................................                                                       ..........................o                                ",
"                                                                                                                               X..................................................................................................................................................................................                                                        ..........................                                ",
"                                                                                                                               ...................................................................................................................................................................................+                                                       o.........................0                               ",
"                                                                                                                               ....................................................................................................................................................................................                                                        o........................o                               ",
"                                                                                                                               ....................................................................................................................................................................................                                                        ........................o.                               ",
"                                                                                                                               ....................................................................................................................................................................................                                                        -.........................                               ",
"                                                                                                                              7X...................................................................................................................................................................................                                                         .........................                               ",
"                                                                                                                              Xo...................................................................................................................................................................................;                                                        .........................                               ",
"                                                                                                                              X.....................................................................................................................................................................................                                                         ........................#                              ",
"                                                                                                                              .....................................................................................................................................................................................X                                                         ..o......................                              ",
"                                                                                                                              .....................................................................................................................................................................................X                                                         +X.......................                              ",
"                                                                                                                              ......................................................................................................................................................................................                                                          o.......................                              ",
"                                                                                                                              ......................................................................................................................................................................................                                                          .o.....................X                              ",
"                                                                                                                              XX....................................................................................................................................................................................+                                                         9.......................#                             ",
"                                                                                                                              X....................................................................................................................................................................................o.                                                          o.......................                             ",
"                                                                                                                              .....................................................................................................................................................................................XX                                                          .......................X                             ",
"                                                                                                                              .....................................................................................................................................................................................Xo                                                          ,.......................                             ",
"                                                                                                                             >XX...................................................................................................................................................................................o.                                                           o.X....................                             ",
"                                                                                                                             ......................................................................................................................................................................................X.                                                           ......................oX                            ",
"                                                                                                                             ........................................................................................................................................................................................                                                           #.......................                            ",
"                                                                                                                             ........................................................................................................................................................................................                                                            XX.....................                            ",
"                                                                                                                             ........................................................................................................................................................................................o                                                           .......................                            ",
"                                                                                                                             .........................................................................................................................................................................................                                                           .......................o                           ",
"                                                                                                                             .........................................................................................................................................................................................                                                           .X.....................X                           ",
"                                                                                                                             .........................................................................................................................................................................................                                                           ........................                           ",
"                                                                                                                             .........................................................................................................................................................................................                                                          :XX......................9                          ",
"                                                                                                                             .........................................................................................................................................................................................                                                          oo........................                          ",
"                                                                                                                            #.........................................................................................................................................................................................                                                         ..........................X                          ",
"                                                                                                                            o.........................................................................................................................................................................................                                                         o.........................o0                         ",
"                                                                                                                            .........................................................................................................................................................................................X                                                        -............................                         ",
"                                                                                                                            ..........................................................................................................................................................................................                                                        .............................                         ",
"                                                                                                                            ..........................................................................................................................................................................................                                                       ,oo...........................7                        ",
"                                                                                                                            ..........................................................................................................................................................................................7                                                      ...............................                        ",
"                                                                                                                            ..........................................................................................................................................................................................+                                                      ...............................                        ",
"                                                                                                                            X..........................................................................................................................................................................................                                                     o...............................>                       ",
"                                                                                                                            ...........................................................................................................................................................................................                                                     +..............................X.                       ",
"                                                                                                                           9...........................................................................................................................................................................................                                                     .................................                       ",
"                                                                                                                           X...........................................................................................................................................................................................                                                    .o...............................X+                      ",
"                                                                                                                           .X..........................................................................................................................................................................................                                                    ...................................                      ",
"                                                                                                                           ............................................................................................................................................................................................                                                    ...................................                      ",
"                                                                                                                           ............................................................................................................................................................................................o                                                   o...................................                     ",
"                                                                                                                           .X...........................................................................................................................................................................................                                                   ....................................                     ",
"                                                                                                                           .o...........................................................................................................................................................................................                                                  9....................................                     ",
"                                                                                                                           .............................................................................................................................................................................................                                                  ....................................X+                    ",
"                                                                                                                           .............................................................................................................................................................................................                                                  ......................................                    ",
"                                                                                                                           .............................................................................................................................................................................................9                                                 ...................................X..0                   ",
"                                                                                                                           ..............................................................................................................................................................................................                                                 .......................................                   ",
"                                                                                                                           ..............................................................................................................................................................................................                                                 ......................................X                   ",
"                                                                                                                           .............................................................................................................................................................................................X                                                 .......................................,                  ",
"                                                                                                                           ..............................................................................................................................................................................................                                                 ........................................                  ",
"                                                                                                                           ..............................................................................................................................................................................................                                                 ......................................X.                  ",
"                                                                                                                           ..............................................................................................................................................................................................                                                 X..........o...X..o......................                 ",
"                                                                                                                          6..............................................................................................................................................................................................                                                 .........................................                 ",
"                                                                                                                          #..............................................................................................................................................................................................                                                 .............o   .X......................                 ",
"                                                                                                                          X..............................................................................................................................................................................................0                                                8X.........X.o    ..X.....................                ",
"                                                                                                                          ...............................................................................................................................................................................................-                                                 .X........X.      -#o...................X                ",
"                                                                                                                          ................................................................................................................................................................................................                                                 9..........X       o....................X                ",
"                                                                                                                          o...............................................................................................................................................................................................                                                  +........X.        +....................o               ",
"                                                                                                                          ..............................................................................................................................................................................................XX                                                  o........X.        >.....................               ",
"                                                                                                                          o...............................................................................................................................................................................................                                                   .........o         o.o..................6              ",
"                                                                                                                          ................................................................................................................................................................................................                                                   XX......o.         9o....................              ",
"                                                                                                                          ................................................................................................................................................................................................                                                   :........X          ....................X              ",
"                                                                                                                          ...............................................................................................................................................................................................X                                                    .........-          ....................,             ",
"                                                                                                                          ................................................................................................................................................................................................                                                    ..........          ...................o.             ",
"                                                                                                                          X...............................................................................................................................................................................................                                                    .......X..           ....................             ",
"                                                                                                                          ................................................................................................................................................................................................                                                    ..........           :...................+            ",
"                                                                                                                          ................................................................................................................................................................................................                                                    .o........            .................X.o            ",
"                                                                                                                          ................................................................................................................................................................................................                                                    X.........>            o..................            ",
"                                                                                                                          X...............................................................................................................................................................................................                                                    X.........+             .+.................           ",
"                                                                                                                          ...............................................................................................................................................................................................X                                                    X..........              >.................           ",
"                                                                                                                          X..............................................................................................................................................................................................X                                                    o..........               7.X..............           ",
"                                                                                                                         9................................................................................................................................................................................................                                                    ...........                ................           ",
"                                                                                                                         >...............................................................................................................................................................................................X                                                    X..........                ................           ",
"                                                                                                                         X................................................................................................................................................................................................                                                    o..........                ................           ",
"                                                                                                                         X................................................................................................................................................................................................                                                    #o.........                 ...............           ",
"                                                                                                                         ...............................................................................................................................................................................................oX                                                     X.........                 X..............           ",
"                                                                                                                         ...............................................................................................................................................................................................XX                                                     -.........                 ...............           ",
"                                                                                                                         .................................................................................................................................................................................................                                                      .........                 ...............           ",
"                                                                                                                         .................................................................................................................................................................................................                                                      .........                 ...............           ",
"                                                                                                                                                                                                                                                                                                                                                                                ........>                 ...............           ",
"                                                                                                                                                                                                                                                                                                                                                                                ........9                 ...............           ",
"                                                                                                                                                                                                                                                                                                                                                                                ......X.                  ;..............           ",
"                                                                                                                                                                                                                                                                                                                                                                                ........                  0..............           ",
"                                                                                                                                                                                                                                                                                                                                                                                ...X.X.8                   ..............           ",
"                                                                                                                                                                                                                                                                                                                                                                                ....o..                   ...............           ",
"                                                                                                                                                                                                                                                                                                                                                                                ...X.,                    ...............           ",
"                                                                                                                                                                                                                                                                                                                                                                                -Xo-                     +...............           ",
"                                                                                                                                                                                                                                                                                                                                                                                                         ................           ",
"                                                                                                                                                                                                                                                                                                                                                                                                        .Xo..........XX..           ",
"                                                                                                                                                                                                                                                                                                                                                                                                        .o............q X           ",
"                                                                                                                                                                                                                                                                                                                                                                                                        X.X...........  .           ",
"                                                                                                                                                                                                                                                                                                                                                                                                       ..............X              ",
"                                                                                                                                                                                                                                                                                                                                                                                                       o.............o              ",
"                                                                                                                                                                                                                                                                                                                                                                                                       ..............               ",
"                                                                                                                                                                                                                                                                                                                                                                                                      oX.............               ",
"                                                                                                                                                                                                                                                                                                                                                                                                      o..............               ",
"                                                                                                                                                                                                                                                                                                                                                                                                     +Xo............7               ",
"                                                                                                                                                                                                                                                                                                                                                                                                     ........o......                ",
"                                                                                                                                                                                                                                                                                                                                                                                                    .......X.o.....o                ",
"                                                                                                                                                                                                                                                                                                                                                                                                    ........ ......                 ",
"                                                                                                                                                                                                                                                                                                                                                                                                    .......X ......                 ",
"                                                                                                                                                                                                                                                                                                                                                                                                    .......  ......                 ",
"                                                                                                                                                                                                                                                                                                                                                                                                     .o...   X....                  ",
"                                                                                                                                                                                                                                                                                                                                                                                                      7Xo    .+...                  ",
"                                                                                                                                                                                                                                                                                                                                                                                                               .o.                  ",
"                                                                                                                                                                                                                                                                                                                                                                                                                                    ",
"                                                                                                                                                                                                                                                                                                                                                                                                                                    ",
"                                                                                                                                                                                                                                                                                                                                                                                                                                    ",
"                                                                                                                                                                                                                                                                                                                                                                                                                                    ",
"                                                                                                                                                                                                                                                                                                                                                                                                                                    "
};
