/* XPM */
static char *floor[] = {
/* columns rows colors chars-per-pixel */
"256 256 54 1 ",
"  c #575652",
". c #5B5653",
"X c #5E5956",
"o c #5F5A58",
"O c #605B57",
"+ c #635E5B",
"@ c #66615E",
"# c #68635F",
"$ c #676260",
"% c #6B6662",
"& c #6E6966",
"* c #6F6968",
"= c #706B67",
"- c #716C69",
"; c #726D6A",
": c #746C69",
"> c #746F6B",
", c #726C6C",
"< c #736F6C",
"1 c #746F6C",
"2 c #786D6B",
"3 c #796F6D",
"4 c #73706B",
"5 c #75706A",
"6 c #75706D",
"7 c #77746F",
"8 c #78736F",
"9 c #79746E",
"0 c #777370",
"q c #787370",
"w c #7B7370",
"e c #7A7571",
"r c #7B7673",
"t c #7C7773",
"y c #7C7774",
"u c #7B7873",
"i c #7D7872",
"p c #7D7874",
"a c #7C7974",
"s c #7F7A77",
"d c #7F7979",
"f c #817775",
"g c #817A77",
"h c #807B77",
"j c #807B78",
"k c #817C78",
"l c #827C79",
"z c #837E7B",
"x c #847F7B",
"c c #847F7C",
"v c #887D7C",
"b c #87827E",
"n c #88817E",
"m c #8A8581",
/* pixels */
"oX..Xo+@@++++@$%$$$@++@$@@@@@@@@++@@@$$%$$$$$$$$$$##$$#@@@@#$&%$$$$$@@@#$$$$$$$$$$$$$$$$$$$$$$$$$$$%%&&&&%$%&&&&&&&&&&&&&&&&&&&=&=;>>;=&;;==&&==;11;&&&;;;1666;&&&%%%%&&&&&%&-;11;;;;;;1;;;&&%$$$$&&&------&&%&&&&&&&&&&&&$$$$%&&%$$$$#@$$$$$$$%$$+++@@+XXXXO+++",
"oX..Xo+++++++@$$@$@@++@$@@@@@@@@$$$$$$$$$$$$$$@@$###$$##@@#$$&%$$$$$$$$$$$$$$$$$$$$$$$$$$$$$$$$$$$$%%&&&&%%%&&&%%%%$%%&&&&&&&%&&&=;;;;=&;;====&&&-;&%&&;;;;161;&&&&%%&&&&&&&&-;11;;;;;;1;;;;&&&%&&&=--;;;;;-&&&&&&&&&&&&&&&&&&&&%%%%%%%&$$$$$$$%&&$@@$$@+OXXO+++",
"XXXXo++++++++@#$###@++@#@@@@@$$$%%%%%%$$$$$$$$$$$$$$%&%%$$$$&&%$%%$$$$$$$$$$$$$$$$$$$$$$$$$$$$$$$$%%%%&&&%%&&&%$$$$$$$$$%%%%$$$%&&&=======;;;=&&$%&%$$&-&&-;1;;-&&&&&&&&-&&&&-;1;;;;;;;;;;;;;;&&&&&=&--;;;;---&&--&&&--;;--;;;&$&&&&-;;;=-&%$$%&=;=&$%$$@+++++++",
"XXXXo++oO+++@@##@##@@@$#$$@@$$$%%%&&&&%$&&&&%%%%%%%&==-&&&%%&&%$&%%$$$$$$$$$$$$$$$$$$$$$$$$$$$$$%%%&%&&&&&&&&&$$$$$$$$$$$$$$$$$$&&&&&&=;&=;;;=&&$$$$$$&-%&&-;;;---&&&&---&&&&-;;;;;;;;;;;;111;;-;-&&&&&--------&;;-&-;;;6;;;;;&$&-;;166661;-&&&-;66;&&&$$@++++@@",
" .XXoooXX++@@++#$$$$$$$#$$$$$$%&$$&&&&&&&&&&&&&&&&&&-;=&&&%%%&$$&&%$$$%&%%%%&&&&%%%%%%%%%%%$$$%%$$%%&&&&&&&&&&%$$%%%%$$$$$$$$$%&&&&&&&=;&=;;;=&&&&&%$%&&&%&&;;;-;-&&&&-;--&&&-;;;;--;;;;;;;11;;;;;;-&&--;;;;;;;;;;;;;;;;6;;;;;;-;1666666661;-&-;;661;-&%$@+++@@$",
" .Xo++oXXO+@++++$$$$$$$$$$$$$$&&$$%&&&&&&&&&&&&&&&&&=&&&&&%$%&%%&&%%%%&&&&&&&&&&&&&&&&&&%%%%$$%%%%%&&&&&&&&&&&&%%%&&&&%%$$%%%&=;&&&&&=;;==;;-=&&--&&&&&&&&&&-;;-;-&&&&-;;--&--;;;;--;;;;-;;;;;;;11;;;;;;;;;;;111;;;;;;;;;;-;;66e66qqqq66661;;&--;66;;;=$$@+++@$$",
".XX+++oXXO+++++#@@$$$%$#$$$$$%&&$%%&&&&&&&&&&&--;=&==&&%&&$%&&&&&&&&&&&&&&&&&&&&&&&&&&&&&&&&%%%&%%&&&&&&&&&&==&&&&=-=&&&&&&&&=;>===-;;;;;;====&&-;;;;;;-;-&&-;--;-&&&&-;;----;;;;;----;;--------;;;;;;;-;;;;;;11;;;;;;;;&;;;;6epqeeeq6611666;;;;;1;;;1;%$@+++@$$",
"XXX++++oXO+++++#@@@$$%$@$$$$%%%%&&&&&&&-;-;;;;;;6>;;;;&&&&%%&&&&&&&&&&&&&&&&&&&&&&&&&&&&&&&&%%%%%%&&&&&&=&&&=;;=&&--==&&;;;==-;5;-;;;;;=;;==&&==-;;;16>;;;-&---&--&&&&--;;---;;;;;----;;-&&&&&&&&--;-&&&&&&--;;;;;;11;-&-;66116eeeeeq66;66qq66661;;;;6;$$@+O++#$",
"XXXXXoo+Xo++OO++@@$$$$$@@$$&&&&&&&&&&-;;&&;;1666;;;;;;--&;&$$=;;;-&&&&&&&&&&&&&&&&&&&&&&&%$$&&&%&&&=&&&&==&&==&&&&&&====;;=-;-=&=&&;;=&;====&&&&;-&;;61;-----&&&&&&&&&&&&&----&&---&&&&&&&&&**&&&&&&&&**&&&&&&&&;;;;;;;1;;;16qeeqeeeq66116ee66116661>;&&@$@++@#=",
"XXXoo+++o+++++++@@$$$$$@$$%&=---&&&&--;;;;1661;;;;;;;;--&=&$$=;;;-&&&&&&&&&&&&&&&&&&&&&&&&%%&&&%&&==&&&&;=&=;=&&&&&&====;===;;=&=&&==&&=====&&&&&&&&;;;;-----&&&&&&--&&&&------&---&&&&&&&&&*&&&&&&&&&**&&&&&&---;;;;;;;;;166666666666066qeeq6666661;;&%$$@+@@@&",
"XXXo++++++++++++@#$$$$$$%&&&&;;;;;;;;;;;;;1611;;;;;;;;;;&&&%&;;;-&&&&&&&&&&&&&&&&&&&&&&&&&%%&&&%&&==&&&&;===;;=&&&&&====-===;;=&;&&&&&&=====&&&&&&&&;;;;-----&&&&&&--&&&-*-;;-**---&%%&&&&&&**&&&&&&&&&&&&&&&--;-;;;--;;;;1666;;1116666666eeq666111;;-&&$$++$$$$",
"XXXo+++++++++@++@#$$%%$$%%&&-;16;;;;;;;;;;;;11;;;;;;;;;;&&&&=;>>-&&&--&&&&&&&&&&&&&&&&&&&&$$%&%%&&&=&&&&;;=;;;=&&&&&====--=;;;;;;=&&&&=;====&&&&&&&--;;;---;--&&&&&&&&&&&&----&&--*&%%&&&&&&**&&&&&&&&&&%&&&&-;;--;;--;;;;1661;;1;;;;6666666661;;;;;;&&%@@++&&%%",
"XXXXXo++++++@@++@@#$$$$$$%&&;;6666661;;;;;;11111;;;;;;;;;&&=;>66&&&-;;-&--------&&&&&&&&&%$$$%%$&&&&&&&&;;=;;;=&&&&&====;;=;;;;;==&%%&======&&&&&&&&&&&&*-;;--&&&&&&&&&&&&&--&&&---&&&&***&&&&&&&*&&&&&&%&&&&-;;--;---;;;;;;16666666666666666611;;;-&&$$@@++&&$$",
"XXXXXo+++++@@@#+++@@$$$$%%&-;666666661;;6666611;;;;;;;;;;&&;66>>-&&&------------&&&&&&&&&%$$$%%$&&&&&&&&;===;;=&&&&&====;;;;;;;;&&%$$&&&====&&&&&&&&&%&&--;;;--&&&&&&&&&&&----&&---&&&&***&&&&&&&*&&&&&&&&&&&--;&---&&-;;;;;16qeeeqqq6qqeq666666;;-&&$$$$$++&&$$",
"XXo+++++@+@@$$#+@@@$$$%%&&;;6666666661;;6611;;;;;;;;;;;;;&&;6>;;;&&&*---;-;;;;;;&&&&&&&&&%$$%&&%&&&&&&&&;=&=;=&&&&&&====;==;;-=&%&&$$&;=====&&&&&&--&&&;-;;;;**&&&&&&&&&-;;;;;;----&&&&&&&&&&&&&*&&&&***&&&&&&--&&&&&&&-;;;16666qqqqq666e6111661;;&&%$$$@$++%%$$",
"..o@@@@+@@@$$$$#$$$%&&---;;66666666661;;----;;;;;;;;;;;;;&&;6;;;;-&&&-;;--;;;;;;&&&&&&&&&&%&&&&&&&&&&&&&==&&==&&&&&&====;=&===&&&==&&;>;====&&&&&-;;;;16-;;;;*----------;;;;;;;;---&&&&&&&&&&&&&*&&&&***&&&&&&&&%%%%%%&&;;1666661166666161;-;;;;;-&&$$$$++++$&%-",
".X++@@@@###$#$$$#$$$%&&;=;;666666666>>>;>;;;;;>6>66>;;;;;=&=;;;=;;=&&=;;;;;===;;;;&&&===&&&&&&%&==========&&&&&&&&&&&===;;==&&&===&&=;;>;=&&&&=;&&==-;;;=======&========&=;;;;;;;;=&&&&&&&;;;;;-**----**;;====&&&&&&&&&=;>6686666666666866>;;;>6;&&&&$@@@+O+$-&$",
".o++@@@@###$#$##$$&&&&&=;;>6666666666>>>>;;;;;66>66>;;;;;;=;;;;;;;====;;;;;;-;;-;-&&&==&&&&&&&*&-========&&&&&&&&&&&=========;;;;;;;;;;;;=&&&&=;====;-;;;;;;==&&========&=;;;;;;;;-=&&&=&==;;;==***----*========;;;;==;;;;>66666>666666666>;;;;>;&&&&$@@@+++$&&%",
"Xo+@@@@@##$$$$##$&=;;;;;;>66666666666666>>;;;>666666>>;;;;;;;>;;;;;;;;;;;;;;;;;;;-=&&&&&&&&&&&*&&&&&&&&&&&&&&&&&&&&&====&&&=;;;;66>>;;=============-;;;;;;;;;=&&========&=;;;;;;;;--;;;;-===&===------**========>66>;;;;;;;>>666;>6666>>>>>>>>;;;&&&%$@@+++@$%&&",
".o+@$$$$##$$$%%%&&=;;;>6666666666666666666>>>>666>>666>;;;;;;>;;;;;;;;;;=;;;;;;;>-=&&&&&**------&&&&&&&&&&&&&&&&&&&==-;-&&==;;;;;>>;;;&&&=;;;;=&&===;;;;>;;;;=&&========&=;-;;;;;;;-;;;;;-=&&&==------**========>66>;;;6>;;;;>66>6666>;;;>666>;;;&&&%@++O++$$$$&",
"Xo+@$$$$#$$$$%&&&&&&=;6e888886666666666666>>>>>66>;>666;;;;;;>;;;;>66>;-;;;>>>;;>-=&&&&&--------&&&&&&&&&&&&&&&&&&==;;;;;;====;;&=;;=&&&==;;;;==&&&=;;;;>;;;-=&&========&=--;;;;;;;;;;;;;;=&&&==--------========;;;;;;;>6>;;;>6666666>;=;>666>;;;&&&%@++XX+$%$$&",
"oO+@#$$$$$$$%&&&&=&=;;6eee886666666666666>>>>>>;>;;;666;;;;;;>;;;;>66>;;;;;>>>;;;-=&&&&&--------&&&&&&&&==&&&&&&&&=;;;;;;;==&&&&&&&&&&&&=;;;;;-=&&==;;;;;;;;-=&&========&=--;;;;;;;;;;-;;;;===-;--------;;====&&&=;===;;>>;;;;>666666>;;;>666>;;;&&&%@++XX+$%$%&",
"++++@@@$$$$$%&&&==;;;>666666666666666>>>>>>>>;;;;;;;666;>;;;>6>;;>6666>;6>>;;;>>;-&&&==&--**-*---=======;==&&&&&&=;;;;;;;;=&&&&&&&&&&=;;;;;;;;;-;;;;-===;;;;==&&========&=;;;;;;;;;=&&&=;;;;;;;;**------;;;==&&&==;=&&=;;;;;;;;;;;;;;>>>>>>6>>;;;-&&&@+O+X+$&$%;",
"+$@@@+@@$$$%%&&&&;6666>>666>5>>>6666>>>;>>>>;;;;;;=;666;6>;>666>>>6666>>66>;;;>>--&&&===--****---=======;;==&&==&=;;;;;;==&&&&&&=&&&=;;;;;;;;;;;;;;;=&&&=======&========&=;;;;;;;;=&&&&&=;;;;;;;**------;;;;&&&&;;;;&&=;;;;;;;;;==;;;>66>>>>>;;;;-&-&@+O+XX$&%$;",
"++@@@@@@##$%&=--;;>666>>66666666666666>>>>>>>>>>;;;;;>>>6>>>>;;;>>>>>>>>>;;;;;;>--&&===&;;;;;;-;-=========--==&&===-;--;&=;=&&&&==&&==;;;;;;;;;;;;;;-;;;&&====;;=========;;;;;;;========;;;;;;;;**---***;;;;=&&&===&&===;;;;;;;;;;;;;;>66>>>>;;;1;&-;@X++XO%&$$-",
"+$@@@@@@@@$&=;--&;;>6666>>666666666666>>>>>>>>>>>;;;>>>>>>>>>;;;>>>>>>>>;;;;;;;;--&&===&---------=========--==&&&=;-;--;&==&&&&====;;;;;;;;;;;;;;;-;;;;;&&====;;=========;;;;;;;========;;;;;;;;-*----**;;;;===&===&&===;;;;;;;;;;;;;;>6>>>>>>>>1;&-;@X++XO$&$$-",
"+$@@@@@@+@$&=;;;;;;>>>;;;;66666666666665666666666>;;>>>;>>>>;;;;;;;;;;;;;;;;;;;;--&&===&&&&&&&*&-=========;;==&&&&-;;;;=&&&&&&&;=;;;;;;;;;;;;================;;;========;===============;;;;;;;;--------;;;;;;--==&&&&==;;;;;;;;;;;;;;>6>>>66666;;&-;$+++X+$&$$-",
"$$@@@@@$@#$&&;;>666>;;;=;;668866888888666666666666>>>6>;>>>;;;;;;;;;;;;;;;;;--;;--&&===&&&&&&&*&-=========;;==&&&&;;;;==&&&%%&=;=;;>>>;;;;;;==&&============;;;;============&&&&================--------&===;---==&&&&==;;;;;;;;;;;;;;>6>>666666;;&-;$+@+O+$&$%-",
"@$@#@$$$$%&&&&-5666>;;;;;>68ee88eeee86666666666666>>>6>;>>;;;;;;;;;;;;;;;;----;;--&&===&&&&&&&*&-=========;;==&&&&;;;;;=&&&%%&=;=;;>>>;;;;;;=&&&===========-;;;;===========&&&&&========&&&&&&&&**&&&&&&&&&=;;-;;======;;;;;;;--;;;;;;>6>>666666;1;-;%@@+++$&%&-",
"+$@#$$$$&&&&&&->;;;;;;>>>666888688888666666666666>;;>>>;;;;;;;;;;;;;;;;;;;;;;--;--&&===&&&&&&&*&-=========;;==&&===;;;;;&&&&&&&;=;;;;;;;;;;=&&&&==========--;;;;===========&&&&&========&&&&&&&&**&&&&&&&&&=;;-;;;;;;;;;;;;;;;--;;;;;;>6>>>66666;6;;;&@$+++$%%&-",
"$$##$$$$%&--&&=-&&==;;>>>6666666666666>>>>>>>>>>>;;;>>>>;;;;;;;;;;;;----;;--;-;;--&&===&---------=========;;==&&;====;;;&==&&&&====-;;;;====&&&&&&&&&&&&---;;;;;========&&&=============&&&&&&&&**&&&&&&&&==;;-;;;;;;;;;;;;;;;--;;;;;;>6>>>>>>>>;61;1-$$+++$$&&-",
"$$#$$$$$$&;;-&&=&&&&==;;>>>>>>6666666>;;>>>>>>>>;;;;;>>>;;;;;;;;;;;;----;;;--;;;--&&===&;;;;;;;;==========;;==&&;;=&&=;;&=;=&&&&==&&==;;===&&&&&&&&&&&&&---;-;;;========&&&===;;========&&&&&&&&**&&&&&&&&==-;--;;;;;;;;;;;;;;--;;;;;;>66>>>>;;;;61;6;$$+++$$&&-",
"+$$@$%&$#&;;;&&======;;;=;;;;;;=>>6666>>6666666666>>;>>6;;;;;;;;=;;;;;;==;;;>;;;;;=&=======&&===&&&==;;;==&=;;=&&&&&&&==;=&&&&====&&&=;;====&&&&&&&&&&&&&&===;;;&&&&&&&&=&&&&&&=;;==&&==&&&&&&&&&&&&&&&&&&==;;;;;;;;;;;;;;;;;;-=;-;;;;;;;;;>>66666161-$$$++@%&&&",
"$$$$$%&$&=;;&&->;;;;;====;;;;;;=;>>>>>>;6666666666>>;>>>;;;;;;;;===;;===&&=;;;;;==&&===&===&&===&&&&==;;==&=;;=&&&&&&&&&&&&&&&&===&&&=;;====&&&&&&&&&&&&========&&&&&&&&=&&&&&&=;==&&&&&&&&&&&&&&&&&&&&&&&==;;;;;;;;;;;;;;;;;;;=;;;;;;;;;;;>>66666666;&$$++@%&&&",
"$$$$$%&%&=;;&&=-&=;;;;;;;;;>>;;;>666666>66666688666>>>>>>>;;;;;=&&====&&&&=;;;;;==;;;;;;==&&&&==&&&&==;;=&&=;;=&&&&&&&&&&&&&&&&&======;;====&&&&&&&&&&&&======&&&&&&&&&&=&&&&&&===&&&&&&&&&&&&&&&&&&&&&&&===;;;;;;;;;;;;;;;;;;--;-;;;;;;;;;>>66666666;&$$++$&&&&",
"$$$$%%&&$&;;;&%$%&=;>66>666666666668866666666666666>>>>>>>;;;===&&&&&&&&&=;;;;;;;;;;;;;;==&&&&==&&&&&==;=&&&=;&&&&&&&&&&$%&&&&&&=====;;;====&&&&&&&&&&&&====&&&&&&&&&&&&&&&&&&&&&&&&&&&&&&&&&&&&&&&&&&&&====;;;;;;;;;;;;;;;;;;----;;;;;;>;;>>66666666;&$$@@$&&&-",
"$$$$%%%&%&-;;&%#%&=;66666666666666688666666666666666>>>>>;;;=&&&&&&&&&&&==;;;;;;=;;;;;;;;======;&&&&====&&&&==&&&&&&&&&&$%&&&&&&===;;;;-====&&&&&&&&&&&&===&&&&&&&&&&&&&&&&&&&&&&&&&&&&&&&&&&&&&&&&&&&&&===;-;;;;;;;;;;;;;;;;;----;;;;;;;;;>>66666666;&%@@@$&&&-",
"$$$$%%%&>;-&&&--;;;;>>;;>>>>>>>>>666666>6666666666666>>;;;;=&&&==&&&&&&=&&&&====&;;=&&&;;;;;;-;;;;;====&&&&&==&&&&&&&&&&&&&&&&&&==;;;;;-====&&&&&&&&&&&&&&&&&&&&&&&&&&&&&&&&&&&&&&&&&&&&&&&&&&&&&&&&&&&&=;;--;--;;;;;;;;;;;;;;;;;;;;;;;;;;;>>666qqqqq6;&@@@%&&&&",
"$$$$%$%&6;=&&=;>>>;;;;;;>>>;;>>>;>>>>>>;66666666>6666>;;;;=&&&====&&&&======;;;;;;;&%%&;;;;;;;;;;;;;==&&&&&&==&&&&&&&&&&&&&&&&&===-;;;--====&&&&&&&&&&&&&&&&&&&&&&&&&&&&&&&&&&&&=&&&&&&&&&&&&&&&&&&&&&&&;;-----=;;;;;;;;;;;;;-;;;;;;;;;;;;;>>666eqeeq6;&@+@%&&&*",
"$+@$%$$&;;===;--;;;;;;>666>>>>66>>6666>>66666666>6666>;;;;=&&&=;;=&&&&=;;;;;;>66>6>;&&=;;;;;;;;;>>;;;=&&&&&&==&&&&&&&&==;=&&&&====-;;;;-====&&&&&&&&&&&&&&&&&&&=&&&&&&&&&&&&&&&&==&&&&&&&&&&&&&&&&&&&&&&;;---===;;;;;;;;;;;;;;;;;;;;;;;;;;;>>666666q66;&++@%=&&&",
"$$@#&$$&=;;=&&->;;;;;;>6>>;;;;>>66666666>666>>6666666>;;=;;&&=;;;;=&&=;;=;>>>66666;=&&;;;;;;;;;;;;;;=&&&==&&&&===&&&&=&&&&&=====;;;;;;;;;;=&&&&&&&&&&&&&&&&&&&&&&&&&&&&&&&&==&&&&&&==&&&&&&&&&&&&=;;===;;;;;;;;;;;;;;;;;;;;;;;;;;;>66>;;;;;>6666661e6;6$@@$&;;--",
"$$@#&$$&=;;=&=->66666666>>>;;>>>66666666>666>>66666666>>;>;=&=====;;;;==&&;;;;666>;=&&=;;;;;;;;;;;;;=&&&==&&&&==&&&=;;&&&&&&&&&&==;;;;--;;=&&&&&&&&&&&&&&&&&&&&&&&&&&&&&&&&==&&&&&====&&&&&&&&&&=;;;;==;;;;;;;;;;;;;;;;;;;;;;;;;;>6666>;;>>>>666666e6-6$@@$&;;-;",
"+$@$&$$&=====;;5>>>>>>;;>>>;;>>>66666666>666>>>6>>666666;6>;&==&&=;;;;=&$&&=;;;>>;;=&&=;;;;;;;;;;;;;==&&==&&&&==&&=;;;&&==&&&&&&&&==;;==;;=&&&&&&&&&&&&&========&&&&&&&&&&&&&&&&&======&&&&&&&&&=-;;;;;;;;;;;;;;;;;;;;;;;;;;;;;;>666666>>>>>>>66666e;&1&$@$&--;;",
"+$@$&$$&===;;;>5>>666>;;6>>>>>>666666666>666>>6656666666;66;==;&&&=;;=&&$&&===;;;;;=====;;;;;;;;;;;;==&&===&&===&&&=;=&&=&&&&&&&&&==;;==;;==&&&&&&&&&&&&========&&&&&&&&&&&==&&&==;;;;==&&&&&&&&;;;;;;;;>>;;;;;;;;;;;;;;;;;;;;>>666666666>>;;;>>6q6e-$1&$$$%&-;;",
"+$@$&$$&===-;>>56888866666>>>>666666666666666>66666666>;;>>;;;;;=&&&&&&=&&==&&&=;;-;====;;;;;;;;;;;-===&;======;;&&%&&&&&&&&&&====;;;;;;;;;;==&&&&&&&&&&========&&&&&&&&&&====&&=--;;;;=========;;>>;;;;>>>;;;;;;;;;;;;;--;;;>>>>>6666>>6>;;;;>66q6e&$1;$@@$&&;;",
"+$$$&$$&;;-;>6>>66666666666>>6666666666666666666688866;;;>6;;;;;;=&&&&=;=;;;=&&&==;;;;;;;;;;;;;;;;;;====;;====;;;&%$$&&=&&&&&=;;;;;;;;;;;;;;;;=&&&&&&&&&==================;;;;==--;;;;;;;--;;;;;;>66>;;>>>;;;;;;;;;;;;;;;;;;;>>>>>>>>>>>6>;;;;>66q6e-$1-$@$%-;;1",
"+$$$&$$&;;-;>5>;;;;;;;;;666>>666666666666688666868ee66;;;66>;;;;========&=;;=&&===;;;;;;;;;;;;;;---;;===;;====;;;&%$%&&=;;=&&=;;;;;;;;;;;;;;;;;=&&&&&&&&;;;;-;;;========;;;;;;---;;;;;;;----;;;;;>66>>>>>>;;;;;;;;;;;;;;;;;;;;;;>>>>>>>>>;;;;;666q6e;&6=$#$&;;16",
"+$$$&$$&>;;;55>-;;;;;;>6666666666666686668e86668668e86>;;66>;;;==;;;;;;=&=;;===-&=;;;;;;;;;;;;;;----;===;;====;;=&&&&&&&;;;=&==;;;;;;;;;;;>>;;;=&&&&&&&&;;;;--;;;;;;;;;;;;;;;;;;;;;;;;;;;;;;;;;;;6666>>6;;;;;;==;;;;;;;;;;;;;;;;6>>>>>>6;;;;;;666q6e;&6&$$$-166q",
"+$%&&$%&;;;>>>;;6>;;;;666666666666668eeeeeee88886668e86;=;>6;;;>;;;;;;====&&&&==;;;;;;;;;;;;;;;;=========;;;==;;&&$%&;;;;;;-;;;;:>>>>>::-::::::-;;;;;;===&&=;;;;;;;;;;==;;;;;;;;;;;;;;;;;;;;;;;;>>>>>>>>;;;;;;;;;;;;;;;>>;;;;>66666666>>>;;;;>66e;ee&-6&$@%;;1ee",
"+$$&&$$&>>>>665566>>>>;;>>666668666888eeeeeeeeee6688e86;;>66>;;>;;;;;;;;;;;;;;;;;;;;;;;;;;;;;;;;&&&&&&&&=;;=&&=;&&%&=;;;;;;;;;;;::>::>:-::>>::::;;;;=====&&=;;;;;;;;;;;;;;;;;;;;;;;;;;;;;;;;;;;;>>>>>>>>;;;;;;;;;;;;;;;;>>;;>>666666666>>;;;;>66e1ee;;1&$@&116ee",
"+$$&%$%&666666568eeee66>>>>6668e89988eeeeeeeeeee888ee86>66666;;>;;>;;;;;&&&==&&&-;;;;;;;;;;;;;;;&&&&&&&&==;=&&=;&&&&;;>6;;;;;;;;:::>>:-=>>>>::>>--;;======&;;;;;;;;;;;;;;;;;;;;;;;;;;;;;;;;;;;;;66666666;;;;;;;;;;;;-;;;66>>>66666666666>;;;;>66q6ee1;;&$@&q6eye",
"$$$%&$%&66>>6666eeeeee666666668e889eeeeeeeeeeeeee88ee8666666>>>>6666>>;;&&=;;=&&=;;;;;-;;;;;;;;;=========;;=&&=;&&&&;;;>;;;;;;;;::>>>>::>>>>::>>;;;;;;;;;==;;>;;;;;;;;;;;;;;;;;;>>;;;;;;;;;;;;>>>>>>>>>>;;;;;;;;;;;;;;;>6666666666666666>>;;;66666et61;&$@&eeeee",
"$$$%&%&-;;>>665666666666666666686688eeeeeeeeeeeeeeeeee66>>;>>666666665;;;>5666>;=;;;;=-;;;;;;;;;;;;;;;;-;;;-==;;======;;;;----;;>>>>>>>>>>::::>>;;;;;;;;;;=;;>;;;;;;;;;;;;;>>>>>>>;;;;;;;;;;;>>>;;;;;;;;>>>>>;;;;>>>;;>666666666666>>>>>>>;;>6666qeee6-&$+&eeqe0",
"%$$$%&&-;;;>5655>>;;>666886666666668eeeetteeeeeeeeeeee86>;;;>666666665;;;>>66>>;=;;;;=;;;;;;;;;;;;;;;;;;=-;-=&;;;;;;=&==;;----;;>>1333>>>>::::>>>>>;;;;;;;;;;>;;;;;;;;;;;;>>66>>>>>;;;;;;;;;;;>>;;;;;;;;6666>>>>;>>;;;;6>666666666>>;;>>>>>>66666eq6e6&&$+%eeq66",
"%$@$$$&&=;;6665>666666886666668866688eeeeeeeeeeeeeeeee8666;;6666666665;;--;;;;;;;;;;;;;;;;;;;;;;;;;;;;;;&==&&&&;;;;;;=;;;;;-;;;;>>3333>>>>>::>>>>>>;;;;;;;;;;>;;;;;;;;>>;>>666665>>;;-;=;;;;;;>>;;;;;;;;6666>>>>;;;;;;;>>>66666666>>;>>>>>>>66666e61e6%&$+$eyqqq",
"$$@$$$%&=;>6665>>>>66666666668ee66668888eeeeeeeeteeeee86e6>>666>666665;;;;;;;;;;;;>>;;;;;;;;;;;;;;;;;;;;&&&&&&&&=;>>;;;>;;;;;;;;>>>>>>>>>>>::>>1;;;;;;;;;;;;;>;;;;;>>>66;>>666665>>;;-;===;;;;;;;;;;;;;;66>>>>;;;;;;==;;;>666666666>>>66>>5666666e6;e6%&$+$eyeee",
"+$@$$$&=&=;>6e8;666666666666668e66668eeeteeeeteeeetpteee8866668866666>>>;;;;;;;;66666666>;==;;;;;;;;;;;;========;;;;;;;;>>;;;;;;>>>>>>>>1>>>>>88;>6>;;;;;;;;6666>>>>>>>>>>>>>>>>5>;;>;;;;;--;;;;;;;;;;;;>>6666>>;;;;;;;>>>66666666>;;;;>>6>;;6861616q;&-$+%qreye",
"$+@$$$$&&=;>6e8>666666666666668ee8988eeeee8eettteetpttee66666666ee86>;;;;;;;>666666666666;;=;;;;;;;;;;;;;;;;;;;;;;--;;;;;;;;;>66>>>>>>>>>>::>>38;;6>;;;;;;;;6666>>>>>>>>>>>>>>>>5>;;;;;======;;;;;;;;;;;;>>>>>>;;;=;;;;>>>66686666>>>>>>>6>;>88666;1q;&&$+%eyeye",
"$$@$$$$%&=>>6e85666666666666668eeeee8eee8868ettteeetttee86666668eee66;;;;;;668eee86666666>;;;;;;;;;;;;;;>>>>>>>>;;;;;;;>>>;;;;66>>>>>>>>::-=>>>3;;>>;;;;;;;;6666>>>>>>>>>>>>>>>>>;;;;;;=&&&&=;;;;;;;;;;;;;;;;;;;-==;;;;;>>66688866>>>>>>;>;;688666;;e1&&$+%epppe",
"$$$$$@@$&;;66885666666666666668eeeeeeeee8868eeeeeeettttteeeeeeee888666666666689eeee8666666>;;;;;;;;;>>>>6665666666>>>668866;;;;;>>>>>>>>::::>>>3;>>6>>;;;;;;6666>>>>>>>>>>>>>>>>>;;;;;;=&&&=;;;>;;;;;;;;;;;;;;;;==-;;;;;>>6668886>>;;;;;;;;>688666;;e6&&$@&eppye",
"$$$$$$#$&;>6888866>>66666666688ee88eeeeeee88eeeeeeeetttteteeeeee66888eeeee866668eeee886686>>>>;;;;>>>6666666666666666668666>>;;;>>>>>>>>>>>>>1136666666>;;;;>66>>>>>>>>>>>>>>>>>6;;;-;-====;;;>6>>>>>>>>;;;;;;----;;;;;;>>666668>>;;;;;;;;;6686666;;q1&&$@;ppye6",
"$$$%%$$$=;>8e68986>>66666666688e8888eeeeeeeeeeeeeeeeeetteeeeeeeeeeeeeeee88666688eeeee866666666>;;;>>666666666666>>>>>666>>666666111>>333838311136>>6666>>;;;>66>>>>>>>>>>>>>>>>>6>;;-;;-;;;;;;>5>>>>>>>>;;;;;;---;;;>>>>>>666666>>;;;;;;;;;6866666;;6;&;&$;ppee6",
"%$$&&$$%=;6ee66ee6;;66666666668e88888eeeeeeeettetteeeeeeeeetteeeeeeeeeeee888888888eeee866666666;;>>6666666666666;;>66>;;;;66866688813383888881>>>;;>666>>;;;>6>>>>>>>>>>>>>>>>>>6>;;;;;;;;;;;;;;;;;;;;;;;;;;;;--;;;>6666>>66666666>>;;;>;;;6e66616616-&;&$-ypyye",
"%%%&&%$&=;6ee66ee6;;66666666668eee888888ee8eepppptteeeeetppppppteeeeeeeeeee98666688eee886666666>;>>6666666666666>66666;;;66ee6>;8883338888888>>>;;;;66>;>;;;>6>;>>>>>>>>>>>>>>>>66;;;;;;;;;;--;;;;;;;;;;;;;;;;;-;;>66666>>6666666666>>66>;;8e6>6;6666&&1&$-epype",
"%%&-&%%&=;8eee99e6;;668666666666888688eeeettptttttteeeeeeeetttteteeeeeeeee8eee8668eee8886666666666666666666666666>>>66>;>666666>1>>883>383833322>>;>>>>>;;;;;>>66666>>>;>>>>>>>>>>;;;;>>;;;;;;;;========;;;;;;;;;;>666666655666866666>;;;=;66>;61q666;&6;$&eyype",
"%%%*&%%&&;6eeeete6;>686666666666888688eeeettptttttteeeeeeetttttetteeeeeeeeeee88668ee86686666666666666666666666666666666666>>>>6681388>:>333>2>:::>;;>>>>;;;;;;>>>>>>>>>>>>>>>>>>>;;;;;;>;;;;;;;;&&======;;;;;;;;;;>666666666666866666>;;;;;66>;>;6666;&1;$&eyyye",
"%%$&&%&;;>6eeeete866666>66686666888688eeeettpttttttteeetttpppttetttteeeeeete86688eee6668888666>>6666666666566666>66>;;6e66;;;;6681183>=::::::::::;;;;>66>>;;;;;;;;;;>>>>>>>>>>>>55>>>>66>>;;;;;;&&&&===;;;;;;;;;;;>666666666666666666>;;;;>66>;>&666e;&;&$-eyeye",
"*%$%%$&;88ee8899e666866;66668888888688eeeettptttettteetppppppttettttttee8epe6668eee86666866666>;;;;;>;;;66566666;>>;&&;66>;;;;>681183:=-::::::>>:;;;;>6666>;;;;;;;;;;>>>>>>>>>>>666666666>;;;===&&&&=;;;;;;;;;;;;;>65666>668966666666>;;>>666>;;&;66e;&;$@;yyeye",
"*%$%$%-6eeeeee99e88886666699e888888688eeeettptttettteetpppppttttttppttee8epe6668eee86668666666>>;;;;>>>>>>>66666;>>;&&=>;>>>>>>;6>>61>->::::::22-;;;>666666>;;;;;;;;;>>>>>>>>>>>66>>>>666>;;;===&&&=--;;;;;;;;;;;;>666666666666666666>;;>66666>;&;16e;&;$$;ppeye",
"%%$%$%-6888eeeeeee886666868eee88888688eeeettpttttttteeetppttttttettptteeeete866868e866686666666>66>>55>>;;;>>666666;==;>;>6666>;6>>61>>>>:>22231>;;>>666666>;;;;;;;;>>>>>>>>>>>>;;;;;;;;;;;;;;====;;-;;;;;;;;;;;;;>666666666666666666>;;;66>666>;616q;&;&$;ppyye",
"%%$%%%;6888etpt9ee86668e68eeeee8888688eeeettptttttteeeeetteeeetpeettteeeeeeee886668866665>666666666>>>>;;;;;;>>56>>>>>66666>>6666>>66;>>>>223331>>>>6666666>>>>>>>>>>>>>>>>>>>>>;;====;;;;;>;;=&;;;;;;;;;;;;;;;;;;>66666666>>66665666>;;;66>>66666;16;&1-$-ypppe",
"%%$%%&;6eeeett98ee8666ee68eeeee8888688eeeettptttttteeeeeeeeeeetpeettteeeee8eee86>68e8666>5566666>>;;;;;;;;;;;;>>;;;;666666>;;>6666686;>>>>22>>3116666666666>>>>>6666>>>;>>>>>>>>;;;--;;;=;;>>;=&;;;;;;;;;;;;;;;;;;>6666666>;;>6666666>;;;66;>686qq;;6;-6>$-ypppe",
"%%$$%-16eeetppe988666688eeette8666688eeettttpppppteeeeeeeeetppptppppteeepe66ete8>66ee66>;;;;;66e66>>6>;;;;;;;;;;>6666666;;>>;;>66666666633311133>>>>>>>>666666>>66666655>;;;;;;;;;66;;;;66>>>>;;6666>;=&;;;;;;;;;;;>666866>;;;>6>>>>>>>>>>>66688ee1;6;;q;$-ppeee",
"%%$$%-16eeeette988866888eeeeeee86888eeeeetttttpptteeeeeeeeetppptttttteeeee68eee866688666666>666866>>66>;;;;;;;;;6666666>;;>>;;666666666633311133>>>>>>>>66666666666>>>>>;;;;;;;;;;66666666>>>>;;>>>>;;;=;;;;;;;;;;;>>666>>>;;;>6>>>>>>>>>>>>6668ee1;6;;q;$-ypeee",
"%%$$&-66eeeeee998eeeeee8eeeeeeeeeeeeeeeeeeeetttteeeeeeeeeeeepppttttteeeeeeeeeee866666666ee8886666>>>66666666666666666>>>;;;;;>686666666666111133>>>>>>>>>>66666666>;;;;;;;;;;;;;&=;;;>6886>;>>>>>;;;;;;;>>>>>>>>6>>>;;;;;;;;;;>6>>>>>>>>>>>>>66666;;6;-6;$&epeyp",
"%%$%&;1qeeeeee99eeeeeeeee8888eeeeeeeeeeeeeeeeeeeeeeeeeeeeeeetpteeeeeeee86ettee8e86666668eeeeee666>>66666e88866666666>>>>>>;;;>6e7666666666111133>>>>>>>>>>>>666666>;;;-;;;;;;;==&&&=;;6886>;>666;;;;;;;>>>>>>>>>66>;;;;;;;;;;;>6>>>>>>>>>>>>>>66;1;;6;-61$&eyepp",
"%%$$&;6qeeeeee99eeeeeeeee8868eeeeeeeeeeeeeeeeeeeeeeeeeeeeeeetteeeeeeee886etpe88ee866668e8eeeee966>>6688666666>>>6666>>>>>>>;;68e6666666666661133>>>>>>>>;;>>>6666>;;-;==;;;;;-==;;;;;>6e86>;>666;;;;;;>666666666>>>;;;;;=;;;;;>6>>>>>>>>>>>>>>66;1;;6;-61%&eyeyp",
"%%$%&;6eeeeeee99eeeeeeeeee888eeeeeeeeeeeeeeeeeeeeeeeeeeee88eeteeeeeeeee86ettee8ee888888e668eee986666688666666666666>>>66666>>68e6666666666661133>>>>>>>>>>>>>>>>>>;;--;;;;;;;;-=;;;;;;6666;;>666;;;;;>66>>>>>>>>>>>>;;;;;;;;;;>6>>>>>>>>>>>>>666;6;;6;;66$-eeqee",
"$$$%&1eeeeeette9eeeeeeeeeeeeeeeeeeeeeeeeeeeeeetteetteeee888eeeeeeeeeeee88eeeeee8eeeeeeee888899866666888666666666666>>>66666666687666666666661111>>>>>>>>>>>>>>;;>;;;;;;;;;;>;;-==;;;;;;;6>;>66>>;;;>6666>>>>>>>>666>>;;;;;>>;;;>>>>>>>>>>>>>666866;;61;q6%;ye666",
"%%$%-6eyeeetppe9eeeeeeeeeeeeeeee888eeeeeeeeeetttettteee8888eeeeeetteeeeeeeeeeee88eeeeee8eee8966666668886>>>6666666>>>66666666668766664>>66661111>>>>>>>>6>>>>;;;;;;;;;;;;;;>>;-=;;666666>;;>66>;;;>6666>>>>>>>>>6666>;;;;>66>;;>>>>>>>>>>>>666886q1161;q6%;ye66;",
"%$$%;6ereeetteeeeeeeeeeeeeeeeeeeeeeeeeeeeeeeeeeeeeeeeeee668eeeeeeeeeee888eeppee868ee8688eee8866666888eee6666666>6666>6686666666666666666666666666666>>>;>>>>;;;;;;;;;;;;;;>666>;;;;;;;;;;;>66>;;>>>>>>>>>>>>>>>>666>;;;;;;;;;;>6>>6655>>>6>;6ee8e6666;<66&;ye66;",
"%%%-1eppeeeeeee9eeeeeeeeeeeteeeeeee88eeeeeeeeeeeeeeeeeee68eeeetttpppptee8eettee88eeeeeeeeee886668888888e6666666>>>>;;;>66666666666666666>>>>>>>>>>>>>>>>>>>>;;;;;;;;;;;;;;;>>>>;;;;;;;;;;>>66>>;66666666>>>>>>>>;;;;;;;;;;;;;;>6>>665>>>;;;;>886q666666q6&1pyq6;",
"%%&;6epjeeeeeee9eeeeeeeeetpppteeee8668eeeeeeeeeeeeeeeeeeeeeeetppppppppppeeeeeeeeeetteeeeeee88666e88888886666666>;;;;=;;6>>>>55>>66666>>>;;;;;;;;;;;;>>>>;;;;;;;;==;;;;;;;;;;;;;;;;;;>;;;>>6666>>66666666>>>>>>>>==;;;;;;;;;;;;>6>666>;;;;;;=;6666616q6qe6;6ppe6;",
"%%%-6eppeeeeeee9teeeeeeeetpppptetteeeeeeeeeeeeeeeeeeeeeeeeeeettppppppptteeeeeeeeeetteeeeeee88666eee888666666666>;;;;;;>6>>>>555>666>>>>>;;;;;;;;;;;;;>>>;;;;;;;=&=;;;;;;;;;;;;;>;;;;>;;;>>6666>>66666666>>>>>>>>==;;;;;;;;;;;;;6666>>;;;;;;=;6666666qqee6;qpye6;",
"%%&-1eypeetttteetteeeeeeeeettppppppppeeeeeeeeeeeeeeeeeeeeeeeeettttpptteeeee88eeeeeeeeeeeeee88686eee888666666666>;;;;;>6666666666666>>>>>>>>>>>>>;;;;;>>>>>>;;;;;&=;;;;;;;;;;;;;>;;;;;;;;>>>>>>>>>>>>>>>>>>>>>>>>;;;;;;;;;;;;;;;>>>>>;;;;;;;=;66666666eee6;qpeq6;",
"***;6eppttpppptttteeeeeeeeeeetpppppppte8eeeeeeeeeeeeeeeeeee8eeeeppppptteeeeeeeeeeeeeeeeeeee88886e88888886666666>;;;;;;>66666666666666>>>>>>>>>>>;;;;>>>>>>>>;;;;==;;;;;;;;;;;;;;>>>>>>>>>>;;;;>>;;;;;;;;;;;;;;;;>>;;;;;;;;;;--;>;;;;;;;;;;;;;6866q666eeq1;epeq6;",
"---;6eypppppppiipteeeeeeeeeeeeeeeettteeeeeeeeeeeeeeeeeeeeee88eeettpptteeeeeeeeeeeeeeeeeeeee998668888888e6666666>;;6>>;>>6666666666666656>>>>>>>>>>>>>>>>6666>;;;;;;;;;;;;;;>>>>;66666666>;;;;;;>;;;;;;;;;;;;;;;;>;;;;;;;;;;;-;;>;;;;;;;;;;;;;66666666eeq;;epeee;",
"-**;6qeeppppppiipteeeeeeeettee86eeeeeeeeeeeeeeeeeeeeeeeeeee8eeeteeeeeeee88eeee88eetteeeeeee9986666888eee6666666>>6666>66>>>>>>>>66666666>>>>>>>>6666>>>;66666>;;;;;;;;;;;;>666>;66666666;;;;;;;;;;;;;;;;;;;;;;;;;;;;;;;;;;;;-;;>;;;;;;;;;;;=;66616666eeq;;epeee1",
"**&;6eeyhpppppiipteeeee868eeee86eeeeeeeeeeeeeeeeeeeeeeeeeeee88eeeettee86eeeeeeeeeeeeeeeeee8688866668866666666666666666666666666666666566>>>66666>666>;;>>>>>>>>>>>>;;;;;;;;;>>66>>>>66666;;;;;;;;;;;;;;;;;;;;;;;;;;;;;;;;;;;;;;>;;;;;;;=;;;-;66>6;6q66ee616eye66",
"**&;6eypppptttttpteeeee888eeeee8eeeeeeeeeeeeeeee66666666eeee88eeeeeeeeeeeeeeeeeeeeeeeeeee8666666666688666666666666666666666666666666666666666666;>6>;;;;;;;;;;;;>;;;;;;;>;;;;;;;;;;;;;>>6>;;;;;;;;;>;;;;=====;;;;;;;;;;;;;;;;;;>;>>;;;;;;;;-;66>1;6616ee616eye66",
"%%&;6eppppteeeeepteeeee88888eeeeeeeeeeeeeeeeeeee66666688eeee88ee68eeeeeeeeeeeeeeeeeeeeee86666666666666666666666666666666>>>>>>>>6666666666666666;;>;;;;;;;;;;;;;;;;;;>>>>>;;;===;==;;;;;6>;;;;;;>>>66>>>&&&&==;;;;;;--;;;;;;;;>6>>>>;;;;;;;;;66>1;66;6eq616epe66",
"*%&;6eppppteee9epteeeee8e8668eeteeeeeeeeeeeeeeeeteeeeeeeeeeee88e88eeeeeeeeeeeeeeee88eeee6666666>666666665666656666656566>>>>>>>>6665666666666>>>;>>>;;;;>>>>>>>>;;;;>>>6>>;;;===;;;;;;>666;;;;;;>>>66>>>&&&&=;;;;;;;--;;;;>;;;>6>>>>>;;;;;;;>66>1;6616ee616rye66",
"**&;6eypppiteeeepteeeee8e8666eeteeeeeeeeeeeettpppteeeeeeeeeeeee8eeeeeeeeeeeeeeeeee668ee886666666666666666666666666666666666666666656666666666>>>>666>;>>;;;;;;;;;;;>>>66>;;;;;;;;;;;;>6666;;>>>;>>>>>;;;&&&&=;;;;;;;;;;;;>>>;;666666>;;;;>55666;6;6q16ee616eye66",
"**&;6eeyppppttttpteeeee8e8868eeeeeeeeeeeeeeeeetttteeeeeeeeeeeee8eeeeeeeeeeeeeeeee86668e88666666666666666666666665666666666666666666666666666666666666>6666666666>>>>>>>6;;;;;;;>;;;;;;>66>;;6666>>>>;;;=====;;;;;;;;=;;>>>6>>>6666666>;;;666686;6;6q66ye616eye66",
"**&;6eypppppttttpteeeee8ee888eeeeeeeeeeeee888888eetpptee888eeteeeeeeeeeeeeeeeeeee8666888866666668866668866666656666666666666666666666666666666666666666666666666666>>>>>;;;;;;;;;;;;;;>6>;;>6666666>;;=&;===;;;;;;;;==;>>666>>6666666>>;;666686;6;6q16ee616eye66",
"%*&;6eppppptttttpteeeee8eee888eeeeeeeeeee886666666eeteee866eeteeeeeeeeeeeeeeeeeee8666888866666668886666865566666666666666666666666666666>>>6666666666666>>>>>>>>6666>>>>>;;;;;;;;;;;>666>;;>6688666>;;&&;====;;;;;;;==;>>666>>66666666>;>666696;1;66;6eq616eye66",
"**&-6ypyppteeeeitteeeeeteee888eeeeeeeeee66e86668668eetttppteeeeeeeeeeeeeeee888888888888866666666866666668886666666666666668eee868666666666666689888866666>>>66>;>>66666666>;;;;>>;;;>666>;;;;66666>;;;;>;;;;;;;;;;;;;;;;66>>666>6666611;66qq61;;6116ee6;;1qeeeee",
"**&-6ypytpteeeeitteeeeeeeee88eeeeeeeeeee6688666866689eeeeeeeeeeeeeeeeeeeeee8888e8888888888888888898888888886666666666666668eee868666666666666689898866666>>>66>;>>>6666666>;;;;>>;;;>6666;;;;6666>>;;;>>;;;;;;;;;;;;;;;;66>6666>6666611;66qq611;6166ee6;;1qeeeee",
"**&-6ypyttteeeetteeeeeeeeeeeeeee88888888e8688e866666668e8eeeetttpteeeeeeeeeeeeeeeeeeeeeeeeeeeeeeeeeeeeee8ee866668888666669eeee888666666666666668666666666>;>66>>>>>>66666>>;;;;>>;;;>6666>;;>>;;;;>>>>>>;;;;;;;;;;;;;;;;6666666>6666611;66q666116666ee6;;6qeeeee",
"**&-6ypyttteeeetteeeeeeeeeeeeeee88888888e868eee686666666668eetttppteeeeeeeeeeeeeeeeeeeeeeeeeeeeeeeeeeeeeeee866689999888899eeeeee86666666666666666666666>>;;;>6>>>>>>>>>>>>>>>>>>>;;;>66666>>>>;;;;>666>>;;;;;;;;>>;;;;>>6666666>6666611;66666666666qeq6116qeeqqe",
"**&-6ypytttteeeteeeette8eeeeee8888888888ee68eee6e8666666>668eeeeppptteeeeeeeeeeeeeeeeeeeeeeeeeeeeeeeeeeeeeee666899888888eee88eee8666666666666666666666>;;;;;>66>>>>>;;;;;>>>>>>>>;;;>66666>>>>;;;;>666>>;;;;;;;;6>>>>>>6666688666666611;16666666666qeq6666qqq6qe",
"**&-6ypyetptee9eeeeeppe6eeeeee8688888888ee88eee8eee886666666668eeettpttttteeeeeeeeeeeeeeeeeeeeeeeeeeeeeeeeee868eeeeeeeeeee86688e866666666666666666666>;;;;;;>66>>;;;;;;;;;>>>>>>>;;;>6666>;;>>;;;;>>>>>>;;;;;;;;66>>>>666668ee666666611;1666666666qeeq666qqq66qe",
"**&-6ypyetptee9eeeetppe68eetee86eeeeeeee8eee888eeeeeee8666>;;>6666eetttetteeeeeeeeeeeeeeeeeeeeeeeeeeeeeeeeee868eeeeeeeeeee86668e866666656666666666666>;;;;;;>66>;;;;;;;;;;>>66>5>;;;>6666;;;;6666>>;;;>>;;;;;;;;666>>666666eee666666611;1666666q6qeeeqqqqqq6666e",
"**&-6ypyetptee9eeeetppe68eette86eeeeeeee6eee668eeetppee886>;;;;>;68etteeptteeeeeeeeeeeeetttttttttttttttteeee888eeeeeeeeeee66666886666666666>>6666666>>;;;;;;>66>;;;;;;;;;;>>66>5>;;;>666>;;;;66666>;;;;>;;;;;;;;66666666668eee666666611;;166666e6qeeeqqqqqq6666e",
"-%&6ypyeeeeeeeeeeeeeeeeeeetttteeeeeeeeeeeeeept8>;6eeee86666886>;==6tpeeeeeeeeeeeeeeetpeeeeeeeeeetteeeeeeeeeeeeee66888666666666666666656666>66866>>>6>>;;6666>>>;66>;;;;;;;6666666666>;;;;;;>>666666>>>>>;;;>>666666>>666666>>;;;6qq1;1616666666666ee666eeqqqeq66",
"*%%;eyeeeeeeeeeeeeeeeeeeeeeeeeeeeeeeeeeeeeeeee8666eeee888668ee6>666eteeeeeeeeeeeeeeeeee8eeetteeeeeeeeeeeeeeeeeee6666666666666666666665666>>6666666666666;;;;>>>>>>>;;>>>>>6666666666>;;;;;;>>666666>>>>>;;;>>66666>>>>666666>>;;66q1;16;66666666;6qeqqeeeqqqqq66",
"*%$;eeeeeeeeeeeeeeeeeeeeeeeeeeeeeeeeeeeeeeeee888688eee88668eeee6teeeeeeteeeeeeeee86666668eeeeee8eeeeeeeeeeeeee866666666666666666666666666>>6666666>>;>>6;;;;>>>>;;>66666666666666666>;;;;;;>>666666>>>>>;;;>>66666>>>>6666666>>>166;;;1;66666666;6qeeeqqeq66q661",
"*%$;qeeeeeeeee99eeeeeeeeee888eeeeeeeeeeeeete668ee86688886668eeeepteeeeeeeeeeeeeee8666666888ee8888eeeeeeeeeeeee66>;;;;>6666666666666566666666886666>;;;>6666>>>;;;;6666666666>6666666>;;;;;;;>>66666>>>>>;;;;>>666666666666666>>;166;;;1;6666666666eeee66q6666661",
"*%%;ereeeeeeee998888888888668eeeeeeeeeeeeepe668eee666ee8668688eeeteeeeeeeeeeeeeeee666666eeeeeeee66888eeeeeeeee666>5;>666666666666666666666666866666;;>66;;;;>>>>>>66666>6>>;;;>>6666>;;;;;;;;>>>666>>>>>;;;;;>>>66666666666>>;;;166;;;1;6666q66616qeeee0q6666661",
"*%%<ereq888888888888888866688eeeeeeeeeeeeete668ee8668ee86686668e8eeeeee8eeeeeeeeee8688886668866666688888eeeeee8686886888666666666666666666666866>;;;;;;;&==;;>>6>>66>>;;;;;;;;;;6666>;;;;;;;;>>>666>>>>>;;;;;>>>6666666666>>;;;;166;;;1;6666qq66;16eypeeq6666661",
"%%%<eeq6888888888888888888eeee88eeeeeeeeeetee68ee6668eee8e86666e6ee88ee6eeeeeeeeeeeeeeee66688666eee88888eeeeeeee88eee896666666666666666666>66666;;;;;;;;;;;;;>>>>;;;;;;;;;;>>>>;6666>;;;;;;>>666666>>>>>;;;>>666666>>6666666>;;;6661;16;6666qq66666eeyeeq6616611",
"%$$<ee6666666666eeeeeeeeeeeee866eeeeeeeeeeeee888e666eeeeeee8>>6e8ee66ee6eeeeeeeeeeeeeeeetttppttteeeeee88eeeeeeee66888666888ee99866666666>>;>666>88888866e8866>;;;;;;;;;;=;;666>>6666>;;;>>>66666666>>>>>>>>66666>>>;;>>>66666>>>6q61;1616666qq66eeeeee66q6111611",
"%$$&6q66;6eee689ee8888eeeeeeee866666668688888888e888eeee8ee8668eee866666eeeeeeeeeeeeeeeeeeeeeeeeeeeeeeeeeeeeeeeeeeee9999998886668666666666>;;>6666888666666666;;;;;;;;;;;;>666>;6666>>>;66666666666>>>>>666666666>;;;;;>>6666666qq6666116666666q6qeeeeq666666661",
"$$$;661168ee6669eeeeeeeeeeeee8866666668888888888e888eeeeeeee668ee8866666eeeeeeeeeeeeeeeeeeeeeeeeeeeeeeeeeeeeeeeeeee886898988886666666668666>>6666688666666666>;;;;;;;;;;;;>666>;6666>>>>666666666666>555666666666>;;;;>>>6666666qq666611666666666qeeeeq666666661",
"$$&1q6;;68ee6669eeeeeeeeeeeee8868899899988888888e88eeeeeeeee8688e88666669eeeeeeeeeeeeeeeeeeeeeeetteeeee8eeeeeeeeee886666888eeee866666888666666666686666666666>;;;;;;>>>>;;>666>>6666>>>>66666666>666666666666666>>>6666>>6666666qqq66611666666666qeeeeq666666661",
"$$$;eq1;68eeee89eeeeeeeeeeeeee888889889988888888888eeeeeteeee86888666688999eeeeeeeeeeeeeeeeeeeeetteee886eeeeeeeeee866666688eeeee88666666666666666688666666666>;;;;;;>666;>>666>>6666666666666665>66666666666666>;>666666>6666666qqq66611666666666qeeeeq666666661",
"%$$;eq1;>6eppt99eeeeeeeeeeeeeeee9999888888888888888eeeeeteeee86688668888888eeeeeeeeeeeeeeeeeeeeeeeeee866eeeeeeeeee866666688eeeeee8666>>>6666666668e86666666666>>;;;>>666>66666>>6666666666566665666666686666>>>>;>688666>666666666666611;1666qqq6qeeeeq666666661",
"-%%;66;-;6epppe9eeeeeeeeeeeeeee89899888888888888888eeeeeeeeeee666666898e8eeeeeeeeeeeeeeeeeeeeeeeeeeee888eeeeeeeeee886666888eeee88666>>;;666666666698666666666>>>;;>>>66666666>>>66666666666666666666666666666>>>>6668666>66666666666661111666qqq6qeeeeq666666661",
"$%&166;1668eeee9eeeeeeeeeeeeee866666666688888888688eeteeee8eee866666899eeeeeeeeeeeeeeeeeeeeeeeeetteeeeeeeeeeeeeeeee886688888886666>>>>>>6668866666886>6666>>;;;;>>>>>66666666>>>6666666666666666666666666666666666666666>66666666666661166666qq66qeeeeq666666661",
"o$-0q66e86668e99eeeeeeeeeeee88666666666688888888668etteee868ee86666689eeeeeeeeeeeeeeeeeeeeeeeeeettttttte88888888eeee888888888666;;;;;>6668eeee86>666>;;>>>;;;;;;666>>>>>6666>>>66666666866666666888666666666668866666665>666666666666611qq6666666qeeeeq666666661",
"$$&16<1088888e99eeeeeeeeee8666666666666866668888888etpteeeeeeeeee6>6tpe6eeeeeeeeeepteeeteeeeeeeeeeeeeeeeeeeeeee8eeee668e8eeee866666>>666666888886666;;;>66>;;>666>>>>>>6666666666666666666666666666666>>66668888666666666668888666666661666q666166eqeeee66116661",
"$$%;6116888eee99eeeeeeeeee8666666666688e6666888888eeppppttteeee86eee88eeeeeeeeeeeetptetpteeeeteeeeeeeeee666688666696666e8eeee86666666666666666666666>;>>66>;>>66666>>6666666666666666666666666666686666666666888666666666666866666666661666qq66666qeeeqq66116666",
"$$$-666688eeee99eeeeeeee88666666666689ee8888866688eepppppppteee86etee8etetttttteetppptpppteetttteeeeeeeeee8eeee86666666eeeeeeee8866666686666666668866666666>5>>6866666688866666866666666666666668986666666666888666666666666666666666661666qqq666qeeee6666116666",
"%%$&;666eeette99eeeeee888866666666669eeeeee88666888etpttppptteeepe68tpe8tttttttttppppppppteetptteeeeeeeeeeeettee6686668eeeeeeeeeee8888ee6666>>>>8ee8666666665>66e866668e886668886666666666666666898666666666688866666666666666>>66666661666qqqqqqeeeeeq666116666",
"%%%&;166eetppt99eeeeee8899866666666668eeeee988668888eee8eeeeteeete68epeeettttttetppppppppteettttppppppppeeeeeee8eeeeeeeeeeeeeeeeeeeeeeee6665>>>68ee866666666666686666668ee86666886666668666666668886666666686888666666666666666>66666661666eqqqqeeeeeeq666166666",
"%%&&&;66eeetee99eeeeeee899866666666688eeeeee8888e888e8668eeeeeee6epe66epettttttetppppppppteetpttppppppppteetpptepppteeeteeeeeeeeeee88eee666666668ee866666666666688666688ee88888888666688666666668866666666666888666666666666666666666661q6qq66qqeeeeeeqq1;166661",
"%*-%$-6eeeeeee888eeeeee8ee86666666688eee888eeeeeeeeeeee8688eee886epe66eptppppppttphhppppppttpppppppppppppppphhpptppteetptteeeeeee888888e98666688688666666666688888eeee88eee88888888ee89966666688666666666666689966666666666666666666666166666666666666qq&-;6qq61",
"%-;%$&6eee86666668eeeeeeee86666688eeeeee888eeeeeeeeettee88888666e8668eeepppppppptphhpppppppppppppppppppppppppppteeteeepppteeeeee88666689966668ee66666>56666688888eeeeee8eeee888e88eeee9988888889666666>>66666899666666666666888866666661q66666666611166q%&;6ee66",
"*$%-%&6e888666688eeeeeeeee86668eeeeeeee8eeeeeeeeeeetteeeee66eee8ee888eeetpppppppppptttttttppppppppppppppeeeeeeeeettee8eeppeeeeee88866888e6666886688866666686666668eeeeeeeeee668eeeeeee866688998866666>>>;;>6688866666>666666688e66666666666666666;66;6e6;%;61666",
"%%&-$&6eee866666668eeeeee8888eeeeeeeee86eeeeeeeeeeeeeeeeee88eeeeeeee8eeeetppppppteeeeeeettttppppppppppppeeetteeeeeeee8eeeeeeeeeeee8888eee866888688e866668888888868eeeeeeeeeee88eeeeeee8666868989ee86666666666666666666666666668e666666666666666661q6;6e1;$&666q1",
"%%;*$&6qee86865566688eee88888888eeeeeee8eeeeeeeeeeeeeeeee88eeeeeeeeeee888etppttpeeeeeeeeeeeettttppppppppeeeeeeee8eeeeeeeeeeeeeeeeeeeeeeee8668ee88ee866668888888868eeeeeeeeeeeeeeeeeeee6666666688eee86666666666666666666666666689666666666666666q6666;6q;-$&1666;",
"%*;*@&6qeee68655>66668ee888666;;6668eeeeeeeeeeeeeeeeeeee88eeeteeeeeeee8868epptttpttttttteeeteeeepppppppptttppttteetpteeeeeppppppeeeeeeeeee88eeee8eee66668888888868eeeeeeeeeetteeteeee86666666888ee86666>6666688866666668666>5689666666666666qq666666;16-&$%;666;",
"%*;*$&6qeee88655666668ee888666>;>>6668eeeeeeeeeeeeeeeeee8eeeeeeeeeeeeee868ettettppppppppteeteettpppppppppphhhhppppppppeeeeppppppeeeeeeeeeeeeeeeeeeee86688888888868eeeeeeeeeetpteteeee86666688888eee86666666666886666668986666668666666666666q6666666;;6&&@%1666;",
"*%&-$&6eee988655666668eeeeeeeeee66666666eeeeeeeee888888e8eeeeeeteettteee6eeeeeetttttttpppppptttppppppppppppppppphpppppteeeeeeeeeteeeeeetteeeeeeeeeee8688eeeeeeee68eeeeeeee8eeppttee888868888eeeeeeeeeeeeee8666666666668ee886666866666666666666616166;;1&$@&66661",
"-$$;&&1eee98666688888eeeeeeeeeetee8666668eeeeeee88666688eee866eteetptteeeeeeeeepteeettppppppppppppppppppeeeeeeeeppttppteeeeeeeeeeeeeeeeeteeeetteeeeee88eeeeeeeee68eeeeeeee66epppee888e88eeeeeeeeeeeeeeeeee666>>>6666668eeeeeee88q6666qqq66qq661;6166;;1&$@&611q6",
"<+@;;&;e88866668eee8eeeetee888eeee86668868eeeeeee886688eeee666eteetppteeeeeeeeeptttttppppppppppppppppppptttpptttee8eepteppeeeeeeeeeeeeeepeeeetteeeeee88eeeeeeeee68eeeeeet866epppee868ee8eeeeeeeeeeeeeeee886666666666668eeeeteee8qq666qee6qeq661;1;66;;1&$$;61;qq",
"-$$&&&>8eee866669eee88eeeeee8988888688eeeeee88eeee8ettee886668eeetttttteteeeeeetptttppppppppppppttttttttttteeeeeeteeeeeeeeeeeeeeeeeeeeeetttttttttppteeeeeeeeeeeeeeeeeeeete68tpppeeee88eeeeeeeeeeeeeeeeee9866666>8868eeeeeeeeeeeeeeqq66qqeeq66666;;66-;1&%$-q66q6",
"-$$-&&6eee88888899e888eeeee888ee8888eeeeeeee868eee8ettee88688eeeeetttteeeeeeeeeetttttpppppppppppttttttttpppptttteeeeeeeettpppptettteeeeetttttttttppteeeeeeeeeeeeeeeeeeeeee68epppeeeeeeeeeeeeeeeeeeeeeeee8666666669eeeeeeeeeeeeeeeeqqqqqqeeq666666166;;6-$$-qqqe6",
"<%&;&&6q88888899898668eteee86668eeeeeetteee86666888eeteeeeeeeeeeeeeeeeeeeeeeeeeeeeeetpppppppppppttttttttpppppppppppttpppppphppptpppteeeetttttttttppteeeeeeeeeeeeeeeeeeeee868epppteeeeeeeeeeeeeeeeeeeeeee886666666eeee88eeeeeeeeeeeeeqqqqeeqq66616666;66;$$-eeeye",
"1*-;&&;6ee888888886666eteee86666eeeeetppeee86666688eeeeeppteee88eeeeeeeeeeeeeeeeeeeetpppppppppppeeeeeeeepppppppphhpppphhpphkhpptpptteeeetttttttttppteeeetttttttteeeeeeeee88eepppteeeeeeeeeeeeeeeeeeeeeee88666888ee8eeeeeeeeeeeeeeeeeeeqqeeqq66616166;66;$$;eeepe",
"-%-;$&16eee86655666666eee8866666eeeeetppeeee666668eeeeeettteeeeeeeeeeeeeeeeeeeeeeeettppppppppppppppppppppppppppphpppppphppphhppteeeeeeeetttttttttppteeeeeeeeeeeeeeeeeeeeeeeeetppteeetpteeee88eeeeeeeeeee866888eet8>6eppeeeeeeeeeeeeeeeeqqqeqq6616;66;66&%$1eeeyr",
"%%&-$&6etee8665566666668>>6668eeeeeeeettttee868eeeeee88e8eeettppeeeeeeeetteeeetteettpppppppppppppppppphppppppppppppppppppppphpppeeettttttttttttttppteeeeeeeeeeeeeeeeeeeeeeeettttteeepppee888888eeeeeeee889888eeet866eppteeeeeeeeeeeeeeeq6qeeq61;;;16>66&%$1yeeyr",
"%%**$&6eeee8665566886666;>>668ee8888eeeeetteeeetepppeeee8eeetttteetttteepttttttpeetppppppppppppppppppppppphhppppppptppppppppphhhpppppppptttttttttppteeeeeeeeeeeetttttttttppptteepeetpppeee8888eeeeeeeee8888eeeee8eeeeeeteeeeeeeeeeeyyeee6qeeq61;;-166q6%$$6peepp",
"**;-$&66eee98666668866>>66666666888688eeettteetppphpteeeeetteee8etttttteppttttppetppppppppppppppeetetttehhjhhhhpppppppppppppphhkhhpppppptttttttttppteeeeeeeeeeeeppppppppppppteeepeetphpeeeeeeeeeeeeeee88eeeeeeee>eppe8eeeeeeeeeeeeyyyeee6qeeq61;;-6q6e6%$$1yeepp",
"%*&%%-6qee666688e9666666>>>66668ee88eeeeeeetetppphkpeeettttttttteetpppttttppppttuuapppppppppppppyyffffffllllllllhhhhhhhhfftyhhlxjxxlhhfttttttffhetttttteeeeeetpppppppppppptttttppeeephpteeeeeeeeeeeeeeeeeeeeeeee6ekhe668eeeeeeeeeeeeeeee888ee86>11;6616$$@6repee",
"$*-&$&6ee8666655666666656>;;;66888888eeeeeeeeeettpppeeetttttttttetpppppppppppppppuppppppppppppphttttwwwwhhffffhfhhhhhhhhhytyhhllhhhhhftttttttffhetttttteeeeeetpppphhhhpphpppppteeeethkpteeeeeeeeeeeeeeeeeeeeeeee6eppe6eeeeeeeeee8eeeeee8888ee86>;61eq66@@+6eqyej",
"$*;&$&1e666666556666665>66;;;>686666688e8eeee8eeeepteeepttttttttttpppppppppppppppppppphhhhhhhhhhhhhhhhfhllllllllhhhhhhhhytyhhhhhyytttttttttttffhttpypptteeettppppphkkkkkhkkkkppeeeephkpteeeeeeee668eeeeeeeeeeeeeeeee8etpeeeeee86888ee888e888e86>;66pe66+++6eqypk",
"%--%$&1666666666666666>>66>>>6666666666988e866688eeeeetpttttttttttppppppppppppppphpppphhpphhhhphllllllllllllllllhhhhhhhhyyfhhfttttttwttttttttffhtpyyppptttttppppppphkkkkkkkkkpppeeetpppteeeeeeee88eeeetteeetteeeee88eetpeeeeee86888ee888e8888866166ye11+++6peppj",
"<<&$$-;;;68e889986666666>66686666666666688e8666668eeetppttttttttttttttppppttttpphhhhhhhhhhhhhhhhggggggggffffffffhhhhhhhhtfhhhyttttttwttftttttyyhpppppppptttpppphppphhhkkkhppppphppeeeetpeeeeeeeeeeeeettteetttteeeeeeeeeeeeeeeeeeeeeeeeeee9998966666e6;1@$+6pjkee",
"0<$$$;;;;>8eee99e8666666>68ee86>6666666688e8666688eeetppttttttttteeeetppppteetpphhhhhfffyphhhhyyffffhhhhffffffffhhhhhhhhfhhhhytttttttttftttttyyhppppppppttttppphppppppphhppttpphhpee8eepeeeeeeeetttttttteeetteeeeeeeeee8eeeeeeeeeeeeeeeeee8889666q66;-1$$@6pkke6",
"<-%$&;;;;6eee668e88666666668866>666666668eee8688eeeeettttttttttttttettppppttttpphfffttwtffhhhfffgggggggggggggggghhhhhhhhfhffhftttttyttttttttttfhppppppppttttppphpppppppphppptpppppeeeeepeeeeeeeetttttttteeeeeeeeeeeeeeeeeeeeeeeeeeeeeeeeee6666866q6q;-6$$@6pppq6",
"%*&&&;;;;6ee865588eee66666666666666666668eee888eeeeettttttttttttpptttppppppttpphffftwwwwtffhhfffgggggggghhhhhhffhhhhhhhhhhfhffyyttfffttwttttttfhpppppppptttttpppphpppppphhpppteetteeeeeteeeeeeeeeeeetttteeeeeeeeeeee88etttteeee8eeeeeeeeee6666666q6e1;6$$@6eee6q",
"**&&-;;;>6ee6689e88eeee66666666666666688eeeeeeeetttttttttttttttteeetttppttttppphhffffffwffffffffgggggggghffgllfffffffhhhyyhhffttttttttttfyttffhhpppppppppteepppptppeetptppteeetptteeeetteeeeeeeeppppppppeeeeeeeeeeeeeetptttttttteeeteee8e8666666q6qq;1;@$$;yeqq6",
"$$$&&;;168ee6658668eeee68666666666666866eeeeeeeettttttttttttttttetttttttttpppphhlllggfffffffffffgggggggghfglllgfffytffyyyyhhffyttttttttttttttffhppppppppttetpppptppeetptppteeetpteeeeeeteeeeeeeetttttttteeeeeeeeeeeeeetttttttttteeeeee88ee866666q66616;$$$6ppre6",
"$%%&;;1668ee6656668etee6966>>66666666688888eeeetttttttttttttttttttttttteppppphphllllllllffffffffhfhhhhffggglllgfyyyyffffffhhfffftfffytttttttttyypppppppppttppppptpptetptpteeeetteeeeeeeetttttttttttttttteeeeeeeeeeeeeeetttttttttteeee888ee8868886666161$$%6kjppe",
"*-;;111166886656868eeee8966>>668666866888888eettttttttttppppppppppttteeepppphhphhgggllllffffggggffhhhhfflggllllghfffffffyffffhhhffffhyftffttyyffpppppppppppppppptpptttpttteeeeeteeeeeeeeeettppppeeeeeeeeeeeeeeeeeeeeeeeettttttttppee88eeeee866686166166&%$6kjpdy",
"<111111166666698e8668eee86666668866668ee8888eettttttttttppppppppppttteeetpppppphfffgglllllggggllffhhhhffllgllllghhhhhhhhhhffhhhhhhhhhhffhfhhfhhhpppppppphppppptepttppptpeeeeeetteeeeeeeeeeetpppheeeeeeeeeeeeeeeeeeeeeeeettttttttppteeeeeeee866666106666&&&6pppjp",
"<<;<;16666666899ee868eee68668888888888ee888eeeetttttttttpppppppptttttttettpppppphffglllllllgglllffhhhhfflggglllghhhhhhhhhhhhhhhhhhjjhhhhhhhhhhhhppppppppppppppeepeeppptpeeettttteetttteeeeetpphhtttttttteeeeeee8eeeettttttttttttppeeeeeeee88666666666qq&&&1yeyjp",
"<<;-;166e8868e99eeeeee66668eeee888888eeeeeeeeeeettttttttppppppppetttttttetpphhpphhhhhhlllhhhhhhlgggggggglgffglgghhhhhhhhhhhhhhhhhhhhhhhhhhfhhhhhpppppppppppppptepeeppptpeettppppettpptteeeetppppttttttttttteeeeeeeetppttttttttttteeeeeeeee866666q6qq6qq-&%6pyypp",
"01;;;166ee8888898eette6;66eeeee8e888eeeeeeeeeeeetttttttttttttttteeetttppeepphpppyffffhhhhhhhhhhhgggggggglgffggghhhhhhhhhlhhhhhhhhhhhhffffffhhhhhppppppppeetppppepeephptpettpppppttppppttetttttttppppppppppptteeeeetppppttttttttteeee888ee8666666e6eq6qq-%%6ppppy",
"0<--;16qeeeeee99eeeeeeee8888eeee888eeeeeeeeeeeeepppptttteeeeeeeeppttttpptppptephhfffhhhhffffggglggggghfhgggggggggghhffgggllllllglllghhfffffffffhppppyyptppppppteppppppppeetpppppppppppteppeeeepppppppppppppppeeeeetpppppttttetppee8eeee68666666688668e6&$%>eptep",
"01-&-1qeeeeeee99eeeeeeeeeeeeeeeee88eeeeeeeeeeeeepttttttteeeeeeeeppttttppetppppppfffffhhhggggggggllllllllggggggggggghfggggllllllglllghhffffffffffhppteeqqpttpppptppppppppeetpppppppphppptteeeeeetppppppppetttttteeetppppppppttpppee8eeee68666666666666e6=$&>tpttp",
"q1&&&1qeeeeeee99eeeeettteeeee888eeeeeeeeeeeeeeeeeeettttteeeeeeeeppttttppeeeppppptfhfffhlllllggggllllllllggggggggllggggllgllllllglllghhffffffffffffyttttwttttyhhytppppppteetppppptpppppppteeeeeetppphppppttteeettptttttpptteettppee8eeee68866666>6666686=$&6tpppp",
"0<-&;1qeeeeeeeeeeeeeettteeeeeeeeeeeeeeettttttttteeeeetttttttttttttpppptteeephkppwflhffhllllllgggfhfffffggggggggglllgglllgllllllglllhhhffffffffffffyhhhhhfttttyyfpppppppptpppppptepppppppppppppppppphppppppteeeeeppteetppeeeeeeeeeeeeeee8688866>;>666666;%&6tpppp",
"<<;-;66qtttttttteeeeeeeeeeeeeeeeeeeeeetttttttttteeeeetttttttttttttpppptttetpkkhpwfllffgllllllgggfffffffggggggggglllgglllgllllllglllghhffffffffffhhhhhlxlhhyttttfpphkhppppppppteeeettpppppphhhhppppphppppppteeeeeppteetppee8eeeeeeeeeeee8698866>;>666666;%&6tppph",
"---;6666tttttttteeeeeeeeeeeeeeeeeeeeeetttttttttteeetttttttttttttetpppptettpphhppffllggllllllggggfffgglllggggggggllggggllgllllllglllghhffffffffffhhhhhhhhhhhhtttfpkhkhhhpkhppteeettttttppppppppppppppppppeeeeetppptttttppteetpppteeeeeeee8966666>6666666;&&6tppph",
",---166qtttttttteeeeeeeeeeeeeeeeeeeeeettttttttttptttttttttttttttetppppteetppppppffglllggggggggggffffglllgggggggggggffggggllllllglllghhffffffffffhhhhffffyfhhfffhppkkhhppkppeeepppppppppppppppppppppppppp68eetpppeetpppppptepphpeeeteteee866666666886666;&&>tppph",
"<---;6qeeeeeeeeettteeeeeeeeeeeeeeeeeeetpeeeeeeeeppppttttppppppppetppppteetpteetpfffgllhfffffggglffffffggggggggggggffffgggllllllglllghhffffffffffyhfhhhhhtyhhhfhhppphhpppkpteetpkhppppppppppppppppppppppp8eeetteeeetppppppeetpppeeettteee866666666ee6666;%&5tppph",
"<,--;16qttteeeetetttttteeeeeeeeeeeeeeeeeettppppppphhptttppppppppppptttttteeeeeetlfffhlftfglghllfgghhghhhggggggggggffffggggggggggggggggggfffffffffffftttfffgfffhhhhhpppppppeeeeppppppppkkhhppppppppppppteeeeeeeee8etpppkkhpeepppepteetteete96666886ee688=$&>tpppp",
"<,--;16qettteeeteetttteeeeeeeeeeeeeeeeeeeetpppptpppppttttttttppptpppppteeee88eetgfffhhfttglghllfhhhhghghggggggggggffffggggggggggggggggggffffffffffffttfffggghfhhhppptetppteeeetpphkkkppehhppppppppppppppppteee88eetppppkhpttpppeppttppteee86668ee6e8668;&;6phphk",
"<,--;66qetppte99eeeeeeeeeeeeeeee888eeeeeeeetttttppppteeteeeeettpeephhpteeee88eetfffffffffglgfllffffhglllgggggggggghffhggggggggggggggggggfffffffffffffffhfgllghglhphptetpttteetttphkkkppehhppppppppppppppppptee88eetttpppppppppteeeeeeee8896666eee686;68;&&>eptph",
"<,--;66qeeppte99eeeeeeeeeeeeeeee668888eeeeettttetpppeeeteeeeeeeteepppppeteeeeeettfffttfhfglgfllhfffhglllgggggggggghhhhgggggggggggggggggghhhfhhhhffffffhhglllggllhkkhppppppppppppppppppkkhhppppppkkhpppptppptttteeetttetpppppppe8ee88ee86666668eee686;68;$%=688ep",
"<<;;;66qeepppe99eeeeeeeeeeeeeeee668888eeeeettttettpteeeteeeeeeeetttttpppppteeeeewfhfttfgfglhfllhfffhglllgggggggggggfhgggggggggggggggggggfffhhhhhffffffhlgllllhllhkkhppppppphhpppppppppkkhhppppppppppppppttppppppetpteetppphhppeeteeeeeee666668eee686;68;&&;8eeep",
"<<;;;66qeepppe99eeeeeeeeeeeeeeee888eeeeeeeetttttttpteetpppteeeeepteeeepppppptttttfhfftfffglhfllfffffglllggggggggggggggggggggggggggggggggggggggggffgfffhlglllghllhhppptppppppppppppkkkppekhppppppeetpphkkppppptttttpptetpppppppeeteeeeeee6666688ee6e8>6e;&&>eteth",
"<<;;;66qeeppte99eeeeeeeeeeeeeeeeeeeeeeeeeetppppttppteetphppteeeepte88eetpptttpppffhffffffglgfllfhhffgggggggggggggggllggggggggggggggggggggggggggggggghffhglllgggjhhhpptppppppppppphkkkpptkkppppppeettppkkppppteeetpppttpppppppttteeeeeee888866666e8ee68e;%&>etetp",
"<;;;;66qetppee99eeeeeeeeeeeeeeeeeeeeeeeeettppppptppteeppkhppteeetee88eeeeeettppphhhffffffglgfllfgggggfffgggggggggggllgggggggggggghghgggggggggggggllhhfhhggllgfhjkkkhppphpppppppphhppppkkkkpppppppppppppppppptttetpppppppppppttppppttppteee886666e8ee6ee;&&6tpttp",
";;;;;;6eeetppteeeeeeeeeeeeeeeeeeeeteeeetppptttttetteeeetphhpetteptteeee8>6epppppkhhhhhhhggggggggggggggggllllgggfhhhhhhhhlhhhhhllhhhhhhhhfhhhhlllxxxlhhffhllhhhhhpppppppppppppptthpphhhhkpphhhppphkkhppppppppppppttteetttppppppttetttteee86666666886t86e;%&6tpptp",
";=-;;;6eeetppteeeeeeeeeeeeeeeeeeetteeeetpppteettetteeeetphptetteeeeeeeee68eppppppppyyyyhggggggggggggggggllllgggghhhhhhhhhhhhxxhfhpppphhhhhhhffhghhhhhhhhhllhhhhhpppppppppppppppppppppphhpphphpppphhppttpppttttttpttttttppppppptteettteeeee88ee86886t8>e;&&6tpppp",
"=&->6>6eeetttteeeeeeee88eeeeeeeettpteeeeppteeeetetteeeettppeetteeeeeeeeeeeppppptttttyyttgggggggggggggggglllllggghhhhhhhhhfflxxhtpppppphhhhhhfwtftyhhhlllhhhhhpphppppppppppppppppppppppppppppppptppppteeeeeeeeeetppppppppttpptteeeeettteeteeeeeee6e8p6;e>==6eppph",
"&&;1666eeetttteeeeetee868eeetttetppteeeeppteeeetetteeeeteppeettteeeeeettpppppppteetyfyttgggggggggggggggglllllggghhhhhhhhhfflccjthhhhhhhhhhhffwwwttphhljlhhhhhpphpppppppppppphhppppppppppppppppptppppteeeeeeeeettppppppppttttteeeeeeettttpteettee6eep6;e6;;>epppk",
"&&;6666eeeetteeeeettee86eeeeetttttttteeepteeeeetetteeeeteppeettteeettpppppppppptetppffffgggggggggggggggggggggggghhhhhhhhhffhxxxhkkxxxkhtfhhhfwffpppphhhhhhhppppppppppppppppppppphpppppppppppppptppppptteeeeeetppppppppppeetteeeeeeeeetttpteettee6eep6;e6;=;eppph",
"&&;6666eeeeeeeeeeeeteee8eeeeeeeteeeetee8eeeeeeetetteeeettppeetteeeetpppphppppppppppphhffgggggggggggggggghhhhffgghhhhhhhhlhhhhlllkkxbxkhtffffffffppphhhpphhhppppppppppppppppppppppppppppphpppppptpptpppptppptppppppppppppetttteeeeeeeeettteeeeeee6e8p6;e>=&;8pppp",
"==;>6>6eteeeeeeteeeeeeeeeee88eeteeeetee668eeeeeeetteeeetphptetteeettpppppppppppphhpphhhhggggggggggggggggffffffffhhhhhhhhhjhhfffhhphhppyttfhyftfhhssssssshkkhpppppppppppppppppppppppppppphhpphpptptetpppppppppppptpppppptttttteeetteeeeetteeeeeee886t8>e;&&&6tptt",
";=;>>;6eteeeeeeteeeeeeeete8668ete88etee666eettteetteeeetphhpetteeetttpppppptppphkhppffhhggggggggggggggggffffffffhhhhhhhhhlxhtwwtteeeeetytyyytttfhskkkssshkkhppppppppppppppppppttppppphhphhppppptteeepppppppppppptppppppttttttteepteeeeeeteeeeeee886t86e;&%&6tpee",
"&=;;6668teeeppeep6epetp6eee66eeeeeeeeeee68eeeeeeeetteeppppttteeeeeeeeeeeetpppphkkkhphhhhlhhhhhglfhhhffffffhhffhlhhhjjjhhxxxjft83e888etyyhhffffffhsssssssskkspppppppppppppppteeeeppppppppkhppppphettppppppppppppppppppppptttttttteeeeeeeeeeeeeeee8e8ep6;>&$%6teet",
"&&;;6688teeetpeepetppppeteeeeeeteeeeeeee88eeeeeeeeeeeeepttttttteeeeeeeeeetppppphpppphhhhhhhhfhllllllllllfhhffflxvxhhjhfwttttwwwwee8eepyyhhffffffppppppsspsssppppppppppppppteeeetppppppppppttttppppppppppttttttttpppppppptttttttteeeeeeeeppte88668e6ep6;>&$%6eeet",
"&&;;66eeeeeeeteeeptphpettttttttteeeeeeeeeeeeeeeeeeeeeeeeetttttttteeeeeetetppptppetpphhhyfffffgllllxxllllffhfffllnxffhht>331138tt88etypfyhhhffffhpppppppppphpppphpptttttteeeeetppppppppppteeeeeeepppppptteeeeeeeetttttttttttttttteeeeeeeekppe66668e68t6=;;$%>eeep",
"&&=;68eeeeeeeeeeehtekp8peetppteeeeeeeeeeeeeeeeeeeeeeeeeeeeetttppttteetttetppptppttpphfftfffffgllllllllllffhhffffhfwwtt838388888w668pphhhhhfhffffypptppppppppppphpppttteeettppppphpppppppptteetttppppppttttttttttteeeeeeettttttttttttttttppee888e8e68t6=;;%$;eeep",
"&&=;68eeeeeeeeee8peept6peeetteeeeeeeeeeeeeeeeeeeeeeeeeeeeeetttppttttttpptppppppppytttttfffffhhhhffffhhhhffhhhfww8qq8888888888881>>6pkphhfhhhffffffffhhffpphhyyyhppppptttppppphhhphpptppppttttttpppppppppppppppppttttttttttttttttttttttttteee8eeeee8et6=;>&$;88et",
"&&;;66eeeeee88eeete8ee8teeeeeeeeeeeeeeeeeeeeeeeeetteeeetetttttttttpppppptpppppphhpyttttyffffffffffffhhhhfffhffw38qwq338w88qwt8886>8pkphhfhhhfffffffffhffpphhttyyppppppttpppppppppppttttpeeeeeeeeeettttppttttttttpppppppptttttttttttttttteeeeeeeeeeeep6=;>&&;868e",
"&&;;6688eee866eeteee66tteeeeeeeeeeeeeeeeeeeeeettttteeeeetttttttetppppppptpppphhkpppyyyhhfffffttwfffffffffftffffwwttwwwtttttttttte8ekxpthffhhffffffhhfhffyhhytttttttttttttppppteeeetttttteeeeeeeeeeeeeettttttttttpppppppptttttttttttttttteeeeeeeeeteep6;;;&&;866e",
"&=;;6668eee866eep6ee;6pteeeeeeeeeeeeeeeeeeeeeetpetteeeeeppttteeetppppppteppppphktpphhhhhhhhhftw8ftftttttftwtthhhttttfhhhljhfhhhhpetkxpthffhhhhfhhhhhhhhhyhhytttteeeeettteeeeee86eeettteetteeeetteeeeeeeeppppppppppppppppttttttttpppppppp66eettteepeep8;>;&%;8668",
"*&-;6qqq88888888eeeeeeeeeetttee8eeeeeeeeeeeetttteeeeeettppppppppppppppppppppppppphhkhppppphphphphphphphphpyphphpppppppppppppppppppppppppppppppypppppppptetteeeeeeeeeeeeeeeeeeeee68eetteeeetteeeteeeeeeeeettpptteetppeeeeteeeeeetppptteee8888eeeeyeeeeq;&&%&;68qe",
"**-;6qqq88888888ee9eeeeeeetttee8eeeeeeeeeeettttteeeeeettppppppppppppppppppppppppphphhpppppppppppppppppppppppppppppppppppppppppppppppppppppppppppptetppteeeteeeeeeeeeeeeeeeeeeeee88eeeeeeeeeteeeteeeeeeeeettpptteetppteeeteeeeeeteeeeee888888eeeeyeeeeq;&&%&;6qqe",
"**-;6qqq88888888ee99eeeeeetteee8eeeeeeeeeeettttteeeeeettppppppppppppppppppppppppppppppppppppppppppppppppppppppppttttttttpppppppppppppppppppppptteeeeeteeeeeee8eeeeeeeeeeeeeeeeeeee8888666eeeeeeteeeeeteeetttttteeeppteeeteeeeeeteeee86668888eeeeeeeee6;&%$&;666e",
"**-;6qqq88888888eee9eeeeeeeeeeeeeeeeeeeeeettttteeeeeeettpppppppppppppppppppppppppppppppppppppppppppppppppppphhpptyttttttttttttttpppppppppppppteeeeeeeeeeeeee868eeeeee88888888888ee86666668eeeetpeeeeeeeetttttttteetpteeeteeeeeeteeeeeee88888eeeeeeeee6-%$$$;666q",
"**-;6qqq88888888eeeeeeeeeeeeeeeeeeeeeeeetttpttteeeeeeettppppppppppppppppppppppppppppppppppppppppppppppppppppppppttttttttppppppppttttttttppptteeeee8eeeee8ee86668eeee988888888988e866666668eeeetpeeeeteeetttttttteeettteeteeeeeettteeeeee8888eeeeetetq1&$$$$-166q",
"**-;6qqq88888888eeeeeeeeeeeeeeeeeeeeeeeetpppptteeeeeeettpppppppppppppppppppppppppppttppppppppppppppppppppppppppppppppppptttttttttttttttttttteee8e888eeee68866666e899888666668866888666666eeeeeeteeeeeeeettteetttteeeetttteeeeeeteeeeeee88888eeeeetytq;&$$@$&;166",
"**-;6qqq88888888eeeeeeeeeeeeeeeeeeeeeeeeppppptteeeeeeettppppppppppppppppppppppppppptttpppppppppppppppppppppppppptttttttteeeeeeeeeeeeeeeettteee866666eeee66666>666666886866668866668eee88eeeteeeteeteeeeeptteettppee8etppteeeeeeteeeeee888888eeeeeeye6;%$@@$&;;16",
"**-;6qqq88888888eeeeeeeeeeeeeeeeeeeeeeeeppppptteeeeeeettpppppppppppppppppppppppppppeetpppppppppppppppppppppppppptttttttteeeeeeeeeeeeeeeetteeee86666668886666>>666666666666668866668eeeeeeetteeeteeteeeeeptteettppe86etppteeeeeetttteeeee8888eeeeerye6;$$@@@&;;16",
"%-;;;166668eet998eeeeeeeeeeeeeeeeeeeeettpteeppteteeeepptttppppppppptetpppppppteettttppppppppppppppppppppttetpptepppteeeeeee88eeee66eee8e8866666666668866666666668>6ete66666666686666>66e8eeeeee8eeee88eteete668epppteeeeeeeeetpppeeeeepptpppteeeeq1-=-=%$+$;;6eq",
"-%&60-;y888eeee98eeeeeeeeeeeeeeeeteeeettpteetpeeteeeepptttppppppppttetpppppppteettttppppppppppppttttttttteetpptettteeeeeeeeeeeeee66eee8e866666666>66886666666666866eee66666>>>66>666668e89eeee88eee868eteeee66eepptteeeeteeeeettpteeeeeeeeeeeeeeeq1-&-&$@+$;16eq",
"*%&6q<6peeeeee988eeeeeeeeeeeeeeeeeeeeettpteetteeteeeetttettpppppppteetppppppppttttpptpppppppppppttttttttteeetteeeeee888eeeeeeeee866ete886666666>5>>6666666666666666ee86666>;;;;;;;66668e888ee899eee866eeeeee66eeppteeeeeeeeeeeeeteeee8666666688ee61--;&$@+$166q6",
"$*;-;eeqppee88658eeeeeeeeeeeeeeeeeeeeepptteeeeeeeeeeetteeetpppptptteettppppppptteetetppppppptppptttttttteeeetteeeee86668eee88eee866ee86866666>>>>;;>6666666666666666666686>;;;;;;;66666668889996eee666eeeeee88eepteeeeeeeeeeeeeeeeeee666666666eeq6;&-;&$@+%666q6",
"$*-&;ey6pte888868eeeeeeetttttttteeeeeettttteeeeeeetteeeeeeetttttttteetttpphhpptteeeeetpppttttttpeeeeeeeeeeeeeeee8886666688666699666ee8666666>>>;;;;;666666666666666>>666666>;>66;668666666699866ee86668e8eeeeeeetteeeeeeeeeeee8868eee866666668eeq6;&;;&$++&66666",
"%$$;666ee868eeee8eeeeeeetttttttteeeeeettetteeeeeetpteeeeeeeetteeeeetteeepppppptteeeeettpttteettteeeeeeeeeeeeeeee68866>66666666886668e6666665>;;;;;;;;66>66666666666;;>666666666666ee666>666666668886668e888eeeeeteeeeeee88eee88668eeee866666688e66;&;;&$++&66166",
"%$$;06qe666eete98eeeeeeetttttttteeeeeetteeteeeeeetppeeeeeeeeeeeeeeetteeepppppteeeeeeeetptteeeetteeeeeeeeeeeeeee868666>66666668886>>8e666666>>;;;;;;;;>>>66666666686;;5666688986668ee6666666668668866666e668eeeeeeeeee88e668888868eeeeee88988866661-&;;&$++&61166",
"$-;&;pp6eeeeee968eeeeeeeppppppppeeeeeetteetteeeeetppeeeeeeeeeeeeeeetteeepppppteeeeeeeettteeeeeeteeeeeeeeeeeeeee868666>66886666996>>6e66666>>;;;;;;=;;>>>666666666ee>;66668eee8668eee6666666666666866666e668eetteeeee888866688886eeeeeee88eee866661-&;1&$++&61;66",
"-*&&6eyy888eee8588eettttettppttettttttttteeeetteeeeeeeeettteeeeeeeettteeeeeeeeeeetppppteeeeeeeeteee886668888888866qq666666qeeeq6666666666;;;;1;;1;&-;66;661;;166ee86>>68888866666688866666e86;;;566666886668eett8668ee866666888868eeee8668e866>>;;;;;;&$@@&6>>66",
"**&;6eyyeeeett9868eetteettttttttttttttttteeeetteeeeeeeeeeeeeeeeeptteeeeeeeeeeeeeeetppieeeeeeeeeeeee8886688888888660q666666qeeeqq6666666666;;161;6;;;6666666666666666>>6688886666>66666>>>6866>>>5666666866888eee66668866>666666668eeee8668e866>>;;;;;;&$@@&6>;66",
"**&;qeeeeeeett9968eetteettteetttttttttttteeeetteeeeeteeeeeeeeeeepteeeeeeeeeeeeeeeeeeteeeeeeeeeee888888888888888866qq60666qqqqqee66666q66661;111;6;;;666666qeeq66;;66>;>>66666666;;;;;;;;;6666>>>56666688666666886666666>;>66666668eeee8668e966>>;;;=;;&$++&6;;6>",
"**;6eeeeeeeeee99eeeeeettptteettpttttttttteeeetteeeeeteeeeeeettttteeeeeeteeeeeeee88eeee9888eeeeee888888888888888866qq0066eqq66qee666666qq61;;;;;;1;;;666666qeeq66;>>>;;;>6666666>;;;;;;>666666>>>>6666688>>6666666>>>66>;;;>66666668ee86666666;;;;;;=;;&$++&6;;>;",
"*-;6eeeeeeeeee99teeeeeppttteetttttttttttteeeetteteeeeeeeettttppptee888eeeeeeeeee66899966eeeeeeee8888888888888888eeeeeeeeeeq66qee666666qq6661;;;;1116666666qqqq66666;;;>6666666>;>;;;;>6666666>;;>66686686666>>>>;>;;>>;;;>66666668998866>666>;;;&==&=;&$++%>;;>;",
"*-1qeeeeeeteeeettee88etpettttttettttttttteeeetteteeeeeeettttttppppee866688eeee8866668866eeee88668888888888888888eeeeeeeeeeq666qeq666666666661;16666qqeqqq666666qe86;;;>666666>;;>>;;>68ee86666>;>66666888666;;==;;;;>>;;;>>6666668686666>666;;;;&=&&=;&$++%;;;>>",
"-<6qeeee8eee8899eeeeeeeeeeppppeettttttttteeeetteeeeeeeeeteeeeeeeeeee8866888ee88866666666888888eeeee8886688888888eeeeeeeeeeqqqqee666666666666;;;11666qqqq666666666666>>6666666>;;;;;>668ee866866>>6666666666>;;;;;;;;;;;;;;;>666666666666>666>;;;=;=&&=%@++$;==66",
"-<6qeeee66666>58668eee86eeppppeettttttttteeeetteeeeeeeeeeeeeeeee666eeeee8888888866666666;>66eetpeee8866688888888eeeeeeeeeeeqqeqq6q666666;11;-&-;;;66666666666666>66666666666>>;;;;;>6668e6668986>6666666;;;;>>56;;;;;;;;;;;;>>>>6666666666686;;;;;;&&&$@@+$;&=66",
"-1qeeeq686eeee8666eeeeee8etpppeeettttttettteeeeeettteeeeeeeeee8868eeeeeeeeeee86666666666>>>66eetee8888886688eeeeqqeeeeqqeq66066666666666;161;;;;;;1666666666666666>6666>;;>66>;;;;;;;>66ee866686>6666668>;;;;;;>;;;;;;;=;;;;;;;;;;;>>66666666;;;;&&&=&#+@@$%=;>;",
"-<6eeqq6eeeeee8666eeeeeeeetppteeettttttettttteeepppteeeeeeeeeee888eeeeeeeeeee8668666666666666eeeeee888666688eeeeqqeeeeqqeq66666666666666;666;;;;;16666666666666666>6666>;;>66>;;;;;;;566ee86666666666666;;;;;;;;;;;;;>;;=;;>>;;;;;;;;>>6>>>>>;;;;=&==&$++@$%&=;;",
"*<6qeeqqtittee8666eeeeeeeeetttteettttttetttttttpppppeeeeeeeeeeee8eeeeeeeeeeee8666666666666668eeeeee886666688eeeeeeeeeeeeeq6666666666666616661;;;166666666666666666>6666>;;>66>;;;;;;;668ee866666666>;;;;;;;;;;;;;;;;>>;;=;;;;;;===;;;>>6;;;;;;;;;;=;=&$@+@$%&&&;",
"*-6qeeqqeeeeee8666eeeeeeeeeeeettettttttettttppppppppteeeeeetteeeeeeeeeeeeeeee8668666666866888eeeeeee86666688eeeeeeeeeeeeeq6666666666666666661;;1666666616666666666>6666>;;>66>;;;;;;>668ee88666666>;;=&&;;--;;;;6>>>66>;;;;;;;===;;;>66666>>>>>>>;;;=&#@+@$&&%&;",
"*-66qqqq6666666668eeeeeeeeeeeetpettttttettttppppppppteeeeetttteeeeeeeeeeeeeee8688666666888988888eeee86666688eeeeeeeyyeeeeeq066666666666666666111666666616666666666>6666>;;>66>;;;;;;>668ee88666666>;=&&&;---;;;;6666666>>;;&&=;;;;>66688886666>>66>;&%@@@@$=;&&;",
"*-16666q6666665568ee8eeeeeeeeettettttttetttttttpppppeeeeeeetttteteeeeeeeeeeee8688666666868988866eee896666688eeeeeeeeeeeeeeqq66666666666666666111166666666666666666>6666>;;>66>;;;;;;;66888e886666>;;=&&&;---;;;;666666666;;&&=;>>>6668eeeeee866>665;&$#@@@$;;==;",
"*-1666666666665668ee8eeeeeeettttettttttettttteeetppteeeeeeeetteetteeeeeeeeeee8886666666666688866eee899666688eeeeqeeeeeeqee6666666666666666666111;16666666666666666>6666>;;>65>;;;;;;;66688ee8666;;;;=&&&;;--;;;;6>>6666;;;;;;;;;>>6666688eeee866;;;;&%$$@+@&>;&;",
"*<166666eee9886668ee88eeeeetttteettttttettteeeeeettteeeeeeeeeetepteeeeeeeeeee8666666666666688666ee8888886688eeee66qqqq66ee6666666666666666666111;;166666qq66666666>6666>;;>66>;;;;;;;>6688ee8666;;;;=&&&;;;-;;;;;;;;>>;;=;;>>>;;;>>>666668eeee66&=;=&%$$@++&>;&&",
"&-166666eeeq6666qeeeqqeeteeeeeeettppppppttppppttttteeeeeeeeeeeeeeeeeeeeeeeeeeee86666666>6666666688888888668eee8666888eeeeeee8886666866666666666655>666666666666666>;;>666666>>>666116666666661;;;;;-----;;;;;;;;>>666>>>;;>;;;66;1666666qeeeee00;-;1&%%$++@&;;;-",
"&-166666eeeq666qqqeeqqeeeeeeeeeettpppppttttttttttteeeeeeeeeeeeeeeeeeeeeeeeeeeeeee86666668888888888888888668eee8666666666eeee86666666666666666666>>6666666666666666>;;;6666666666661166616611;;--;;;----;;;;;;;;;;>>>6>>>;;>>;>6616666660eeeeeeq06;11&$$@++@%---;",
"&-166666eeeq666q0qqqqeeyeeeeeeeeetpppptettttttttteeeeeeeeeeeeeeeeeeeeeeeeeeeeeeeeeeeeee88888888888888888668eee8666666666888866666666668e66666666666666666666866666>;;;6666666666q66111;;;;;;--&&;----;;;;;;;;;;;;;;>>6>>;;>>>>66666qqqqqeereeeeqe11;&%$+XO@$&&&;",
"%&;6qqqqeeee666q00qqqeeyeeeeetttetppppeettteettttteeeeeeeeeeeeeteeeeeeeeeee8eeetpeeeeeee88888888eeeeeeee6688e8888888888866886666686666ee66>>>>66666666666666886666>;;>6666666666q661;;;;&&-----------;;;;;;;;;;;;;;>>666;>6>>>6666qeeeeeeereeeeee;;;&&%+XX@%&$&-",
"$&;68qqqeeeq060q00qqqeeyeeeeettttpppppeeptteettptttteeeeeeeeeetteeeeeeeeeee8eetppeeeeeeeeeeeeeee88888888688eeeeeeeeeeeee66688866866668ee66>;;>66666666666666886666666666>>666666q61;;;;-&&-;;;;;&&&--;;;;;;;;;;;;;;>6666>>666668qeeeeeeeereeeeeee;;;&&$+.X@&&%&&",
"$&;68qqeeeeq66660qqqqeeyeeeetttippppppptppttttpppppptttteeteeeeeeeeeeeeeeeeeeetpteeeeeeeeeeeeeee66666666eeeeeeeeeeeeee886668866688668eee666666668866866666666866;>6666>>>>66666566;;;;;;-;;;;111-&--*;;;;;;;;;;;;;>66666>6666668eeeeeyyeerreeeeey666&$$+XX@%&&&&",
"$%;166qqqqq66666qqeeqqeeeeeettiipppppppppppttpppppppppppeeeeeeeeeeeeeeee88eeeettteeeeeeeeeeeeeee66666666eeeeeeeeeeeee88866888886888eeeee888888888889886666666666;>6666>>666666651;;;;;;;;;;;;;;;----*-;;11111111>66666666666666eeeeeyyyyereeeeeet6eq;%$+OX+$&&&&",
"$$-166qq6qq66166qqeeqqeeeeeettiipppppphkpppttpppppppppppeeeeeeeeeeeeeeee68eeetttpeeeeeeeeeeeeeeeeeeeeeeeeeeeeetteeeeeeee688eee88eeeeee88eeeeeeeee889886666666666;;;;;;;;66686665;;;;;;;;;;;;;-&&----*-;;11116666666666666666668eeeeeyyyyrreeeeeeq6ee;&%@+OO@$&&-",
"$$-16666q6666;6eqqqqqqqqeeeettttppppppppppppppppppppppppteeeetpptttteeeeeeetteeeeeeeeeeeeeeeeeeetttttttteeeeeeeeteeeeeeeeeeeeeeeee88ee888888888866666666886666666666>>>>;>6666>>;;;;;;;;;;61;&&&&&&-;;;;;;;11666e66668666666>6etqeeyppyyreeee66qqqqq6;$@$X+@O@;-",
"@$&;6666q666616eqqqqqqqqeeeeeetipppppppppppppppppppppppppptttpppttttteeeeeeeeeeeeeeeteeeeeeeeeeeppppppppeeeeeeeepteeeeeeeeeeeeeeeeeeee86eeeeeeeeeeee86666666666666>>>>;;>>6>>;;;;;;;;;;11661;&&&&&&-;;;;16666666e866866>;68888eeerypppyeyeeee66666666;&$$+@$+@-&",
"+@$;66eq6666616eqqeeeeeeeeeeeeeetttttpppppppppppppppteetpppptppptttttteetteeeetteeteteeeeeeeeeeeppppppppttttttttppteeeeeeeeeeeeeeeeeee66eeeeeeeeeeeee86666>66666>>>>;;;;>>;;;;;;611;;;;;;;;-;;-&&&--;;;;6666666q8668e866>6688eetypppppyeyeeye66661161;-&%@$$@@&&",
"O+$-6qee6666666qqqqqqqqq888eee9eeeeeetttpppppppptppteeeeppttteeetttpppttpteeeetpeeeeteeettttttttttttttppttttttttpppteeeeeeeeeeeeeette86688888888688eeee86>>>6666>>;;;;;;;;;;;;666661;;;;&&$%&;;;---;;;;;11166666666eee88666668epyppppppyreeyr611661;;;-&&%&&$$%&",
"+@$;6qqe66q66666qqqqqqqq86668e99eeeeeeeeppppppppppppteetppppptttttpppppppteeeetpeeeeeeeettttttttttttttpppppppppppppptttttteeeeeeetpte88888888888668888886>>>6666>>;;;;;;;=&&=;>661;;;;;;&%$$&;;;--;;;;1;1666666q68eee888888eeeeeeeyyppppeeeee6;161;;;;;;;-&&&%$&",
"@$&;6qq660e666660066666666666899eeeeeeeepppppppphkkhppppphhhhppppppppppttteeeetteeeeeeeettttttttpppppppppppppppppppttppppttteeeeeppte8eeeeeeeeeeeeee866666>66666>>>>;;;;;=&&&&&=---;;;16;;&&--;;;;;;;166666qqeeeetee86666epkkhe6eeeeeyppeqqe01;1;;;;-;16;;&&1;&;",
"@$&;666616e666660066666666666699eeetpttettpppppphkkkhphkphkkkkkhpppppppteeeeeeeeeeeeeeeettttttttppppppppppppppppttttppppppptteeetppee8eptttttttteeeee8666666666666>>>>;;;;=&&&&&&&&&-;;>;;;;-;;;;;;;6666666qqeeettee668eeephkpe6eeeeeeeee6666;;6-;;;-;161;$%06&;",
"@$&;66661qe66666116666666666668eeeetppteeetppppppphhppphpphhkkhhpppppptteeetteeeeeeeeeeeppppppppppppppppppppppppeeetppppppptteeetppe88epeeeeeeee8eeeeeee866666666666>>>>;;;;;;;;--&&&&&&&;;;--;1;;;166qe66666qqqeee868eppteeeeeeeeeqqqqee6161;;6;;;;--;11;$$eq-1",
"+@&;666q6qq66q6;6666666666666eeeeeeetpppetpppppptttpppppppppphppppppppppeeetttpptttttttteeeeeeeehhppppppptttpppteeeeppphteeeeeeettttpte8ttteeeee8eeetttteee8e866;>666>;;>;;;;;;;1>-==-:->>>>>>>>611116666666666666e666eppptteeeeqqqqqqqq6611;1661;--;;;;1;%&qy66",
"@$&-;66q6q666qq6666666666611666q88eeeeeepppppppphhhhppppppppphppeetppteetttppttttttttttttttttteeppppppppppppppptptteeeetpppptteeeeeetteeeeeeee88eeeeeeeeee88ee86>6666666;;;;;;;;>-===---11111111111666qqeeqq6qqqeeee88epeeeeeeeeqeeeq661661;;;;;;;;;&&;;&-%&6q6q",
"+@%-;66q6q6116666666qq66666606qqeeeeeettppppppppppppppttppttppppeepppptetpppppttppppppppppttteeetpppppphhppppppeppteeeee8eetppppeeetpppteeeeeeeeeeeeeee866668e8866666666666666661>>>>13311113333;;;166ee6611;;;16666666688eeettpeeeeq6;-11;;;;;;;;1;&&&;&;;;qeep",
"X+%;66666qq6611166666qq6666qqq66888eeettttttpppppptttteeppttpppptpphppteetpppppppppppppptttttteeppppppppppppppptpttttttteetpppppe8eetpptptteeeeeeeeee86666666888666>;;>>>6666666q8113qqq88888888;;1166qeeeq666666666eee88eeetpppeeeq61;-;;;;;;;1;;;;-&&--1;;eppk",
"+#%&;;;;16qeq6666;;;16616666666666668eeteettpppppppphhhhkkpppppppteeeeeeeetppppphhhhhhhhpppppppphhhphpppppppppppppppppppkkkhpte88888eeeeeee86666666666666666eeeeee666666>>666666q666166600066666666666qqeq61;;--;;;>6666eeeetpppyeq61;1161;;;;;;;;-;11;&&&%&qeee",
"&%$$$$&--;6qq6epq6166eeqeeeeeqqq6668eepptteetpppppppppppkkhkkkhppppeeeeteeetpppppppppppppppppppphhpppptepttppppppppttttteettteeepteetpteteee8666886688eeeeeeeteeeeee8888886668eeeq66666600066666eeeqq66q666;*&%%&&&=;;;>eeeeeeeeeq6;;;16q61;;-&&;-&;66;&$&$%6e66",
"$$$@@@$$&&&;;;6yeq66eyeeyeeqqqqqeeeeeeppeee8888866688888eetphkpppppppppppteeetppppppppppppppteeeppteeeeee98eeeeeeeeeeeee666eeetppppppppppptteeeeeeeeeeeeeeeeeee8688eeeeetee88eeeee00eeeq66666666qq666666ee661;;;;>6>;;686666668866;;-;;166;;-&&&;--;61;&%-&&666q",
"+@$$$@@+%$$$$$&6q6;;6eq6661;;;;;666>6666866>;;;;666>>;;;;>6eppteeetppppphppeeetppppppppptpte8666eeee8888665>666>;>668etphppptttteeeeettteeeeeeee66666666e866666>;;66eeeee86>>66866666q666666666611;;;;;;&&&%$$$$$&&$#@$&;;;;>66661;;---;;;----;;;;;;;;&%$;;;61;e",
"=$@$$@$&@$$$$$&--;;;;;;;;;&&&-;;;;;==;;;>;;;;;;;;;>>;>666>>68e6>;>66886666eettttettppteeteee866666666666;;;;;;;;=;68ee86eeeee666;;>6666666>68e86>;;;;;;>6>;>6866666>>>>>66;;=;;>;;;;;;;;;;;;;;;;&&&&&%%%;-&&&%%%$&%$#%=;==;;;;;;61;;;;;;;-;11;-;6;66&&;-&&&&-;1;",
"&%%&&%&;&--&&&&&&-;;;;--;-;;;;;;;;;;;>66;;;;>666886688ee88866>;;;;>6666>66688eeeeeettttteee888ee8888866666666>>>e866>;;=&=====;;;;;;>>>>>;;;>6>>>>>;;;;;==;;68ee>>>;;;;;6>;;;;;>;;;;;;;;<<<<11<<;;--&&&&&&&&%%%%%%$$$%%#;;;;;;;;;;1666111;;1;;-;;-;1&&;&;&$$&;1;",
"$&;;;66166611;-&;16q061166eeyreeeeeeepphpteeppppppppppppphhpe68eee86666666666668eeeeeettee86eepk88866666tte86666e86>;;66>>>>>68e6668eeee88e86666eettteeeeeeee8ee888eeeeeeeeeeeeeeeeettttyyyyyyyyeeeeeeqqpyyyyyyyiteeee6&=====;;;;;6qeq6661;61;;11;66;;1-1&$$&;1;",
"$>6;;ee66666qe6;6qeeeeeeeyjkzkkkhhhkkxbbbbxxxxkkkkhhhkkkkkkkkhhkppteeeeee86668eeeeeeeeeeeeeeephkeeeeeee8ptee88ee86666etpphhpppphpppppppppphpteepphkkkkhpkxxkteeettpppphhppphkkkkkkkkkkkkkkkkkkkkkkkkkkkkkkjjjjjjhhptpt6;;;;;;;>>166qeeeq61666;;;;;66;;1-;%$$&;16",
"$6e;;qe66666ee616666666eeypppjkkkhhhkkkxbbxxxkkhkkkkkkkkpppkkkhppee66666eee8eeppttee88eeeetpppppppppppppteeeeeeeeeeeeeeepphhpteettttppppphhptetptphkkkhptpppteppeetpphhhppphkkkkjjlllllljjllllllkkkkkkkkkkjppppptppe666;>>6668ee66666qee61666&%$$$&;&&-&%$$&--1e",
"%6q;-6eq6666qq66666666qeepppppdkkhhpphhkkkkkxxkkkkkhhhkkhpppkkpetee88688eeeeetppppteeeeetppppppphhhppppptteeeeeteeeeeee88epppteetteetppppphppppptppkkkhpetppppppetpphkkhpphhkkkhjjjjjjjjjjjjjjjjjjjjjjjjkkkjdppptppe8886;;;;>668q66666qe6166;$@@@+$&$&;&$$$-;;6j",
"%;66;6ee66q6666eeeeeeeeyppkjppjkkkhhhhkkkkkxbbbxkkkhhhhhkkhppppppppppppptteettppppppppppppppppppppppttttpppppttt68eeeeeeetpppppppttttpphhpphkkkhhkkkkkkhkhppppppppkkxxkkkkkkkkkkjjjlllllxxxxxlxlkkkkkkkkyeeeeeee8ee666>;;=&&=;;;666666666611;&$%&%-;&-1;%#$&;6yb",
"%;6q66ey16qq66epeeyyeeeeypkkpppjhhppphkkkkkxbxkkkkkkkhkkkkpteepkpppphphhppppppppppphkkkkhpppppppppppppptkkhhpptttteeeeeeetpteeetteeeetpppptphkkpkkkkkkhhhppphkppppkkxxxkbxkkkkkkjjjllllljjjjlllljjjjjjjjyyeeeerrpteeet6;>;;;;;;;;;66661161;6616q6166&-;-&$@&1qjm"
};
