/* XPM */
static char *reload0[] = {
/* columns rows colors chars-per-pixel */
"500 456 87 1 ",
"  c black",
". c #070806",
"X c #0C0B0B",
"o c #0B0B05",
"O c #140C09",
"+ c #16140C",
"@ c #151A13",
"# c #191619",
"$ c #191816",
"% c #0F100F",
"& c #270B01",
"* c #231D19",
"= c #2F1807",
"- c #1D2219",
"; c #1E210E",
": c #2A230B",
"> c #282719",
", c #322E1A",
"< c #332B14",
"1 c #34311D",
"2 c #393219",
"3 c #312A12",
"4 c #1E1E20",
"5 c #211E21",
"6 c #292629",
"7 c #282726",
"8 c #322C2C",
"9 c #373626",
"0 c #322E31",
"q c #393639",
"w c #383736",
"e c #2E302E",
"r c #1E2322",
"t c #471D0B",
"y c #522913",
"u c #683419",
"i c #433D3B",
"p c #503A28",
"a c #6D3C22",
"s c #3D413B",
"d c #43423E",
"f c #574631",
"g c #75472D",
"h c #72401F",
"j c #3E3D41",
"k c #413E41",
"l c #3E4342",
"z c #464847",
"x c #484747",
"c c #53514E",
"v c #524E51",
"b c #565857",
"n c #585757",
"m c #504E4D",
"M c #635C5C",
"N c #6F5746",
"B c #6B635A",
"V c #645E61",
"C c #686666",
"Z c #797574",
"A c #716E6D",
"S c #5E605F",
"D c #824A2B",
"F c #8B5436",
"G c #91593A",
"H c #854F30",
"J c #94613E",
"K c #925E42",
"L c #996549",
"P c #956D55",
"I c #A36E53",
"U c #A77557",
"Y c #A67050",
"T c #8F796D",
"R c #A87A66",
"E c #B17E64",
"W c #B3846A",
"Q c #B88C73",
"! c #BB9478",
"~ c #AC876F",
"^ c #A08167",
"/ c #C2987C",
"( c #837E81",
") c #A19289",
"_ c #C49C83",
"` c #C6A388",
"' c #C9A890",
/* pixels */
"                                                                                                                                                                                                                                                                                                                                                                                                                                                                                                                    ",
"                                                                                                                                                                                                                                                                                                                                                                                                                                                                                                                    ",
"                                                                                                                                                                                                                                                                                                                                                                                                                                                                                                                    ",
"                                                                                                                                                                                                                                                                                                                                                                                                                                                                                                                    ",
"                                                                                                                                                                                                                                                                                                                                                                                                                                                                                                                    ",
"                                                                                                                                                                                                                                                                                                                                                                                                                                                                                                                    ",
"                                                                                                                                                                                                                                                                                                                                                                                                                                                                                                                    ",
"                                                                                                                                                                                                                                                                                                                                                                                                                                                                                                                    ",
"                                                                                                                                                                                                                                                                                                                                                                                                                                                                                                                    ",
"                                                                                                                                                                                                                                                                                                                                                                                                                                                                                                                    ",
"                                                                                                                                                                                                                                                                                                                                                                                                                                                                                                                    ",
"                                                                                                                                                                                                                                                                                                                                                                                                                                                                                                                    ",
"                                                                                                                                                                                                                                                                                                                                                                                                                                                                                                                    ",
"                                                                                                                                                                                                                                                                                                                                                                                                                                                                                                                    ",
"                                                                                                                                                                                                                                                                                                                                                                                                                                                                                                                    ",
"                                                                                                                                                                                                                                                                                                                                                                                                                                                                                                                    ",
"                                                                                                                                                                                                                                                                                                                                                                                                                                                                                                                    ",
"                                                                                                                                                                                                                                                                                                                                                                                                                                                                                                                    ",
"                                                                                                                                                                                                                                                                                                                                                                                                                                                                                                                    ",
"                                                                                                                                                                                                                                                                                                                                                                                                                                                                                                                    ",
"                                                                                                                                                                                                                                                                                                                                                                                                                                                                                                                    ",
"                                                                                                                                                                                                                                                                                                                                                                                                                                                                                                                    ",
"                                                                                                                                                                                                                                                                                                                                                                                                                                                                                                                    ",
"                                                                                                                                                                                                                                                                                                                                                                                                                                                                                                                    ",
"                                                                                                                                                                                                                                                                                                                                                                                                                                                                                                                    ",
"                                                                                                                                                                                                                                                                                                                                                                                                                                                                                                                    ",
"                                                                                                                                                                                                                                                                                                                                                                                                                                                                                                                    ",
"                                                                                                                                                                                                                                                                                                                                                                                                                                                                                                                    ",
"                                                                                                                                                                                                                                                                                                                                                                                                                                                                                                                    ",
"                                                                                                                                                                                                                                                                                                                                                                                                                                                                                                                    ",
"                                                                                                                                                                                                                                                                                                                                                                                                                                                                                                                    ",
"                                                                                                                                                                                                                                                                                                                                                                                                                                                                                                                    ",
"                                                                                                                                                                                                                                                                                                                                                                                                                                                                                                                    ",
"                                                                                                                                                                                                                                                                                                                                                                                                                                                                                                                    ",
"                                                                                                                                                                                                                                                                                                                                                                                                                                                                                                                    ",
"                                                                                                                                                                                                                                                                                                                                                                                                                                                                                                                    ",
"                                                                                                                                                                                                                                                                                                                                                                                                                                                                                                                    ",
"                                                                                                                                                                                                                                                                                                                                                                                                                                                                                                                    ",
"                                                                                                                                                                                                                                                                                                                                                                                                                                                                                                                    ",
"                                                                                                                                                                                                                                                                                                                                                                                                                                                                                                                    ",
"                                                                                                                                                                                                                                                                                                                                                                                                                                                                                                                    ",
"                                                                                                                                                                                                                                                                                                                                                                                                                                                                                                                    ",
"                                                                                                                                                                                                                                                                                                                                                                                                                                                                                                                    ",
"                                                                                                                                                                                                                                                                                                                                                                                                                                                                                                                    ",
"                                                                                                                                                                                                                                                                                                                                                                                                                                                                                                                    ",
"                                                                                                                                                                                                                                                                                                                                                                                                                                                                                                                    ",
"                                                                                                                                                                                                                                                                                                                                                                                                                                                                                                                    ",
"                                                                                                                                                                                                                                                                                                                                                                                                                                                                                                                    ",
"                                                                                                                                                                                                                                                                                                                                                                                                                                                                                                                    ",
"                                                                                                                                                                                                                                                                                                                                                                                                                                                                                                                    ",
"                                                                                                                                                                                                                                                                                                                                                                                                                                                                                                                    ",
"                                                                                                                                                                                                                                                                                                                                                                                                                                                                                                                    ",
"                                                                                                                                                                                                                                                                                                                                                                                                                                                                                                                    ",
"                                                                                                                                                                                                                                                                                                                                                                                                                                                                                                                    ",
"                                                                                                                                                                                                                                                                                                                                                                                                                                                                                                                    ",
"                                                                                                                                                                                                                                                                                                                                                                                                                                                                                                                    ",
"                                                                                                                                                                                                                                                                                                                                                                                                                                                                                                                    ",
"                                                                                                                                                                                                                                                                                                                                                                                                                                                                                                                    ",
"                                                                                                                                                                                                                                                                                                                                                                                                                                                                                                                    ",
"                                                                                                                                                                                                                                                                                                                                                                                                                                                                                                                    ",
"                                                                                                                                                                                                                                                                                                                                                                                                                                                                                                                    ",
"                                                                                                                                                                                                                                                                                                                                                                                                                                                                                                                    ",
"                                                                                                                                                                                                                                                                                                                                                                                                                                                                                                                    ",
"                                                                                                                                                                                                                                                                                                                                                                                                                                                                                                                    ",
"                                                                                                                                                                                                                                                                                                                                                                                                                                                                                                                    ",
"                                                                                                                                                                                                                                                                                                                                                                                                                                                                                                                    ",
"                                                                                                                                                                                                                                                                                                                                                                                                                                                                                                                    ",
"                                                                                                                                                                                                                                                                                                                                                                                                                                                                                                                    ",
"                                                                                                                                                                                                                                                                                                                                                                                                                                                                                                                    ",
"                                                                                                                                                                                                                                                                                                                                                                                                                                                                                                                    ",
"                                                                                                                                                                                                                                                                                                                                                                                                                                                                                                                    ",
"                                                                                                                                                                                                                                                                                                                                                                                                                                                                                                                    ",
"                                                                                                                                                                                                                                                                                                                                                                                                                                                                                                                    ",
"                                                                                                                                                                                                                                                                                                                                                                                                                                                                                                                    ",
"                                                                                                                                                                                                                                                                                                                                                                                                                                                                                                                    ",
"                                                                                                                                                                                                                                                                                                                                                                                                                                                                                                                    ",
"                                                                                                                                                                                                                                                                                                                                                                                                                                                                                                                    ",
"                                                                                                                                                                                                                                                                                                                                                                                                                                                                                                                    ",
"                                                                                                                                                                                                                                                                                                                                                                                                                                                                                                                    ",
"                                                                                                                                                                                                                                                                                                                                                                                                                                                                                                                    ",
"                                                                                                                                                                                                                                                                                                                                                                                                                                                                                                                    ",
"                                                                                                                                                                                                                                                                                                                                                                                                                                                                                                                    ",
"                                                                                                                                                                                                                                                                                                                                                                                                                                                                                                                    ",
"                                                                                                                                                                                                                                                                                                                                                                                                                                                                                                                    ",
"                                                                                                                                                                                                                                                                                                                                                                                                                                                                                                                    ",
"                                                                                                                                                                                                                                                                                                                                                                                                                                                                                                                    ",
"                                                                                                                                                                                                                                                                                                                                                                                                                                                                                                                    ",
"                                                                                                                                                                                                                                                                                                                                                                                                                                                                                                                    ",
"                                                                                                                                                                                                                                                                                                                                                                                                                                                                                                                    ",
"                                                                                                                                                                                                                                                                                                                                                                                                                                                                                                                    ",
"                                                                                                                                                                                                                                                                                                                                                                                                                                                                                                                    ",
"                                                                                                                                                                                                                                                                                                                                                                                                                                                                                                                    ",
"                                                                                                                                                                                                                                                                                                                                                                                                                                                                                                                    ",
"                                                                                                                                                                                                                                                                                                                                                                                                                                                                                                                    ",
"                                                                                                                                                                                                                                                                                                                                                                                                                                                                                                                    ",
"                                                                                                                                                                                                                                                                                                                                                                                                                                                                                                                    ",
"                                                                                                                                                                                                                                                                                                                                                                                                                                                                                                                    ",
"                                                                                                                                                                                                                                                                                                                                                                                                                                                                                                                    ",
"                                                                                                                                                                                                                                                                                                                                                                                                                                                                                                                    ",
"                                                                                                                                                                                                                                                                                                                                                                                                                                                                                                                    ",
"                                                                                                                                                                                                                                                                                                                                                                                                                                                                                                                    ",
"                                                                                                                                                                                                                                                                                                                                                                                                                                                                                                                    ",
"                                                                                                                                                                                                                                                                                                                                                                                                                                                                                                                    ",
"                                                                                                                                                                                                                                                                                                                                                                                                                                                                                                                    ",
"                                                                                                                                                                                                                                                                                                                                                                                                                                                                                                                    ",
"                                                                                                                                                                                                                                                                                                                                                                                                                                                                                                                    ",
"                                                                                                                                                                                                                                                                                                                                                                                                                                                                                                                    ",
"                                                                                                                                                                                                                                                                                                                                                                                                                                                                                                                    ",
"                                                                                                                                                                                                                                                                                                                                                                                                                                                                                                                    ",
"                                                                                                                                                                                                                                                                                                                                                                                                                                                                                                                    ",
"                                                                                                                                                                                                                                                                                                                                                                                                                                                                                                                    ",
"                                                                                                                                                                                                                                                                                                                                                                                                                                                                                                                    ",
"                                                                                                                                                                                                                                                                                                                                                                                                                                                                                                                    ",
"                                                                                                                                                                                                                                                                                                                                                                                                                                                                                                                    ",
"                                                                                                                                                                                                                                                                                                                                                                                                                                                                                                                    ",
"                                                                                                                                                                                                                                                                                                                                                                                                                                                                                                                    ",
"                                                                                                                                                                                                                                                                                                                                                                                                                                                                                                                    ",
"                                                                                                                                                                                                                                                                                                                                                                                                                                                                                                                    ",
"                                                                                                                                                                                                                                                                                                                                                                                                                                                                                                                    ",
"                                                                                                                                                                                                                                                                                                                                                                                                                                                                                                                    ",
"                                                                                                                                                                                                                                                                                                                                                                                                                                                                                                                    ",
"                                                                                                                                                                                                                                                                                                                                                                                                                                                                                                                    ",
"                                                                                                                                                                                                                                                                                                                                                                                                                                                                                                                    ",
"                                                                                                                                                                                                                                                                                                                                                                                                                                                                                                                    ",
"                                                                                                                                                                                                                                                                                                                                                                                                                                                                                                                    ",
"                                                                                                                                                                                                                                                                                                                                                                                                                                                                                                                    ",
"                                                                                                                                                                                                                                                                                                                                                                                                                                                                                                                    ",
"                                                                                                                                                                                                                                                                                                                                                                                                                                                                                                                    ",
"                                                                                                                                                                                                                                                                                                                                                                                                                                                                                                                    ",
"                                                                                                                                                                                                                                                                                                                                                                                                                                                                                                                    ",
"                                                                                                                                                                                                                                                                                                                                                                                                                                                                                                                    ",
"                                                                                                                                                                                                                                                                                                                                                                                                                                                                                                                    ",
"                                                                                                                                                                                                                                                                                                                                                                                                                                                                                                                    ",
"                                                                                                                                                                                                                                                                                                                                                                                                                                                                                                                    ",
"                                                                                                                                                                                                                                                                                                                                                                                                                                                                                                                    ",
"                                                                                                                                                                                                                                                                                                                                                                                                                                                                                                                    ",
"                                                                                                                                                                                                                                                                                                                                                                                                                                                                                                                    ",
"                                                                                                                                                                                                                                                                                                                                                                                                                                                                                                                    ",
"                                                                                                                                                                                                                                                                                                                                                                                                                                                                                                                    ",
"                                                                                                                                                                                                                                                                                                                                                                                                                                                                                                                    ",
"                                                                                                                                                                                                                                                                                                                                                                                                                                                                                                                    ",
"                                                                                                                                                                                                                                                                                                                                                                                                                                                                                                                    ",
"                                                                                                                                                                                                                                                                                                                                                                                                                                                                                                                    ",
"                                                                                                                                                                                                                                                                                                                                                                                                                                                                                                                    ",
"                                                                                                                                                                                                                                                                                                                                                                                                                                                                                                                    ",
"                                                                                                                                                                                                                                                                                                                                                                                                                                                                                                                    ",
"                                                                                                                                                                                                                                                                                                                                                                                                                                                                                                                    ",
"                                                                                                                                                                                                                                                                                                                                                                                                                                                                                                                    ",
"                                                                                                                                                                                                                                                                                                                                                                                                                                                                                                                    ",
"                                                                                                                                                                                                                                                                                                                                                                                                                                                                                                                    ",
"                                                                                                                                                                                                                                                                                                                                                                                                                                                                                                                    ",
"                                                                                                                                                                                                                                                                                                                                                                                                                                                                                                                    ",
"                                                                                                                                                                                                                                                                                                                                                                                                                                                                                                                    ",
"                                                                                                                                                                                                                                                                                                                                                                                                                                                                                                                    ",
"                                                                                                                                                                                                                                                                                                                                                                                                                                                                                                                    ",
"                                                                                                                                                                                                                                                                                                                                                                                                                                                                                                                    ",
"                                                                                                                                                                                                                                                                                                                                                                                                                                                                                                                    ",
"                                                                                                                                                                                                                                                                                                                                                                                                                                                                                                                    ",
"                                                                                                                                                                                                                                                                                                                                                                                                                                                                                                                    ",
"                                                                                                                                                                                                                                                                                                                                                                                                                                                                                                                    ",
"                                                                                                                                                                                                                                                                                                                                                                                                                                                                                                                    ",
"                                                                                                                                                                                                                                                                                                                                                                                                                                                                                                                    ",
"                                                                                                                                                                                                                                                                                                                                                                                                                                                                                                                    ",
"                                                                                                                                                                                                                                                                                                                                                                                                                                                                                                                    ",
"                                                                                                                                                                                                                                                                                                                                                                                                                                                                                                                    ",
"                                                                                                                                                                                                                                                                                                                                                                                                                                                                                                                    ",
"                                                                                                                                                                                                                                                                                                                                                                                                                                                                                                                    ",
"                                                                                                                                                                                                                                                                                                                                                                                                                                                                                                                    ",
"                                                                                                                                                                                                                                                                                                                                                                                                                                                                                                                    ",
"                                                                                                                                                                                                                                                                                                                                                                                                                                                                                                                    ",
"                                                                                                                                                                                                                                                                                                                                                                                                                                                                                                                    ",
"                                                                                                                                                                                                                                                                                                                                                                                                                                                                                                                    ",
"                                                                                                                                                                                                                                                                                                                                                                                                                                                                                                                    ",
"                                                                                                                                                                                                                                                                                                                                                                                                                                                                                                                    ",
"                                                                                                                                                                                                                                                                                                                                                                                                                                                                                                                    ",
"                                                                                                                                                                                                                                                                                                                                                                                                                                                                                                                    ",
"                                                                                                                                                                                                                                                                                                                                                                                                                                                                                                                    ",
"                                                                                                                                                                                                                                                                                                                                                                                                                                                                                                                    ",
"                                                                                                                                                                                                                                                                                                                                                                                                                                                                                                                    ",
"                                                                                                                                                                                                                                                                                                                                                                                                                                                                                                                    ",
"                                                                                                                                                                                                                                                                                                                                                                                                                                                                                                                    ",
"                                                                                                                                                                                                                                                                                                                                                                                                                                                                                                                    ",
"                                                                                                                                                                                                                                                                                                                                                                                                                                                                                                                    ",
"                                                                                                                                                                                                                                                                                                                                                                                                                                                                                                                    ",
"                                                                                                                                                                                                                                                                                                                                                                                                                                                                                                                    ",
"                                                                                                                                                                                                                                                                                                                                                                                                                                                                                                                    ",
"                                                                                                                                                                                                                                                                                                                                                                                                                                                                                                                    ",
"                                                                                                                                                                                                                                                                                                                                                                                                                                                                                                                    ",
"                                                                                                                                                                                                                                                                                                                                                                                                                                                                                                                    ",
"                                                                                                                                                                                                                                                                                                                                                                                                                                                                                                                    ",
"                                                                                                                                                                                                                                                                                                                                                                                                                                                                                                                    ",
"                                                                                                                                                                                                                                                                                                                                                                                                                                                                                                                    ",
"                                                                                                                                                                                                                                                                                                                                                                                                                                                                                                                    ",
"                                                                                                                                                                                                                                                                                                                                                                                                                                                                                                                    ",
"                                                                                                                                                                                                                                                                                                                                                                                                                                                                                                                    ",
"                                                                                                                                                                                                                                                                                                                                                                                                                                                                                                                    ",
"                                                                                                                                                                                                                                                                                                                                                                                                                                                                                                                    ",
"                                                                                                                                                                                                                                                                                                                                                                                                                                                                                                                    ",
"                                                                                                                                                                                                                                                                                                                                                                                                                                                                                                                    ",
"                                                                                                                                                                                                                                                                                                                                                                                                                                                                                                                    ",
"                                                                                                                                                                                                                                                                                                                                                                                                                                                                                                                    ",
"                                                                                                                                                                                                                                                                                                                                                                                                                                                                                                                    ",
"                                                                                                                                                                                                                                                                                                                                                                                                                                                                                                                    ",
"                                                                                                                                                                                                                                                                                                                                                                                                                                                                                                                    ",
"                                                                                                                                                                                                                                                                                                                                                                                                                                                                                                                    ",
"                                                                                                                                                                                                                                                                                                                                                                                                                                                                                                                    ",
"                                                                                                                                                                                                                                                                                                                                                                                                                                                                                                                    ",
"                                                                                                                                                                                                                                                                                                                                                                                                                                                                                                                    ",
"                                                                                                                                                                                                                                                                                                                                                                                                                                                                                                                    ",
"                                                                                                                                                                                                                                                                                                                                                                                                                                                                                                                    ",
"                                                                                                                                                                                                                                                                                                                                                                                                                                                                                                                    ",
"                                                                                                                                                                                                                                                                                                                                                                                                                                                                                                                    ",
"                                                                                                                                                                                                                                                                                                                                                                                                                                                                                                                    ",
"                                                                                                                                                                                                                                                                                                                                                                                                                                                                                                                    ",
"                                                                                                                                                                                                                                                                                                                                                                                                                                                                                                                    ",
"                                                                                                                                                                                                                                                                                                                                                                                                                                                                                                                    ",
"                                                                                                                                                                                                                                                                                                                                                                                                                                                                                                                    ",
"                                                                                                                                                                                                                                                                                                                                                                                                                                                                                                                    ",
"                                                                                                                                                                                                                                                                                                                                                                                                                                                                                                                    ",
"                                                                                                                                                                                                                                                                                                                                                                                                                                                                                                                    ",
"                                                                                                                                                                                                                                                                                                                                                                                                                                                                                                                    ",
"                                                                                                                                                                                                                                                                                                                                                                                                                                                                                                                    ",
"                                                                                                                                                                                                                                                                                                                                                                                                                                                                                                                    ",
"                                                                                                                                                                                                                                                                                                                                                                                                                                                                                                                    ",
"                                                                                                                                                                                                                                                                                                                                                                                                                                                                                                                    ",
"                                                                                                                                                                                                                                                                                                                                                                                                                                                                                                                    ",
"                                                                                                                                                                                                                                                                                                                                                                                                                                                                                                                    ",
"                                                                                                                                                                                                                                                                                                                                                                                                                                                                                                                    ",
"                                                                                                                                                                                                                                                                                                                                                                                                                                                                                                                    ",
"                                                                                                                                                                                                                                                                                                                                                                                                                                                                                                                    ",
"                                                                                                                                                                                                                                                                                                                                                                                                                                                                                                                    ",
"                                                                                                                                                                                                                                                                                                                                                                                                                                                                                                                    ",
"                                                                                                                                                                                                                                                                                                                                                                                                                                                                                                                    ",
"                                                                                                                                                                                                                                                                                                                                                                                                                                                                                                                    ",
"                                                                                                                                                                                                                                                                                                                                                                                                                                                                                                                    ",
"                                                                                                                                                                                                                                                                                                                                                                                                                                                                                                                    ",
"                                                                                                                                                                                                                                                                                                                                                                                                                                                                                                                    ",
"                                                                                                                                                                                                                                                                                                                                                                                                                                                                                                                    ",
"                                                                                                                                                                                                                                                                                                                                                                                                                                                                                                                    ",
"                                                                                                                                                                                                                                                                                                                                                                                                                                                                                                                    ",
"                                                                                                                                                                                                                                                                                                                                                                                                                                                                                                                    ",
"                                                                                                                                                                                                                                                                                                                                                                                                                                                                                                                    ",
"                                                                                                                                                                                                                                                                                                                                                                                                                                                                                                                    ",
"                                                                                                                                                                                                                                                                                                                                                                                                                                                                                                                    ",
"                                                                                                                                                                                                                                                                                                                                                                                                                                                                                                                    ",
"                                                                                                                                                                                                                                                                                                                                                                                                                                                                                                                    ",
"                                                                                                                                                                                                                                                                                                                                                                                                                                                                                                                    ",
"                                                                                                                                                                                                                                                                                                                                                                                                                                                                                                                    ",
"                                                                                                                                                                                                                                                                                                                                                                                                                                                                                                                    ",
"                                                                                                                                                                                                                                                                                                                                                                                                                                                                                                                    ",
"                                                                                                                                                                                                                                                                                                                                                                                                                                                                                                                    ",
"                                                                                                                                                                                                                                                                                                                                                                                                                                                                                                                    ",
"                                                                                                                                                                                                                                                                                                                                                                                                                                                                                                                    ",
"                                                                                                                                                                                                                                                                                                                                                                                                                                                                                                                    ",
"                                                                                                                                                                                                                                                                                                                                                                                                                                                                                                                    ",
"                                                                                                                                                                                                                                                                                                                                                                                                                                                                                                                    ",
"                                                                                                                                                                                                                                                                                                                                                                                                                                                                                                                    ",
"                                                                                                                                                                                                                                                                                                                                                                                                                                                                                                                    ",
"                                                                                                                                                                                                                                                                                                                                                                                                                                                                                                                    ",
"                                                                                                                                                                                                                                                                                                                                                                                                                                                                                                                    ",
"                                                                                                                                                                                                                                                                                                                                                                                                                                                                                                                    ",
"                                                                                                                                                                                                                                                                                                                                                                                                                                                                                                                    ",
"                                                                                                                                                                                                                                                                                                                                                                                                                                                                                                                    ",
"                                                                                                                                                                                                                                                                                                                                                                                                                                                                                                                    ",
"                                                                                                                                                                                                                                                                                                                                                                                                                                                                                                                    ",
"                                                                                                                                                                                                                                                                                                                                                                                                                                                                                                                    ",
"                                                                                                                                                                                                                                                                                                                                                                                                                                                                                                                    ",
"                                                                                                                                                                                                                                                                                                                                                                                                                                                                                                                    ",
"                                                                                                                                                                                                                                                                                                                                                                                                                                                                                                                    ",
"                                                                                                                                                                                                                                                                                                                                                                                                                                                                                                                    ",
"                                                                                                                                                                                                                                                                                                                                                                                                                                                                                                                    ",
"                                                                                                                                                                                                                                                                                                                                                                                                                                                                                                                    ",
"                                                                                                                                                                                                                                                                                                                                                                                                                                                                                                                    ",
"                                                                                                                                                                                                                                                                                                                                                                                                                                                                                                                    ",
"                                                                                                                                                                                                                                                                                                                                                                                                                                                                                                                    ",
"                                                                                                                                                                                                                                                                                                                                                                                                                                                                                                                    ",
"                                                                                                                                                                                                                                                                                                                                                                                                                                                                                                                    ",
"                                                                                                                                                                                                                                                                                                                                                                                                                                                                                                                    ",
"                                                                                                                                                                                                                                                                                                                                                                                                                                                                                                                    ",
"                                                                                                                                                                                                                                                                                                                                                                                                                                                                                                                    ",
"                                                                                                                                                                                                                                                                                                                                                                                                                                                                                                                    ",
"                                                                                                                                                                                                                                                                                                                                                                                                                                                                                                                    ",
"                                                                                                                                                                                                                                                                                                                                                                                                                                                                                                                    ",
"                                                                                                                                                                                                                                                                                                                                                                                                                                                                                                                    ",
"                                                                                                                                                                                                                                                                                                                                                                                                                                                                                                                    ",
"                                                                                                                                                                                                                                                                                                                                                                                                                                                                                                                    ",
"                                                                                                                                                                                                                                                                                                                                                                                                                                                                                                                    ",
"                                                                                                                                                                                                                                                                                                                                                                                                                                                                                                                    ",
"                                                                                                                                                                                                                                                                                                                                                                                                                                                                                                                    ",
"                                                                                                                                                                                                                                                                                                                                                                                                                                                                                                                    ",
"                                                                                                                                                                                                                                                                                                                                                                                                                                                                                                                    ",
"                                                                                                                                                                                                                                                                                                                                                                                                                                                                                                                    ",
"                                                                                                                                                                                                                                                                                                                                                                                                                                                                                                                    ",
"                                                                                                                                                                                                                                                                                                                                                                                                                                                                                                                    ",
"                                                                                                                                                                                                                                                                                                                                                                                                                                                                                                                    ",
"                                                                                                                                                                                                                                                                                                                                                                                                                                                                                                                    ",
"                                                                                                                                                                                                                                                                                                                                                                                                                                                                                                                    ",
"                                                                                                                                                                                                                                                                                                                                                                                                                                                                                                                    ",
"                                                                                                                                                                                                                                                                                                                                                                                                                                                                                                                    ",
"                                                                                                                                                                                                                                                                                                                                                                                                                                                                                                                    ",
"                                                                                                                                                                                                                                                                                                                                                                                                                                                                                                                    ",
"                                                                                                                                                                                                                                                                                                                                                                                                                                                                                                                    ",
"                                                                                                                                                                                                                                                                                                                                                                                                                                                                                                                    ",
"                                                                                                                                                                                                                                                                                                                                                                                                                                                                                                                    ",
"                                                                                                                                                                                                                                                                                                                                                                                                                                                                                                                    ",
"                                                                                                                                                                                                                                                                                                                                                                                                                                                                                                                    ",
"                                                                                                                                                                                                                                                                                                                                                                                                                                                                                                                    ",
"                                                                                                                                                                                                                                                                                                                                                                                                                                                                                                                    ",
"                                                                                                                                                                                                                                                                                                                                                                                                                                                                                                                    ",
"                                                                                                                                                                                                                                                                                                                                                                                                                                                                                                                    ",
"                                                                                                                                                                                                                                                                                                                                                                                                                                                                                                                    ",
"                                                                                                                                                                                                                                                                                                                                                                                                                                                                                                                    ",
"                                                                                                                                                                                                                                                                                                                                                                                                                                                                                                                    ",
"                                                                                                                                                                                                                                                                                                                                                                                                                                                                                                                    ",
"                                                                                                                                                       .oo%%%ooo.                                                                                                                                                                                                                                                                                                                                                   ",
"                                                                                                                                       .oo... .    .%%+>e9000e77>$%                                                                                                                                                                                                                                                                                                                                                 ",
"                                                                                                                                     .o@---@@@@%@@@-77>9dxmxlwwsd9>@o                                                                                                                                                                                                                                                                                                                                               ",
"                                                                                                                                    %@-7e9wwsw9999wsddwssdzzsssszdw7$.                                                                                                                                                                                                                                                                                                                                              ",
"                                                                                                                                    $7-ewszxxxxxxmcnbccxdsssswwszsss0-o                                                                                                                                                                                                                                                                                                                                             ",
"                                                                                                                                   .r#-79wqsddddzmnSnncmzww00wwwwwwddw>%                                                                                                                                                                                                                                                                                                                                            ",
"                                                                                                                                   X#%%@@---7ee9wzbSccmmzsw0ee0ee00www7>o        .X.                                                                                                                                                                                                                                                                                                                                ",
"                                                                                                                                   .#..Xooooo%%>7esmmmxzzlweeeeeeeee0wee>.       .XXX..                                                                                                                                                                                                                                                                                                                             ",
"                                                                                                                                    %o+o%Xo%%%@7w070zxzzdqwe77eee00e0wszz0X      XXXXXXX                                                                                                                                                                                                                                                                                                                            ",
"                                                                                                                         .....    .%%o+o%%%@->7wnVw-wzdqsw0e7789ww90wwwew0>.    .XXXXXX.                                                                                                                                                                                                                                                                                                                            ",
"                                                                                                                     .o@@----@oo%@-e7@>>@%@-77ezCAnswdssww0wi98qddddzzq0e88#    XXXXXXX     ....                                                                                                                                                                                                                                                                                                                    ",
"                                                                                                                   +>7wsssswee-777ewwzmczwzzse0zCAASnmdsdqsmcd8izxxxxxzvzzdq%.  XXXXXXXXX..XXXXXX                                                                                                                                                                                                                                                                                                                   ",
"                                                                                                                 .@0dxccvbblsldsdsswwswszzcbbcbCZZZACnzddxxccxq0dzdddzxcbbnc8@. .XXXXXXXXXXXXXXXX.                                                                                                                                                                                                                                                                                                                  ",
"                                                                                                                 @7zzzdw0dzsslxzdswwsswsmmcnSCCAZZAACnmzxxxmmxi88wqwqwqzzmcnx7@. XXXXXXXXXXXXXXXX.                                                                                                                                                                                                                                                                                                                  ",
"                                                                                                               .-0szzswwwswewzzlwwwsllzcSnbnnbbvccnMMnccmmmccmmq870qqw0wqzzmnd@X XXXXXXXXXXXXXXXX.                                                                                                                                                                                                                                                                                                                  ",
"                                                                                                            .o%7dswzzwwqlzqwlmzzwwlllszvvzzzdddidiiiq0wiimmccmmz08660qqqqjzzcn8XXXXXXXXXXXXXXXXX.                                                                                                                                                                                                                                                                                                                   ",
"                                                                                                           .%-7wdwwslwqlzxlvczzmcbbczlsqw88009wwwwwizxxmqqmmzzziq888880qkkjzzcq%XXXXXXXXXXXXXXX.                                                                                                                                                                                                                                                                                                                    ",
"                                                                                                           %-7ewswwsswzmcbvvxzzmccmzszzwe888000000wwxmnnzkxzzkqw00000e67600wqqz0%XXXXXXXXXXXXXX.                                                                                                                                                                                                                                                                                                                    ",
"                                                                                                           .-0wwsszxxzzmnCbxzzxzxiqw0qizzsw000000000qkmncmmzqqqwww000www0w00080w7XXXXXXXXXXXXXX                                                                                                                                                                                                                                                                                                                     ",
"                                                                                            XXX.           +7wwwszddqdxcbbxzzzxxziqww0qwdzmmdiiw00000qzmvbmqqqqwww000wwww00w0wdwd$XXXXXXXXXX..                                                                                                                                                                                                                                                                                                                      ",
"                                                                                           XXXX.  .       o-7w0wzlqwwzcczqqqjzxxziqq00wqqqiidzdqzxzxzzzmmbzzqqqwww0w000800000wiwd7XXXXXXXXX.                                                                 . .  ......... ..XXX.XXXXXXXXXXXXXXXXXXXXXXXX.                                                                                                                                                                                                         ",
"                                                                                           XX.    XXX.   .$e0szzzqqqqmmwqqwqzzziw00800wiqqw80zqqzmmmzzmmmmzzqqqqqqqw86667788009www%XXXXXXXX                                   ...............XXXXXXXXXXXXXXXXXXXXXXXXXXXXXXXXXXXXXXXXXXXXXXXXXXXXXXXXXXXXXXX.                                                                                                                                                                                                       ",
"                                                                                          .XX     XXX.   %e9wzxdqqjqxcq80wwqqqq08880qqidziqcAZAccnbzzcccczzzvzczzzzzqw86777677888w>XXXXXXXXX     ...ooX........XXXXXXXXXXXXXXXXXXXXXXXXXXXXXXXXXXXXXXXXXXXXXXXXXXXXXXXXXXXXXXXXXXXXXXXXXXXXXXXXXXXXXXXXXXXXXXX.                                                                                                                                                                                                     ",
"                                                                                          .X.  .. XXX.   -ewwdwwqqjimz0000www00888wqdzdqqqmmcnncnnncxzqkzvnAACCCCCAACCbzw088888887w%XXXXXXXXXXXXXXXXXoXXXXXXXXXXXXXXXXXXXXXXXXXXXXXXXXXXXXXXXXXXXXXXXXXXXXXXXXXXXXXXXXXXXXXXXXXXXXXXXXXXXXXXXXXXXXXXXXXXXXXXXXXX                                                                                                                                                                                                    ",
"                                                                                          .XX..X. XXX.  %ewlqq90qqjmz00wqqqw088880qiziwwdxxxxxxmnMnvcmzmnAZZAAACCSVnbnCCnziqww9087s7@+XXoXXXXXXXXXXXXoooXXXXXXXXXXXXXXXXXXXXXXXXXXXXXXXXXXXXXXXXXXXXXXXXXXXXXXXXXXXXXXXXXXXXXXXXXXXXXXXXXXXXXXXXXXXXXXXXXXXXXXXXX.                                                                                                                                                                                                  ",
"                                                                                           XXXXX.XXXX. %-0wjq0000wzmw00wqqqw08880wiqq0ixzzxxxxmnnmzznnbbbnnncmzzqqww0wzcbnnmziw908d7@%$@XXXXXXXXXXXXooXXXXXXXXXXXXXXXXXXXXXXXXXXXXXXXXXXXXXXXXXXXXXXXXXXXXXXXXXXXXXXXXXXXXXXXXXXXXXXXXXXXXXXXXXXXXXXXXXXXXXXXXXXXX.                                                                                                                                                                                                 ",
"                                                                                           XXXXXXXXX. .>ewwqq0000im0880qqqw088880q000zxdzzzzxxmzqwznnnmzzq0886667777#778wxcnncxiw00>%@>>e777777e0ee7>-$$-7$XXXXXXXXXXXXXXXXXXXXXXXXXXXXXXXXXXXXXXXXXXXXXXXXXXXXXXXXXXXXXXXXXXXXXXXXXXXXXXXXXXXXXXXXXXXXXXXXXXXXXXXX.                                                                                                                                                                                                ",
"                                                                                            XXXXXXXX .-ewwwww00wqvq78wq088888888000wzzizddzzxzq78dmcncqe67####*7########78qxmnnndi0#789dbzlllllmvzlweewwwsw%XXXXXXXXXXXXXXXXXXXXXXXXXXXXXXXXXXXXXXXXXXXXXXXXXXXXXXXXXXXXXXXXXXXXXXXXXXXXXXXXXXXXXXXXXXXXXXXXXXXXXXXX                                                                                                                                                                                                ",
"                                                                                            .XXXXXX..7slww00000qzz87qq088888888008qmdqiqwqqwq07#776ezzw67-###############>80qdmcxiw>60wzASbbdscnbzw679sssseXXXXXXXXXXXXXXXXXXXXXXXXXXXXXXXXXXXXXXXXXXXXXXXXXXXXXXXXXXXXXXXXXXXXXXXXXXXXXXXXXXXXXXXXXXXXXXXXXXXXXXXXX.                                                                                                                                                                                               ",
"                                                                                          X..XXXXXXX#wzlsw0880wqqq80w8888888888088xmdi08887687@@#*60qjq0675##############@@780qzcmz6*806w7sd>*8ews7@->900e$XXXXXXXXXXXXXXXXXXXXXXXXXXXXXXXXXXXXXXXXXXXXXXXXXXXXXXXXXXXXXXXXXXXXXXXXXXXXXXXXXXXXXXXXXXXXXXXXXXXXXXXXXX.                                                                                                                                                                                              ",
"                                                                                         .XXXXXXXXXX>wwwq08800qq080q0888888888080dzqqq87877686###50zzqe77887#4###############*7qzcm8#77$@$$$>*>$%7#%%;>>--+XXXXXXXXXXXXXXXXXXXXXXXXXXXXXXXXXXXXXXXXXXXXXXXXXXXXXXXXXXXXXXXXXXXXXXXXXXXXXXXXXoXXXXXXXXXXXXXXXXXXXXXXXXX                                                                                                                                                                                              ",
"                                                                                         XXXXXXXXXX+7www867800q088q08888888e8088izqqw866886787##*7wxzq05@$777745*###**#####**7680zxq777$#7$$**>$+9r@-->-@%XXXXXXXXXXXXXXXXXXXXXXXXXXXXXXXXXXXXXXXXXXXXXXXXXXXXXXXXXXXXXXXXXXXXXXXXXXXXXXXXXXXXXXXXXXXXXXXXXXXXXXXXXXXX.                                                                                                                                                                                             ",
"                                                                                        .XXXXXXXXXX>9qq0666780088q0688808888866qzq0867686777#$##560xcmq4%%%#76557885****$***>7770dxm0708887779w8>ze>>1e7-XXXXXXXXXXXXXXXXXXXXXXXXXXXXXXXXXXXXXXXXXXXXXXXXXXXXXXXXXXXXXXXXXXXXXXXXXXXXXXXXXXXXoXXXXXXXXXXXXXXXXXXXXXXXXX.                                                                                                                                                                                            ",
"                                                                                        XXXXXXXXXX@09qq066778006w0668008888888qq008676665$$$$#*7760xnz0#%%#####6kcMxw7*******>>78wzcq#qiqwwiiddidcse0w9,@XXXXXXXXXXXXXXXXXXXXXXXXXXXXXXXXXXXXXXXXXXXXXXXXXXXXXXXXXXXXXXXXXXXXXXXXXXXXXXXXXXXXXXXXXX%XXXXXXXXXXXXXXXXXXXX                                                                                                                                                                                            ",
"                                                                                       .XXXXXXXXXX>wwdq866788060q008880880868qq006777667##567**768eqk07454575##50zMVMmi8********78qzz#qxxxdxzxdmcnzssd9$XXXXXXXXXXXXXXXXXXXXXXXXXXXXXXXXXXXXXXXXXXXXXXXXXXXXXXXXXXXXXXXXXXXXXXXXXXXXXXXXXXXX+%@##-7-%XXXXXXXXXXXXXXXXXXX.                                                                                                                                                                                           ",
"                                                                                       .XXXXXXXXX+9dqq067678860q6085#76666660w88867#77##766806##566655555780085##5wcMMMcp8*******78qmq880w088w80dsw9997@XXXXXXXXXXXXXXXXXXXXXXXXXXXXXXXXXXXXXXXXXXXXXXXXXXXXXXXXXXXXXXXXXXXXXXXXXXXXXXXXXXXXXX%#%@--%XXXXXXXXXXXXXXXXXXXX.                                                                                                                                                                                          ",
"                                                                                       .XXXXXXXX%>wdwwe6768888q877#7775###70088867##$@#7*#@$67##47755757660wqq7###*8mMMMMci*******78zm0767*@0w$09ee77>-%XXXXXXXXXXXXXXXXXXXXXXXXXXXXXXXXXXXXXXXXXXXXXXXXXXXXXXXXXXXXXXXXXXXXXXXXXXXXXXXXXXXXXXXoXXoXXXXXXXXXXXXXXXXXXXXXXX                                                                                                                                                                                          ",
"                                                                                       XXXXXXXXX%#8zq08866888086758qqq86668008677*#$#76686#$$*767#%#766668e0006###$$8mMMMMMi>******6qxx87*@$zwe7>------@XXXXXXXXXXXXXXXXXXXXXXXXXXXXXXXXXXXXXXXXXXXXXXXXXXXXXXXXXXXXXXXXXXXXXXXXXXXXXXXXXXXXXXXXXXXXXXXXXXXXXXXXXXXXXXXXXX.                                                                                                                                                                                         ",
"                                                                                       XXXXXXXXX-70d0888678888878qqqwwqqqq0886677770zmmnCni677667*@%%####457667#$$$$*0cMMMMMd8*****570mx8*@0m-@++@@@---@XXXXXXXXXXXXXXXXXXXXXXXXXXXXXXXXXXXXXXXXXXXXXXXXXXXXXXXXXXXXXXXXXXXXXXXXXXXXXXXXXXXXXXXXXXXXXXXXXXXXXXXXXXX%@%%XXXX.                                                                                                                                                                                        ",
"                                                                                       XXXXXXXX%w0wq087676708656qq088888866800qqzznCACCCAZAnczzi08665######45775577778cMMMMMMx7*******wm0>$r7$@@%%@@@@@@XXXXXXXXXXXXXXXXXXXXXXXXXXXXXXXXXXXXXXX%X%XXXXXXXXXXXXXXXXX%%%%%%%%%%%%%%+%%%+++++@>-@%+XXXXXXXXXXXXXXXXXXX%+@@%XXXX.                                                                                                                                                                                       ",
"                                                                                      .XXXXXXXX$z000866776807*7006688676wzmcnVCCCCnmzqqqzmMAZACczxcmj07766776666888880cAMmcMMMm05577**7d0*#o%77>77--$$$@XXXXXXXXXX+X+%%XX++%%%%XXXXX+%%%@$$$$$$-#->>----->>77-777$%$#%@r7777-7-$@@%@%%+%++$7e0ww9$%XXXXXXXXXXXXXXXXXXXXXXXXXXX                                                                                                                                                                                      ",
"                                                                                      .XXXXXXXX7s0087777670q8788778888wzbCAAACnmxq67777776qznCCnnAZAnczqww0eeee8888880xZAmimMCAc0855757877>$7777787@+%XXXXXXXXXXXXXXXXXXXXXXXXXXXXXXXXXXX@@@%%%%%%@##%%%%#%%%%%%$$@#%%@#r-#$@@%%%XXXXXX%%%$7qzzzq7>>-@XXXXXXXXXXXXXXXXXXXXXXXXX.                                                                                                                                                                                    ",
"                                                                                   XXX. ....XXX0e008677778q8888668880icCAAACczqq8757755557768qzzvbnCAAAAVvkq00e86777780M)Zmixxw0ix0**7777>>>>*$$$>>77>*$$%XXXXXXXXXXX%$$%XXXXXXXXXXXXXXX+#*##*#****##$$#$$#@%%%##54*##$$$$$$$$$$#%@@@@###76wlq086#>777#%XXXXXXXXXXXXXXXXXXXXXXXX.                                                                                                                                                                                   ",
"                                                                                  XXXXXXXX   X+7>0876776800660888000qzcncvzzq0886888677777776800wqkkkxVCnxwe867*###$$*7wATCmi7+$0mm8*5770iww99877777**$$***%XX%%XXXXXX+$+XXXXXXXXXXXXXXX%@#####*##$##$$$$$$$+%%$$#####@@@@%%%%%%%%%@@@@@##7ew0677###%X%#%XXXXXXXXXXXooXXXXXXXXXXX                                                                                                                                                                                   ",
"                                                                                 .XXXXXXXX. .X@970867777807788800wqqzzxxzkkq0088wqq0886677*#76000006668wqw874####$$%%%$#wCCmw77*7ixi****dZ^TT^TZZZACnccMCAm$$%%%XXXXXXX%XXXXXXXXXXXXXXXXX#$@#####$@@@$$$$$$++$$$$$$%%%%%%%XXXXXXXXX%%%%@@#$786--#####%XX%%XXXXXXXXXXXXXXXXXXXXXXX.                                                                                                                                                                                  ",
"                                                                                 .XXXXXXXXX.X+7w087677788870880qqqqkzzzzzzkq8680qqqw8866777668ww008674##706#######$%%%%%$qmk66q0*8kk7***0))))))))))TAZ^)))C>>786777*#$@@%%%%%%%%%++%%XXX%%@##$#@#@###%+%%%%%XXX%XXXXXX%XXXXXXXXXXXXXXXX%%@@$77#@##$##$XXXXXXXXXXXXXXXXXXXXXXXXXXXX.                                                                                                                                                                                 ",
"                                                                                 .XXXXXXXXXXX@700866668887887eqzmzqqqkzzzzkw7780qqqw886660wwwqkq0086###5567########%%%%%$786#6xx77ikw***0T^TT^^)))ZAAZT)))c**787766675##$$#######$@@#@@@%+++%%%%%%%%%XXXXXXXXXXXXXXXXXXXXXXXXXXXXXXXXXXXXXX@7>@@%%@$##XXXXX%XXXXXXXXXXXXXXXXXXXXXXX                                                                                                                                                                                 ",
"                                                                                  XXXXXXXXXXX7e887766788680760qzziw000qqqq067680qqq0877780000qw8666667555###########$%%%$####6kzq780w7$$7CCBBCAZACncnVCAZA7$$$@@#@#%%XXXXXXXXXXXXXXXXXXX%%%+%%%X%XXXXXXXXXXXXXXXXXXXXXXXXXXXXXXXXXXXXXXXXXXX$#@%%%%@#%XXXXX%oXXXXXXXXXXXXXXXXXXXXXX.                                                                                                                                                                                ",
"                                                                                  .XXXXXXXXXX777677778876q0780q00088677786777778qqw87*##76666775##*760067##4775#####%%%$##$$#60qk05*88*$#dcxdxccmxddxcnnVc$+++++XXXXXXXXXXXXXXXXXXXXXXXXX%#$$#+XXXXXXXXXXXXXXXXXXXXXXXXXXXXXXXXXXXXXXXXXXXXX@#@%XXX%$%XXXXXXXXXXXXXXXXXXXXXXXXXXXXXX                                                                                                                                                                                ",
"                                                                                   .XXXXXXXX%77777777887qk768660qq8888867*#*#**7wq8777*#76677*##$#7688e8e07#57668867755##%%%#60qqq6$#7*##dnxdxcnmxmmmccnm0+++$%%%%%%%%XXXXXXXXXXX+X%%XXX%%@$##@@@@@%+++%%+%%%%XXXXXXXXXXXXXXXXXXXXXXXXXXXXXX##%%XXX%$#XXXXXXXXXXXXXXXXXXXXXXXXXXXXXX                                                                                                                                                                                ",
"                                                                                    XXXXXXXX>87777777877x8708770q088888876888666087*775577775####$7600668e654#768000ww05%%%##60q0005%%*$#xAAAAACBBBBCCCBi*$$$#**#***#$@@%@%%%%%%##>8#XXXXXX%%%%%@@###@#########@$@####$$$#$###@@#%%%%%%%%%%%#7#%XXX%#$XXXXXXXX%XXXXXXXXXXXXXXXXXXXXX.                                                                                                                                                                               ",
"                                                                                     XXXXXX>w77877>7707787wq0wqzziqqqqqqqzzkkikq087##4557775###@@$780we6756e4#57788865#$%X%#78wq6767#%77#c)))))))^)^TTZMxww0ww0000888676777>777888007#@%%++%%%%XXX%++++%%+%%%%@@@%$#$@@@@####*557**#######$$785@%%%@##XXXXXXXXXXXXXXXXXXXXXXXXXXXXXXX                                                                                                                                                                               ",
"                                                                                      .XXXX7d>77>>77886760zzsmbncvvvvmmcVnbvbcxkqqw65##44777#$@@@$7eqjqqe7786ewqixck6$%Xo%%*8qqm6#57##*65C))))))))))))Adwiwwiqqqwqqq000008800wwqiqw00876777>>###$###@%@@@@@@@@@@%%%%X%XXXX%+%%%%@%%%%@####$#8w7#$%@$-4%XXXXXX%X+%XXXXXXXXXXXXXXXXXXXX                                                                                                                                                                               ",
"                                                                                        .XX$078>>>770770zxmcnCAACVVnnbcbVnCACnmxzzk0e6547774##@@@$78qjkjq08e660wkxMAv6$..%#>8qzb05#77##67nTT^^ZT^^^^)Zcw08888000088888888880wqwwqidw8887767676767777777777777777>>>666767667888888888888888qq8#@@%%$75%XXXXXX$%>8+XXXXXXXXXXXXXXXXXXX                                                                                                                                                                               ",
"                                                                                          X>e8877778870xncnSCZZZAACVMMMVCCAACVncmmzqqq0e8674$@@@##7800wqjq00655560kVMz*%%$*680qbq7#*77#77mCCCCVVBBBCCBci7777777777776768880qwwqixmmq86777>****>>>>>>>77777777777777777777776680000qqqqzxccbCz7%XXXX%$#%XXXXX$77>di>+%XXXXXXXXXXXXXXXX                                                                                                                                                                               ",
"                                                                                         .@7e8668888wicMncnVCCCCVnncnnnnCZAnnMVMnvxzkjq000065#$@##78e6e0q00wqe7##50xxi87**78888mz7##76#57qmcccmxmmmmcnnw+XXXXXXXXXXX%%%%%#*77670q88*%%>7*$@@@@$@@$#***##44777777777*#445#544r77777776668qzzzz7XXXXXXX%#%XXX@708>7c99,>+XXXXXXXXXXXXXX                                                                                                                                                                               ",
"                                                                                         %ew8778wwqzmmcxdzxzmmzzxxxmvcnbbbcnnnnnnbvmxk066000874$@#788e0q0680qq06*$*8q08880wi077dv6##76#578qzxdiiddddzxx0XXXXXXXXXXXXXXXXXX%%%%X+%X%+XX%##@@@@@@@@@$####$$$#####574####r-#4############477770w7XXXXXXXX#777#70098>099999>$+XXXXXXXXXXX                                                                                                                                                                               ",
"                                                                                        .-ee677qizmnncd00www00wwqqizxmvcvxkzmmcnnnMnmk066ee6886*@@#6ewqkq8760qw05#$#58780iii877zb8###77##7800880wwwwwii7XXXXXXXXXXXXXXX++XXXXXXXXX%%XX%@@@#$%@@@@@#**##$##@@@@@$$#@@@@$$#@@@@##@@@@#$@$$##$607XXXXXXXX%%7qcnci998*>p99999,>@XXXXXXXXX                                                                                                                                                                               ",
"                                                                                        %we868wxcnMmxmq00q00000000qqzzmmzzqizzxcnCCCbbnSnbj7#5775##460kkk0557eqw87#%X$70wixm8*7ic8#$$$###$76677788880w0$XXXXXXXXXX%%%%%+%%XXXXXXXXXXXX%@#@##@@###>777767#%+%%%%%%%%%%%%%%%@%%%%%%%%%%%%@$$#*67XXXXXXXX%$#wnCAMcfd8>f2999999e7>%XXXXXX..                                                                                                                                                                             ",
"                                                                                        rr>88qnBCCndxi000008880000wqizzzzzzzzzxcMCAACAZZZZCk6##577@%#8qjj8###5eqw05%X$7iidmmw**dz7#$######$*>7667677886+XXXXXXX%##*##+XXXXXXXXXXXXX%XX%@##@##>77768888887%+%++%++%%%XXXXX%%XXXXXXXXXXXX%@$$#77XXXXXXXXX%#8znMMBTABp2p999999999,>$+XXXXXX                                                                                                                                                                            ",
"                                                                                        r%0izMZABnxmxw08088866800qqzzxzzzmmmmmmcnSSnbSCCA)ZAbq06687XX5006#X%#70qw05XX%7iimcmi87w85$$##$##%%##**>>*7867#XXXXXXX%@@@%%XXXXXXXXXXXXXXX%%X##77768800088888888*+%+++%%%XXXXXXXXXXXXXXXXXXXXXX%#$$77%XXXXXXXXX@7qxxdifNBc,992999999111,,>@+XXX.                                                                                                                                                                           ",
"                                                                                       %0@dnCZZBcdii888888677660qkzzmmzxxzzxzzzzkqqqwwkzvCVZZCckqw07%#6e6445#76007#%XX*wdmcmii887*####$##%X%77768808>@%XXX+%%%+XXXXXXXXXXXXXXXXXXXXX@+780000w008667>767887%XXXXXX%XXXXXXXXXXXXXXXXXXXXXX%%#$-7%XXXXXXXXXX$8wip9pppip,3992199911991,1,>++%o.                                                                                                                                                                         ",
"                                                                                      o7mcAZZAnmdqi077778877880qzzmxzqqqqqqw00867576e0wjkmVAZAAMzkkzq88e7457##78e5%XXX#8zxxiii808*#####@%%X%70qxq006#>776886@XXXXXXXXXXXXXXXXXXXXXXX#6qzqww0867r##$@@$7878$XXXX%%%%%XXXXXXXXXXXXXXXXXXXX%@#@#7%XXXXXXXXXXX*88888ppipp*,9999999299999,,,>;+XX.                                                                                                                                                                       ",
"                                                                                     X7dVAAACnmxizi877>776680qizzxzq000888867775##76800qqkmnCCZZMmkzxq0e866774788#XXX%#6ixiwww0007*$##@%%%X%##707>*##6wiqqzxxiqw088775#$##@%%XXXXXXX%6qq87774#$$$#@#7>$7>7$XXX%%%X%XX%XXXXXXXXXXXXXXXXX%%@#@#*XXXXXXXXXXXXX$****<<288<*,p9911999999>+>19,>@+XX..                                                                                                                                                                    ",
"                                                                                    .7znCACnncxzmczw87777768qxzqqqq080088886777*5768880qqjzmnVCCCmqqkjqqqkq6776e7%XXX#$#0xxw88**687####@%%XX%#*#+XX%X@88>6qxcnnnnnncmzzzqqq0086774###7067###$$$$$#*778#7#7%XXX%X%++%XXXXXXXXXXXXXXXXXXX%%#$###XXXXXXXXXXXXX%%%O=**<<<<<3,,,,122991,++19991,>:++%X.                                                                                                                                                                  ",
"                                                                                   .%0cCCnccnncmncxii087770idiw00888800088866777768886800wqzmcnCCbk000680we677664XXXX###7kxq65$$#66###@@%XXXX%7@XXXXX%@%%#60qzxmmmzqq00e00000888666666877###$$##>7q077#7#>%XX%%X%%%%XXXXXXXXXXXXX%++XXXXX@####XXXXXXXXXXXXX%X%OO=*****<<*,222221,,3@>1999911,,,>$+Xo.                                                                                                                                                               ",
"                                                                                   %@9cncxxcnMMBMmxxxiw80wdi078877770wqw00886666888887760wqqzmbbnnmq0675#4554455%XXXX####ekw7#%##767$@%%%XXXXX#@XXXX$#$XX%#76800008677##$$$#@@@%@@$$$467#$#$$$$$70zq##$>@#XXX+%%+++%XXXXXXXXXXXX%%+%X+XXX+%%##XXXXXXXXXXXXXXXXOO==**=**7+*222<<,<333,19999111,199,>@+X.                                                                                                                                                             ",
"                                                                                  o@-wmxkixMCCCCMncncxddxdw877776776800qqw088888888887760wwqmncmbnbq06884%######XXXX%###47085%%##468#XXXXXXXX%#@XXXX%#$%%##577777>**5#$@%XXXXXXXXXXXX@6677-#$$$$>608#@%#@+XXXX%%%%XXX%XXXXXXXXX%%%+%@7>%XX+@77XXXXXXXXXXXXXXX%OO===****<=O:3<<<<333,,11999911119999,,>@Xo                                                                                                                                                           ",
"                                                                                 %@>7wqwixMCAAAACMMMnnncxiw00088887788800000088888888668000wmCnnCnbz06006%%%###%XXXX%%##5575#%#55476#XXXXXXXX@$#%XXX%##$@$######$$####@%XXXXXXXX%@XXXX#6677777#$-7877##7#@%X%%%%%+XXX%XXXXXXXXXXX%%+*876%XX%76XXXXXXXXXXXXXX%%++===******++,<2<33:3<,,11111111199999999,$+X.                                                                                                                                                        ",
"                                                                                o@->7e87wnCCCAZZCMMCCCMmxiw0wwwiqw88088000008888888866688888wcCAAnmqq0006#%%%%@XXXX%###4775#%%#57477#XX%%XXXX##$%%XX@*7##$##$##@@$##@%XXXXXXXX%7w8XXXXXX%XX%@###7777776666#>77777*###%%XXXXXXXXXX%%+#688%XX#67XXXXXXXXXXXXXXX+$===*******=O2<2<::::33,,,111111111111999p9,>+X.                                                                                                                                                      ",
"                                                                               %@->77068iMCCAAZZAAAZAMmxdiiwidxdiqw000qqqqqqw088866666668e008qbCCnbzq0006##@%XXXXXX%####774#%##55577#@@#%XXXX$##$@XX%#7#$$$$$$$%XX%XXXXXXXX%#6867#XXXXXXXXXXXXXXXXXXXX%+%#%##*7767888677777#$@@%@@%%@766%X%#88%%+XXXXXXXXXXX%+====********O<<<<::::::333,,,,,111,,,,,19299913@+o                                                                                                                                                    ",
"                                                                              o->>77eq8wmMCCZZZZZZTZACcmxxxxxmmmzqqqqwizzzzzz0888666666880qw00zcnnnmq00887$#%%XXXX%#####77#####55476$###%XXXX576*$%XX$*##@##%%+XXXXXXXX%@$#78e67#@XXXXXXXXXXXXXXXXXXXXXXXXXXXXXX+%%@##$$$#4#44*###@@#667@@#>8q*#%XXXXXXXXXXX%+===********=&*23:::::::::33<<<,,,,,,,<,,33,19911,>$X.                                                                                                                                                 ",
"                                                                              @->>eewd0wnCACZT())(TZACnnmmmcnMMncmmxzzxmcbcmzqq0006668666wslqwqzmbnmww0e865#%XXXX%####5767#####4##7e#$#%XXXXX@#7#@%XX@>$%X%XXXXXXXX%%###*77668wz6%XXXXXXXXXXXXXXXXXXXXXXXXXXXXXXXXXXXXXXXXXXXX%@@@@%#78867778z7%XXXXX%**+XXXX%+==*********&=<:+::::::::::333<<,,,,,,,,33,,1119999,-+X.                                                                                                                                              ",
"                                                                             %7r-709ws0inAAVZT))((TTZACBMMMMCCBMccccccccbnncbmxxzkq086666wqzqwqzzmcmzqw0867$#XXXXX%###6667####55###6e6@XXXXXXXXXXXXXX%*$%XXXXXXXX@#*7668888ewqzc6XXXXXXXXXXXXXXXXXXXXXXXXXXXXXXXXXXXXXXXXXXXXXXXXXXXX%%@*67>607%XXXX%<mMf9*%XX%==*********=&<+O::::::::3::::::33,,,,,,,,,,1111199999,$+X.                                                                                                                                           ",
"                                                                            o-rree00ww8dnCAAAZ))))))TZAAAAAAZZACBMnnnnnnnCnbncvcvmcmz0676wqqqwqzccmxmzw0667##%XXXXX%##5455###575#%%#66%XXXXXXXXXXXXXXX%%XXXXXX%#>80086680qkzzvxx0XXXXXXXXXXXXXXXXXXXXXXXXXXXXXXXXXXXXXXXXXXXXXXXXXXXXXXXXXXXX%%%XXX%>fBBBBMf<$%O&==*******&&2=+:::::::::::::+++::3,,,,,,,,111,,1199999,>@+X.                                                                                                                                        ",
"                                                                           o$7eeewwwww8inCAAZ(()))))))ZZAAAZZZACCVnnnCCCCCMbbnbncbnbmkw80wwq0wqzmccmccj06677##XXXXX%4##%#4###5777%%%#5XXXXXXXXXXXXXXXXXXXXXX%>8680qq8880qqqw00#7w%XXXXXXXXXXXXXXXXXXXXXXXXXXXXXXXXXXXXXXXXXXXXXXXXXXXXXXXXXXXXX%XX%*fBPPPPBPBfy*&&&==*****=&<:++::+++:::::::+..+::33<,,<3333333,1999999999>+XX....                                                                                                                                  ",
"                                                                           @>7ee0www066icCAZ())))))))TZZZAAAACBMMMMCCCCCCCCnbnVnbbcmxzqqw0ww00qjzmbvcbxq866667@XXXX%74%%%#4###786#%%#8@XXXXX%XXXXXXXXXXX%5###7*@700qw008677#$#%X0$XXXXXXXXXXXXX%%%XXXXXXXXXXXXXXXXXXXXXXXXXXXXXXXXXXXXXXXXXXXXXXXX$iNBPPPPPPPPBNp<&&&=***==O*<:+::+O+++:::::+oo+@:3333333::@@*3,,,111999p99,>$$++XXXo                                                                                                                               ",
"                                                                          o777eewwww088qvVZ))))))))ZAAAAAACCACBMMMMCCCCVMnCCCCCCCCbvmzzq08wqwwqqzxcmmmzzq066686%XXXX#7%X%#54##560#%%7q6XXXXXXXX%%XX%@#@76677##*7wzzq6775###$$@%X87XXXXXXXXXX%$77777$XXXXXXXXXXXXXXXXXXXXXXXXXXXXXXXXXXXXXXXXXXXXXX*xMBPPPPKPPPPPBNfp<==**==&<p::+++O+++::::::+++:::::3333:+OO+3333,,,,1999999991,>+XXX.                                        ...Xoo.                                                                              ",
"                                                                         o;9,7eewww00w7wcZ)))))))ZAAACCCCCCCCMMnnnMnnnnnnnnCACCAZZMCnmzqw00qqqqqzzzvbcxxzqe66e64%XXX%%XXX$555##7e7##0z0@XXX%%XX%+%$686777##778qqxiq0##$$#4#$#@%X78XXXXX##@#780qqw088>XXXXXXXXXXXXXXXXXXXXXXXXXXXXXXXXXXXXXXXXXXXXX*mNNBBKBBKKPPPPPPPBf<====&=<2<:::++++::::::::::::::::::::++::<<<<3++:,,999999999,>$+XX.                           .......XXXXX%++@;;@++oo.                                                                        ",
"                                                                         @,977e00eeeeq0wnT)))))))ZAACCMCCMnncccnnnnbcccbbnnCCnVAZZZZAncmzwqqqzzzzzzcSnvvmk06ee66#%XXXXXXX%*575##66##0z0@XXXXXX+#7806#7##770qqq067#$##$#$#4##@@XX#w+%@#60000qqqsqwq800%XXXXXXXXXXXXXXXXXXXXXXXXXXXXXXXXXXXXXXXXXXXX*dfffNBBBKPPPPPPTTTPBggfpy=&O+<:::+++::+++::3:::::::::::::::33<<<:OO:333,199199991,>@+XX..                     .oXXXXXX++++;@@@@;>33333>@@%%.                                                                     ",
"                                                                        o>99eew00eeeezzdC)))))))(ZZAZACCCnnncnnnncccmmbnnMVCnbnVCZZZCnCACnmqqxzzqqxvnbbncmj0eee864%XXXXXX%#775$#8e##0z0@XXXXXX%7007%X70qszzq6#%%#%%%@$$$###$@%%X+q6>wszxzqw07>>#@*6007XXXXXXXXXXXXXXXXXXXXXXXXXXXXXXXXXXXXXXXXXXXX>ppppfNNNKPPPPPPRRTPPPPKKNpp=+<::::++::++O+:3::::::::::::::3333<3:oo:33333,,,,1199991,>+XX..                 .XXXXX+@;>>>>,,1,,,,1111111,3>:@@%.                                                                  ",
"                                                                        @eswwww900wwqzmcC()))TZZZZAZZAAAAncnccbcmmmmbCACCMnnnbbnnCCCnbCZZZCvzzzqwqkxmvnncvzq0eee864@XXXXX%#775##00##0ke%XXXXXXXX%%%X%qbczw7#%%%%%%%%#$$####$#@%XXwmzmzzq07#%XXXXXX#q86XXXXXXXXXXXXXXXXXXXXXXXXXXXXXXXXXXXXXXXXXXXX*<<<ypgNBKPPPPPPPPPPPKPPPTKggpp2<::::::++O+::::::::::::::::333333:.O:333:333333,11999991,$+XXo.         .oXX+@@$$;->,1e999999999999991999911,3>@+oo.                                                              ",
"                                                                       o77ewwww009ddzxxnCZ(TZZZZZACVAAACnnncmmmxmMCCCAACnnnbbbcnnnbccnCAZZACcs0qqqqzxvnnvxzkkq0ee06#%XXXX%#57*#508#40k8@XXXXXXX+%XXX%qmw7-$###%@%%%#$######$##%XX7dd06>#@XXXXXX%@#%q87XXXXXXXXXXXXXXXXXXXXXXXXXXXXXXXXXXXXXXXXXXX%*<*&=ypfgNKLPPPPPPRRRPPRPPPRPNfypp<3:::+O+++:::::::::::::::333333+o%:3::::33333:33,99999991>@+XX.    .XX+@->,119999999999999999999999999999999991,>:@o.                                                           ",
"                                                                      o-e76ew0990wzmmmmvVAZTZZ()ZAMnnnnSnnncccccVZTZCnnnnbbbbbbnCCCbcbMCCCCCnz0e0qqkxxvbmzkkkkq0qq07#XXXXX%*5*#*86#50q8#XXXXXXX%#%XX%687##$$$$@$####7########@%XXX%$$@%XXXXXX%**>8$877XXXXXXXXXXXXXXXXXXXXXXXXXXXXXXXXXXXXXXXXXXX+><*&==yyuggKKLPPPPPRRRRKfNPRW~PKgpppy3:+++++::::::::::::::::33333:+:333:::3333:::33,9999999913>+XX..X+@>,1999999999999999999999999999999999999999991,>@@%..                                                       ",
"                                                                     .rww77eee0wwwmnnxzxnAZ())(ZZACnnnnnbbcccnMCAAAACnbccccbbbbnCCCbcbnSnnnbbxq0eewqjzvvzkkkzkjqqqq64%XXXX%*5*$#75450q6#XXXXXXX%@@XX@#777#$$####$#@########$@@@@%XX%%XXXXXXX%0nx#8787>XXXXXXXXXXXXXXXXXXXXXXXXXXXXXXXXXXXXXXXXXXX*<<=&==3yyagggKLLLPPPRRPgaKRRRR~~~Pguyy<:::::+::::::::::333:::33<3:::<,,3:::3333:::33,1111999999,$$$$->1999999999sdds9999999999999999999999999999999999,3>>:@oo.                                                   ",
"                                                                     @ws07eee70wdxcnmxxvCAZZ)))ZACMnnnnnccxmcnCnnCCCncnnnnbMCnnbnMnccbcnCncxvvxzq80qkxxkjjzzvxzjqqq0r#%%XX%#5#$###450q6#XXX%XXX@$@XX@>7777###4###$@@$$$$$$#%%%X%%%XXXXXXXXXX7qZA7#76##XXXXXXXXXXXXXXXXXXXXXXXXXXXXXXXXXXXXXXXXXXX***====yyuyufgFKKKLIIIPKgPRRRRRUUW~~Pgppppp2:::::::::::::33::33::3<,<<<,<33:3:33:::333,,,,111999999099999999s9999sss99999999999999999999999999999999999999991,>>++o                                                ",
"                                                                    o-9weee7->7wxmcmnmmnAZZZ)))ZZACnncccxxcnCBnnnnnCnbnnbbMAACCCCVnnnMnnncxzvxzvxq0qxvxq0wqzxvvkkjj04####XX###$##455eq6#XXX%%X####X+#77>####475##$$@$$###@%++XXXXXXXXXXXXXXX#6mm#%###%XXXXXXX%XXXXXXXXXXXXXXXX%%XXXXXXXXXXXX%XXXX***=<yyyyytyagFggFKLLPLFKRRRRURPPP~!!WPgfuppp<:::::::::::::::3::::3<<::<<<3:::::::333,,,,,11111999999999999999999999999999999999999999999999999999999999999999111,>++o.                                            ",
"                                                                    @e99777$$>0ixcncvmvVAAZZ((ZZZZZAVncmxmcncccnnbnnccnCCCCAZZZZACnnnCCncxkkxxxvvxjqxcm066ewjzzxmvz05#477$X%#$####55eq6#XXX%XX#45@@@777>####476774#$$$$#@@%+XXXXXXXXXXXXXXXXX@77$X%@@%XXXXXXX07XXXXXXXXXXXXXXX*06%XXXXXXXXXX%XXX%***<yyyyttyyuggggggFFKLLIUURRRRPPPPWQQQ!WIgupy2:::::::+++:::::::::::::::<<<<::3:33:3,,,,,11111999999999999999999999999999999999999999999999999999999999999999999999,,3>@+o.                                        ",
"                                                                   %7e,>777r7wzmmmmmxmnVAAAZZZTTZACCCCBCCnccmcccnCCnzmMAACCCCAAACVnnnMnczqqjxvmvxxvxxvvq668e0qzxvnvqe67767%X%$$$$4550q6#XXX%XX###%%#787#$$###$457777#$$$@@@%XXXXXXXXXXXXXXXXXX+%%XX$@%XXXXXX%z0@XXXXXXXXXXXXXX80q#XXXXXXXXX%%XXX%***<yyyy=tyyuauuggggggFKIILIUURRPPPRRRW!//!UGhppp2<:::::::::::::::::::::3<<<<33::::3,,1,,11111199999999999999999999999999999999999999999999999999999999999999999999991,,,>:@+o.                                    ",
"                                                                  X7w7--78ewzxmmxkkxxmnMVAAAAAACMMMMnVCACcmmmcccccczzmnCCVCCCCCCCCVnMnczqwqqxvxzzmSScmvkeeeee0jzvvxjjqq866#XX$##$#77ew8$XXXXXX%7$XX%70#%X%%%%%#%@$$#$##@@@%XXXXXXXXXXXXXXXXXXXXXXXX@$%XXXXXXX6#%XXXXXXXXXXXXXX#>e@XXXXXXXXX%XXXX%+=*<<yyyytyuuuyyagggggggKLLLIURRRRRRRUUUW//_/UFgfupp2<<::::+:::::::::::::<<<<<:::::<,,1,,,1111111111111111119999999999999999999999999999999999999199999999999999999999111199,>$+o.                                 ",
"                                                                  $wse778ewlzzzziiiqixnnMCAACVMMMMMnnVBMnmxxxdiiqzqqqzmbnnnnnnCAAACVnczkq00qxvvkzxnnvmnx0e866ewlzxzzmxjw867%X@##$#778q6$XXXXXX%67%XX@6#%XXXXX%%X%X%%@@@%%%%XXXXXXXXXXXXXXXXXXXXXXXX%@XXXXXXXX%%XXXXXXXXXXX%%XXX@#XXXXXXXXXX%XXXXXO+&==yyyyyyyuuyyaggHggggHGLLLUURRRRRUUIIIRQ//_/WLFhpppp2<:++:::::::::::::<<<<<<3<33<<,,,,111,1111111111111119999999999999999999999999999999999999119999999999999999999999999999,>@@+o.                             ",
"                                                                o@7w99778ewljqqqqqqikxnbnCACVMVVCCCAACncmxxzqq00wqq000qzxmmmmcCAZZCncxzkq00qzvvxvvvvxvnxqe6776ewqzzvcvzq0e6@XX%##4778w7#XXXXXXXX%XXXX#6$XXXXXXX%#@@%%%#%%X%XXXXXXXXXXXXXXXXXXXXXXXX%%XXXXXXXX%XXXXXXXXXXXX%%XXX%%XXXXXXXXXXXXXXXXXO&&==yyyuyyyyyyaaggggggHFGLLLYUUUUUUUIIIIIUW/_//!Ugfpppf2:+:::::::::::::<<3<<<<<<<<<<<<<<1,,,,,1111,,,1,,11119999999999999999999999999999999999911999999999999999999999999999991,,>>@@+o.                         ",
"                                                             .@-@>7ee77rreeee0qqqqikkxcnbnVnMVCCAZZZZZCcmxzqw088888880wqqzzkqqzcnCCczqwqq0000qzvcvvxxvnxq0676688qqkmcmzq008#%X%$$-76808$XXXXXXXXXXXXXX%%XXXXXXX%#$#$%X%%XX%%X%%XXXXXXXX++XXXXXXXXXXXXXXXXXXXXXXXXXXXXXXXX%@+XXXXXXXXXXXXXX@XXXXXXXXO&&&<yyuuuuyyyuaayyggHHHFFFGLLLIIUUUUIILKGLRWW/``/~Pgffff2::+:::::::::::::<<<<<<<<<<<<<<<<,,,,,11,,,,1,,,1111,1119922299999999999999999999999999999999999999999999999999999999911,,,,,3>$+o.                     ",
"                                                           o%$77->>77>-$r66eeewqiiikkxvvcnnCCCCCAZZZZZAnccmxzq0888887880wqqqqqqzmnCczqqkkqq08qzvvcvxxvcxqw8666880qqzccmz0w87@X%#$#76688#XXXXXXXXXXXXXXXXXXXXXX%@#66#XXXXXXXXX%X%%+XXX%#@@%+XXXXXXXXXXXXXXX%XXXXXX%%XXXXXX@#@XXXXXXXXXXXXX%%XXXXXXXXXOO&=yyuuuaauyyyyttugggHHHHFFFFFGYUUUUUULLLIIURW//``!PBgggp2,:::::::::::::::<<<<<<<<<<<<,,,,,,<,,,33,1,,,,,,,,,,122221229999999999999999999999999999999999999999999999999999999911,111,,,,3>@+o.                 ",
"                                                         .@777e0e7>>>-$$6ee0e80qqqqqkxmmmbCCVCCCAZZZZZAncnnccxdqq00888880wq0000izmmxkqqzzqqq00kxvvvvvnnvkq06668800qzvnnmqqw7@X%##$76688#XXXXXXXXXXXXXXXXXXXXXXXX%#@XXXXXXXXXXXXX%%%%@#>>*#@%XXXXXXXXXXXXX%@@%XX%@@%XXXXX%#75XXXXXXXXXXXXX%XXXXXXXXXXXX&==yuaaaaauyyyttuggggHHHHHgguuHLLIIUUUIIILLLIUW!```QWPFgffp2<::::::::++::::3<<<<<<<<<,,,<<<,<333333333,,,,,<,2122222229999999999999999999999999191111111999999999999999999999911119,,,,,,,,3$@o.              ",
"                                                       o@-wxxddw07>>---7e000e0wqq0wqkzvcvcbnnCCACAACCCAACnncccmxziwwqw00ww00880qxxzzqqqzzkqq00qkxmvvvvnvzqw6668880qzmbnczqw6$XX#$#76766$XXXXXXXX%+%%XXXXXXXXXXX@@$XXXXXXXXXXXXXXXXXX++%*7>#$+XXXXXXXXXXXX%@@#%%%%%%XXXXX%#77%XXXXXXXXXXXX@XXXXXXXXXXXXO&&=ypaaaaauuuyyuaauagHHHHgaytugFLLIIUIUIILLLLIRQ!/``!WIggggfpp2<:::+++::::::<<<<<<<<<33<<3<<3,,,,3333<<<<<<<,,,,,<1122999999999999999999999999999911111999999999999999999999991911,,,,,,,,,,33>@+o.          ",
"                                                     .@70scSSbmzwwe7>>70wqw00qqq000wikvvvxxcbCAAAZACVMCZCnncmmmvcmxzddiqqqw0000qqzzzxxxzzzzjw0qkxxnCnncmzq08666668wqzbCczq07$XX$$$78767%XXXXXXXXXX%#XXXXXXXXXXX#%7@XXXXXXXXXXXXXXXXXXXXX%@##%#%XXXXXXXXXX%@@#%%%%XXXXXXXX%47@XXXXXXXXXXXX%XXXXXXXXXXXXO&&&tyuuaaaaaauyyyytyuagggggytuugGLILLLLLKLLLLLLPW!/``/!WUKghfffp23:+++::::::<<<<<<<<<3::3::3<,222,,3:33333<<<3:3,,,222292299999999999999999999919999111999999999999999999999999911,,,,,,,,,11,,,,>@+o.       ",
"                                                    o-19zbSSSSbvzdw0eewqiiqqqikqw000qzvvxxvcnnCCCAZZACVVCACVnnbcccccmxzzzkq0000wqqzxzzzzikzk00qzxmnCCCnxqq0886777680zbCczq07#%X$#$#700#XXXXXXXXXXXXXXXXXXXXXXXXXX@%XXXXXXXXXXXXXXXX#$%XXXXXXX#@XXXXXXXXXX%$$@%%%%XXXXXXXX%##%XXXXXXXXXXXXXXXXXXXXXXXXXOOO&=yuuuuaaaaauyytttyuaggggaugggFKLKGGGgugLLIIIIPPWQ!//`/!WFggff2<3::::::::::3<<<<<<33::::3<<<,<<,333333:333::::3,,222212121292999999999999999919999911999999999999999999999999991,,,,,,,,,,,,11,,>>:@++o.   ",
"                                                   %,99dmSCSSSbvmzswwszzdzzzzzkq00e80jzxxmcvccnnbnCCnnMCCAAAACCBBMnnnccmmxq000880qkxmmmxkkzzqqwzvcnbbSbzqw088677578eqcnczw074%X##$$>00@XXXXXXXXXXXXXXXXXXXXXXXXXXX%%+XXXXXXXXXXX%7600876*%XXXXXXXXXXXXXX%@$##%%%XXXXXXXXXX%%XXXXXXXXXXXX%XXXXXXXXXXXXXOOO&=yyyyuaaaaaauuuytyuaaugggFHggDFGGGFFguaGYIIIIKgKWW!!////QWPKgffupp<:::::::::333<3<3333<<<<<<<<<<1999ppp21<3:33<,<<<<21111111199999999999999999999919999999999999999199999999999,,1,,,,,,,,,,,,,,,,,,>>$@+.",
"                                                 .@>99wdmSCSSSbvmzdsdmvmzzzzxxzjq0868qjzxmxvmmvmmmccccnCCCCAAAAAACVnnnnccmzqq06000qzzmvvxzzzqqwkbCCSnAAcq0e6ee67#760qznbqw074%X@##$$6e@XXXXXXXXXXXXXX%6#XXXXXXXXXX%@@##XXXXXXX@77788888888*%XXXXXXXXXXX%@###@%@@%XXXXXXXXXXXXXXXXXXXXXXX%XXXXXXXXXXXOOO&&&==tttyuaaaagagguyyuauuyugGHggggHFFFFDgHLYYUUIguFUWWWWWW!!!!QWIFggff2<::::::::33333333,11122222pffNNBBNNNfffp2,,<<33:3<,,,,,11119999999999999999999999999999191111999999999999991,,111,,,3,,,,,,,,,,,,,,3>+",
"                                                .+>>e0wdmnCCCCSnbvzsxcccmzmmxxzkqq0660qkzxxxzmmmmzzxxmnVCCCCCCAACBVMVCCCnbmqq00qq0qkzxxvvzq0wqqjmnnbcCCnk0e6e0e6776e0znbq0w87%X%$#$$70$XXXXXXXX%%%XXX#$@%XXXXXXXXXXXXXXX%####77>76677766788877$XXXXXXXX@@@###%%%XXXXXXXXXXXXXXXXXXXXXXXX%XXXXXXXXXXOOO&&&&======tyuaaaaggguuugayyyuHHggDHHHHFGGJJLYYIIIguKUUUUIIUWQQ!/_!WULFggfp<::::::>>>>;@:>,19ppfffgNBT^~QQQQ~WTPBffp9,<::::<,<<,,,,11199999999999999999999999991111111119999999999991,1,1,,,,,,,,,,,,,,,,,,,,,@",
"                                               o--@-7e0wzvSSSCCCSSbnSCncccvvmzzzqqq080qkzzzxxzzzxzdizcMCACnnnCACCBVVBAACCVbzqqkkq0qzvcccvxjqjzzmbnnVVSnnzqe6e0e677780wbnqwqw7@%@###$70$XXXXXXXXX%%XXX+X@%XXXX+@XXXXXX%@@#wzq077>>677776666788887%XXXX%%@%%#%%%%%%XXXXXXXXXXXXXXXXXXXXXX%%XXXXXXXXXXXO&&======&&&=ttyuaaggggaugguyyuagggFGGGGFGGLLLLLYYLhuKIIIILLLIUWW!````/^LFgffp<:::::;;-;@>19pdfNBPPT^~Q_``````__Q~^PPBffpp233<,<333,,,1111999999999999991999999911111111111111199999999119,,,,,,,,,,,,,,,,,,,,,$",
"                                              o@>>>>>770szvbSSSSCCCAZZCSnbcvmzzzsqw00wdzzzzxzxzzzddizcnMBncmcnCCnnnVCAZACVnmzkkkkqqzvcbcvxkjkkkzvnVAZACVxj08eee677768wvbqwwq6#@%@###68%XXXXXXXXX%%%XXXXXXXXXX+XXXXX@>7780dq08677**>777677776678887#@%%%XXXXXXXXXXXXXXXXXXXXXXXXXXXXXXXX%%XXXXXXXXXXXO&&====t==&==tttyuuaaauuugguyyyuaggDGGKLGGGLLLLLLLFugJLLLLLLLLLLIRW!___`!WULgffp<3::>,19pdfNMBTR~QQ!_``````''`'``___Q~TPBgfp2213:>333,111111999999999999199999991111,,,11111111119999999911111,,,,,,,,,,,,,,,,,@",
"                                             o$@$>>>>>7ewdmcbSSSCAZZTACCSnncmzzzdsqwwzmcmmzxzxxzzzddzxmcncmxmcBACVnCZZAAACbvzkkzzkqqzvcbccvvvvmmvnnnCCCSmkqeeee8777780mbqwqw7#%X%@#707XXXXXXXXX%%@+XXXXXXXXXX+XXX#7000008008887777>**7777776777880087##XXXXXXXXXXXXXXXXXXXXXXXXXXXXXXX%@XXXXXXXXXXXXXO&&=<==t===ttttyyuuuuyyugguyyyuaggggFGLLJJJLLLLJJFhHLLLLLLLLLLLIIURWW!////WUKgfffpfffgBPTR^~QQ!_`````''```'''''''``___!~WPNffd9,33>>3,,,,,1111199999999919999991111,,,,11,11111119919999999911111111111,,,,,,,@",
"                                            .->$->>>>>77wzvnSSCCAZZZZACCCCnbcmxzzddqdmbnccccmmxzzzzzzzddxmmxmcMZ^ZZZZZZZACncvxxxxkjqjzvbncnnbnbbbbnbnVACvzq00000677680zcq0wq8#XXX%$787XXXXXXXX%$%@%XXXXXXXX%#6777087777778886667777****776677667888008>%XXXXXXXXXXXXXXXXXXXXXXXXXXXXXX@%XXXXXXXXXXXXXXO&=<yytttttttttyyyyuuuagaauuuuaHDaagDFGLLLLLLJJJGFGLLLLLYUUUIIIIIIUUWWWQ!/`/WKBBPP^WQ__`______``'''```'''''''''````````_Q~RPPNfff91,,333,,,,,119199991119992911111,,,,1,111,111111111111999111111111111,,,,,,@",
"                                           o%$-->77>>>>70dmcnSSCAZZZZAAAACnccccmvvmzzmbbnMnnvmxxzzdiiiddxxmxxcBZ))ZZZZZASnnbbncvvxzqqqzmvvcbvxxmmvcnVCZZczjqwwqq066e00qzw08w07%XXX@78#XXXXXXXX#7*$$+XXXXX@>80wqw6#%%XXX+%#>66677>>>*#$##*767777776688087$*XXX%@@%XXXXXXXXXXXXXXXXXXXXX@%XXXXXXXXXXXXXXOO&<<tttttttttttttyuuuuaagguuugGggauuaDFGLJLLLJJJJLLLLLLLUUUIIIIIIUUUURWW/````__```'''''`____```'''```````''`'``````````__!!!WPPPNfdp9,>>>>>3311999991111222221,,,,,,1111111111,,,,,,,,,,,1111,11111111,,,,,,@",
"                                         .%+o$--->>-$>>70szvbbSCZZZAAAACVnncnnnCACVcxzvnCACnmzxzziqwqqdddzxxmcnAZAAAAAACnnSSVSnnVnxqwwqkzmccmxxzxzvVCAZZnxkjqqqqw0888wqzq08006$XX%@#7#XXXXXXXX%@@%##+%+@*88>@*8008#%+X+%%%%$*7*****##**##*77776777777777mA6%%@$$@%%XXXXXXXXXXXXXXXXXXX@XXXXXXXXXXXXXOOOOO&&==ttttttttttttyyuuuaggaagggaaauuuuaDHGLLLJJLLLLLLLLLYYIYYYYUUUUUUWWWW/````''''''''```````````````````'`'```____``'`````__QW^PPBNfd99,3>>3,,11991111122221,,,,,,,111111111,,,,,,,,,,,,,111111111111,,,,,,@",
"                                        .-@@+@@$----$*>70wdzmvbAZTAAAACVnnnVCCCSnnnccvbVAACMmmmxiqqwqdziqidcnncnVCAACCACSSCCCnbSCVmkqqjkkjzxzkxzzznCAAZZbzkqqjwq0e866wqzm08w085%X%##7$XXXXXXXXXXXX%@###88#%XXX%%>8087$%%%%+%%@$#@@@##*>7>*$*7777>77>777>C)z8$###$@%@%XXXXXXXXXXXXXXXXX%XXXXXXXXXXXXXOOOOOOO&==tttttttttttyyyuuhgggaghuaaaaaauuagHFFFGJLLLGJLLLLLLLLLLIUWEEEWWWWWQ/```````````````````____`````````````_!!__`````````_!~WQW^PPNffp222,,,19991111222111,,,,,,,1111111,,,,,,,,,,,,,,,,,,111111111,,,,,@",
"                                       X$--$$$$-->>-@#>7ewzvvvbCZACCCCCCCCACCVnnnnnCAVVVCVnnccbczzzqqdiqqzxmcmmccSAAAAZZCCCCVnVCCnvxzkzzkqjjjqjkqqzvnAAAbkqqqqqq086800wzmq0qw07@XX@##%XXXXXXXXXXXXXX+%#6$XXXXXXXX%#>>*###%@+XX%%%%%%#>>>7>*#$>77>77>>*>@wcqw887##$$@@%+XXXXXXXXXXXXXXX%XXXXXXXXXXXXoOOOOO&&&&&=ttttttyttyyyyuuhahauauuaaaagggggDDDgDFGLLLKJLLLLGLLLLLLEWWWWWQQQQQQQQQQ!/````_``___``__!!!_______``_____/!!!__````````!!!!!!!~WPPBgfff9911921221111111,,,,,,,1111111,,,,,,,,,<,,,,,,,,,,,1111111,,,,$",
"                                      X--->>>>>>>>>-$->770wzzmcCAACMnnCCVMnnVCAAAACAAVnVCCnbcbnnccmziqqwwdxxmmmmcbnCCAZZZAACVSCACbvccvmxkqjkjjkzxvvbC(ZAnkqqjqqqqqe0w00zmqqqw8#XX%@$#%XXXXXXXXXXXXXXXX%>XXXXXXXXXXXXXXX+@##$#%%XXXX%*>>>>>>>#$@>77>>>>#+>88660067#$$@@@%+XXXXXXXXXXXX%%XXXXXXXXXXXXXoXO&&&&&&&&=ttttyyyyyyyyyyuuuuuuuaggggDDDDDDggggDFGGGGGLLYLLLLLLKLYEEEEWWQQQQWWWW^WQ!/!!!____`_____!!!_________________!/__!_`''``_!__``_!!WWWPPBNfd922221,,,,,,,,,,,,,,,,,,,,1,,,,,,,,,,,,,333,,,,,,111111111,$",
"                                     o--$$->>>>>>>>$$>>77e0szvSAAMnncnCVnnnnbMAACACCCCMCCVnCACCnnnccmmzxiwqwqizmmccbCAZ))ZCVnSCCbnbnnbcxkqqqqkjzxvbnCZZCnq00wqqw00888wqzmq0007@XX%#$@XXXXXXXXXXXXXXXXX##XXXXXXXXXXXXXXXXX+#*#$%%XXX%>>>>>>>>>*$@#77>*>$+>8776800067#@@#@#%XXXXXXXXXXX@XXXXXXXXXXXXXXXXO&&&&&&=====ttyyyyuuuuyyyuuhuugggDgggHGGFDggDDDHHHFFGGLLLKLYLLLGLUUUUUEWWWWQWWUUUWWWWWQQ!_______________!!//!!//__```__!!!_`'``````````//!!!!Q~^TBfffp21<,,,,,,,,,,,,,,,,<,,,,,,,,,,,,,,,,33333,,,,,,11111111$",
"                                    .@$-->>>>>>>>*$$$->>770szvbnnnnMnCCCVMnbnnCZACCCCMCCVMCAZACVMMbcnncczdqqqizmmmcbCAZ))(CnbbnMccnnSnbxkjqqqqjqzvcbCCVnbq6668000w000qzmbz0885%XX%@#@XXXXXXXXXXXXXXXXX@$XXXXXXXXXXXXXXXXXXX%%##%XX#>7677>>>>>>*###$*>*#+#7**788000086>##@%XXXXXXXXXX%%XXXXXXXXXXXXXXXXOO&&&========tyyyyuuuuuyyyuuugggHHDggDGGGDDDHDDDDDDDFGKLLGLYLLLKLLIIIIUUEEWWWWWUURWWWRRWWQ/__//_______///!!!!!///_`````!!!_```````````````_____!Q^PPNfffp9911,,,,,,,,,,,,,,,,,,,,,,,,,,,,,3333333,,,,11111111*",
"                                   .@@$->7>>>>>>>$@@$$>>>70wxbSncbnVnbnnnnnbnnbnMMMMnnMMMMCAACMMMnccnnncmziqqqzxmmmcnCAZZZnccbbbcbVCnnczkkqw0qqqzcCAZCbnnq66668ewiqqqkzmbzw67$XXX%@@@XXXXXXXXXXXXXXXXXXXXXXXXXXXXXXXXXXXXXXXXX%%%#78q0877>>>>**##$%+%$#$@@##*7780000087#+XXXXXXXXXXX%+XXXXXXXXXXXXXXXXoOOO&&===ttt==ttttyuauuuuyyyyuhaggDgDDFGGFFFHDDDDDDgDFFGGKLLIYLLLLIIYIIUUUUUUWRUUEWERIIUURWQQ!/!//____///!!!!!!///_____!!!!````````````````______Q~WPPPBNffp911,,11111,,111,,,,,,,,,,,,,333333333,,,,1,,11111*",
"                                  o$>$$>>777>>>>$@++@$>>770qmnSnbbbbvmcbnnbcnnbnnnnnnnnMnnMACCMMnnnnnnncmzqqqqxmmxxzmnCZACSccnCVnnCbvnczxzzq00qqkxbCCVCCCl66666eqqqqkzzvncw7-%XX%#@@@XXXXXXXXXXXXXXXXXXXXXXXXXXXXXXXXXXXXXXXXXXX%#60qq0877>***##**$%+X%+%$##**>778888866*@XXXXXXXXX+@+XXXXXXXXXXXXXXXOOOOOO&==<yttt====ttuuuuuuuuyyuuuugggDDHFFFGGFHDDFDDagDggDHGLLYIYYYYIYYYIUUUUUUUUUWWWUUIIIIUURWQ//////////!!!!!!!!!/!///!/!!/``````````````````__!!~~WWWWPPKNgfffpppp922,111,,,,,,,,,,,,,333333333,,,,,,,,,,11*",
"                                 .$>>-->>77>>>>>$+++$>>77eqxnnnbbvccxxmcbbcmccbVVVMCCBMnnnMCACBBCCCCnncmxzqqqzmccmmxxmnSnnVnbnMVVnnmxccxxxxzqqkkxmcbbCCCCze6666800wqkzxmbbw7@XXX%@@@@XXXXXXXXXXXXXXXXXXXXXXXXXXXXXXXXXXXXXXXXXXXXX%@7888007>***#$#$##+XX%####**#*767776688>%XXXXXXX##%XXXXXXXXXXXXXXoOOOOOOO&&===tt=====tttttyuuuuauyyyuuugDHFHHFGGGGGGFDDHDauuagGLLYIIYIIIIIIIUUIIIIIUEEUUIUIIIIIUUWQ!!!///////!!!!!!!!!!!!!///!!/_/_!!/````````````__!Q!QQQ!Q~WRPPPNfffffp11111,,,,,,,,,,,,,,33333333333,,,,,,,11$",
"                                 +;@;->>>>>>>>>$@+@$$>70wqxvccccvxvvvmmcvvvmcnnVVMMCCMnMCCCCCCMBCAAACVnxzzzzzzzmcnncmxcnbvvmvvbnCncxzxzqkxzjqkzqkmbbnSCCCz86666680qzxxxzzbw5%XXX%@@@@XXXXXXXXXXXXXXXXXXXXX%XXXXXXXXXXXXXXXXXXXXXXXXXXX%#8w077*#@$@%$%@%+XX%@##$$$##>>>777887XXXXXX+@@XXXXXXXXXXXXXXXXXOOOOOOOO&&&==========ttyuuuaghyyyyyuugDFHDHGGGGGGGGGGFayuuagHLLIIIIUUIIUUUUIILLYIUIIIIUIIIIIIIIURWWQ!!////!!!!!!!!!QQ!!!!!!!!!!!!!!//````````_``_!!!!!QQQQ~~~~WPPBNNgfp2222,,,,,,,,,,,,,,33<33333333,,,,,,,3,@",
"                                +>;$$$>>>>->>7#@%+@#70wwdmccvvcccxxzxzzzzmmcnCCCCnnnnccMAACCAAAZZAZZACVncmmmmzqxcMMncxxzxmvvbnCAAAMncvxkzzjqkmmkqzccnnnnCz87666688immmzxzcw7%XXX@@@@@XXXXXXXXXXXXXXXXXXXXXXXXXXX@>#%%%XXXXXXX@wdq0@@XXXX+@>687*$@$%%%%%%%XXX%%$#%$@@##*>7766@XXXXX%@%XXXXXXXXXXXXXXXXXXXOOOOOOOO&===========tyuauahgauuuuuuaDHDDDFFFFFGGGLLGDuuuaagFGLYYYIIIUUUUIILLLLYIYLYIIIIIIILLLLLIUWWQQ!/!!!!!!!!!Q!!!!!!!!!!!!QQ!!/////_```____`_/!!!!QQQ~~~~QQWPPKBgffpp2,,,,,,,,,,,,,,,<,33333333333,,,,>3+",
"                               X>-$>$->7>->>7-$%+@>ewzxxmnncvvmmzzzzzzzxmmmmbnMVMnnnnnVCCCAAZTZTTZZZZAAACCACbmzxcMMnmdqqqkzvCZZZZACnbvxkzxkkkzzzzzcbnCCCCm87777688qxxmcccbw7XXX%@#@@@XXXXXXXXXXXXXXXXXXXXXXXXXX@>7770q##$XX@ezCZZACnd7#XXXX%$>7$%%%%%++%+%XXXX%%%%XX+%@##*>77#XXXX%#+XXXXXXXXXXXXXXXXXXXX%OOOOOO&&&&=======ttttuuuagggaaauuugHDDDFFFFFFFFGGKDauagDDDFFLLLLYYIUUUIIYLLYUUILLLILLLIIIILKLLLURWWQ!!!!!!!!!!Q!!!!!!!!!!!QQQQ!!!///!/___/__```____Q~RRRR~~WWWRUIKNgfffp2<,,,,,,,,,,,,,<3333333333,,,,3>>+",
"                              .>7$--#>>>>>>77#@%$70zmcncnnnnccmmxxzzmxxxmxvvcbnnnncnMCCCCBCAZTZZTTZZZZACCAZZMbmxmMVbziqqqqxvVAZZT^TZCncikzxxxzzzzzzvbSCCCv06777668wkmvcbnb05XXX%#####%XXXXXXXXXXXXXXXXXXXXXX%$#%XX+%@>%*0zzxccbAZZAAACnz87%XX+%%%+%%%%%XXXXXXXXXXXXXXX+%%@$*>>%XXX+%XXXXXXXXXXXXXXXXXXXXXXXOO&&&&&&&&&====ttttttyyyahggggauuaggggDgDFFHDDHFGGHggDFHDDHGGGGKLIUUUIIYLLIUUUYLLYLKKLLILLLLLLIUURWQ!/!!!Q/QQ!!!!!!!!!!!QQQQQ!!!///!!////_/_______QWRRRRRRRWRRRUPPIPKKKggfffp991,333,,,,,<,,<333<,,3333>+",
"                              @7-@@$$$>>>>>>>###>9dccnnnnVCAAVcmmzzzzxxxzzxxzmcmmmmccnBCBMMCCCCCCCCAACBnnMCCnCbmcCVcxkizzzxnCAZ(ZAZZZAMmmcvvcmzxxzzmvbCVCv0677776e0kmvnbnz6#XXX%%%###%XXXXXXXXXXXXXXXXXXXXX%77@XXXX+@76qzdxddzzcACnnSCAAAAn0XXXXXXX++%%XXXXXXXXXXXXXXX%%%%@%@#>%XXXXXXXXXXXXXXXXXXXXXXXXXXXOO&&=&&&&&&&&&==ttttttttyaagggggagggggauaDHDgDHFGLGHDFGDDDDHFGGKLLIUUUIYYYUUEUIYYILKGGKKGKLIUIIIUUURWQQQQQQQQQQ//!!!!!QQQQQQQQ!!/_///!//////______Q~RRRRRRRRRRRRRRRRRRRPPKggfffp11111111<<<,<<<,,<3333>>+",
"                             +--@@@$$$--$$->>>>70dcnnnnnnnVCACncmmzzzxmxxxxzzzzdiqidzxcnncccmmmmmcnnnnnnccccnAACCCczzzzxxxxnCCZTZCCZZACnVVnCCVxxxxvbnCACCv0877776e0qxcbbnq6#XXX%%%%##%XXXXXXXXXXXXXXXXXXXXX#6#XX%>77wcCSnxw68qzmncmmcccnnCAAz7%XXXXXXXXXXXXXXXXXXXXXXXX%%%+X%@##%XXXXXXXXXXXXXXXXXXXXXXXXXXXoOO&&==&&=&&&===ttttttttyyuggggggggggauugDggDFFGLGgDGGDDHDDDGGKGGKLYIYYLYUUEEUIIUYLKKKGGKLUUUUIIIIIURRWWWQQQQQQQ!QQQQQQQ!!QQ~QQ!!!!!!////////!!__!Q~R~~~~WRRRRRRRRRRRRRRPPPKNgffffd9211,,,,<,,<<<3333>3+",
"                            +>-@+@$$$$$$$$$$>78wzmbnnnnnccnnnMVncmmmzxzxvcvxzzzqqqqiqwixmcmxxxxxxxmmcccncmmcnCZACMcxzzzxxxxvVCAACAAZZZACAAAACnxxxxvCAACCCcw867776e0qxcbbbq7@XXX%%X%#@XXXXXXXXXXXXXXXXXXXXX%#6@%#0zzxmnnzzms0760znmzzzzzmmcnnCnz87$%XXXXXXXXXXXXXXXXXXXXXXXXX%##>#%XXXXXXXXXXXXXXXXXXXoXXXXXXXXOOO&=====&&&&&=yyuyyttttyuggggDDDDDguuaghhgFGGJGggGGDFFDDgDGKGFDDGLLLLLIUEEUUUEULLLLLLLLIUUUUUIILLIIURRWWQQQQQQQQQQ!!!!!!QWWWWW~Q!!!/////!!!!!__!Q~QQQQQQQ~~WWRRRRRRRRRRRPPKBgggNfp9911<,<<33:3333333+",
"                           o7e>@++$@@$$-$->>8wwxmmcnnCCVVMMMMMMMnncmmxzzzzzzzzzqqqwwwwqzxxidxxxxxxxxxxxcmzxzbCACnmzzmxmmxmmnVCCVCZ(TZZZAZZZZAnvbbvvSACVVVvq87757600qzcbbcq7%XXX%%XX%XXXXXXXXXXXXXXXXXXXXXX$880zxcccvcvzzzzzqw876qqzzzzzzzzzmcnncz87#%XXXXXXXXXXXXXXXXXXXXXXXXXX$-7#XXXXXXXXXXXXXXXXXXXXXXXXXXoXXXO&&====&&&&&=yuuuyyyyyyuuggggDHHgguaauagggHFFggFGFGGFDggHGGFDDFKLLLLYUUEEEEEUIIUILLLLIIIUUIIILLKLLIIUWWWQWQQQQQQ!!/!!!Q~WWWWWWQQQQQQQQQ!QQ!!__!!QQQQQQQQ~~WRRRRRRRRRRRRPPPLKKKBffffp9991,,33333333+",
"                          o777>$++@@@$$->7ewdxxmmmcbnCCCCCCCCCBCCMnnbcmmvxzzzzzqwqwwwwqwwwwdxmmxxxxxxxcncczzmnCnvzzzmcnnvmmnCCVVCZ(ZZZZZ)ZCCCnnnccvnCCCVVcq8757780wqzcbcm07%XXX%%XXXXXXXXXXXXXXXXXXXXXXX$6qzqqzq08000qqzzzzqqq0807wzzlsszzzzxzccbcz87@%%XXXXXXXXXXXXXXXXXXXXXX+X+@#%XXXXXXXXXXXX%XXXXXXoXXXXXOXXXXO&&=====&&&=tyyuuuuuyyyyuggggDFFDghaaahauagDgDFGGGGGFHHDFGGFHGGGGGGLLIUUUUEEEEUUIILLLLIIILLIILKKLLLLUUWWWWWWQQQ!!!/!!QQ~WWW~~~~QQWQQQQQQQQ!!!!!QQQQQQQQQ~WWWWRRRRRRRRRPPPPPPPPPPPBNfffdp1333,,,,,@",
"                         .-ee7-$++@@@$>>70sxxcmzzccnnVCBVCAAZAACCCCCMnnbbvxzzzzqiiiwwqiw09wizxxzzdzzzzxmmzzzzzzxzxmccbnMMMnMCCVAZZZTTZZZ)ZCCVSbvvbcnCACnnvke7577800qxbbcmq6%XXX%%XXXXXXXXXXXXXXXXXXXXXX6zq77777#$#$$@#60qqqwqqqqz876wqqqwqqqdzzzmcczq87$$@%XXXXXXXXXXXXXXXXXXX%@$%XXXXXXXXXXXXXXXX%XXXXXXXXX%OOOOOOOO&&=====&&==ttyuuuuuuyyuuuaggHHggggggauuagggDFFGGGGGFHDHFGGHHHHHHFGLYYYYUEEWEUIIIILLLILKLLIILLLLLLLIUUWWWWWWW!//!!!!QQQQQWWWWWWWWWWWQQWWQQ!QQQQQQ!!!QQ~W~WWWRRRRRRRRRPRPRRRPRRPPKKggffp9,,,,,,,$",
"                         -7e>-$$$@@@-709wzczdddizxmmcnMMMMCAZZZZCCCVnnnnbczzzzzddddiqwwq0widdzddqiiqqidddiqixxiiimvcnVVCCCVCCVCAAAZ)))ZAZACCACVCCnCAAACbbck8777760wqzbnczq6%XXX%XXXXXXX%XXXXXXXXXXXXX%###@%@@@##$@@@@%%@>800000wmi07>0dq0wqqwqqqizzzmmd7*##$%XXXXXXXXXXXXXXXXX+%@##%XXXXXXXXXXXXXXX%XXXXXX+%XOOO&&&OOO&&&=yt======ttyuaauuuuuyyuugHDggggggaaaaaggDFGGGGGGFDDFGGHggDHHFGLLLYLYWWWEUUUIIILYIYLLLYIIIILLLLLIIIIIURWWW!!!!QQQQQQWWWWWWWWWWWWWWWWWWWWWWQQQ!!!QQQQ~~WWWRRRRRRRRRRRRRRRRRRRRRRPBNNff2222,3@",
"                        .->7>$#$$>>7e0wdzmmdddiiiiiixnnnMMCCCZTTACCMnSSSnbcmmzzidddiqwwwwwwwq0qwiiqwwwwwqq0wmcxdzccmcCCZCnnVCCAAACAZ))ZZCVVSVSSAZCCACCncbvz8777760qzzmnczw8%XXXXXXXXXXXXXXXXXXXXXXXXX78$%%%###>7>7>>>#%+%@788000xqww8*>qq00wqqqwqwqizmcmi7####+XXXXXXXXXXXXXXXX%%@>7#XXoXXXXXXXXXXXXXXXXXX>*XXO&&&&&&O&&&&=yyt======tyuaauuuuuyyyuagggDDDgggagggggHGGGGKGFFFGGGFggHFGFGGLLYLYWWWEUUUUIYIUUUYYIIUIIIIILLLLLLLLLLIUWWWWWWWWWWWWWWWWWWWWWWWWWRRWWWWWWWWQ!!!QQQQQQ~W~WRRRRRRRRRRRRRRRPPRRRRRRPPKKgffp29$",
"                        Xe>>>$-*>709e70sdxxdxziiiixixmnnMnnVAAZTZACMMncnnbcccmzqqiiqqwwwwww900qwwqqqqiq0888qxmmxzmmzcbnACCVnMVCAAZZAZZACnVCACCCCCCCACCnmcvk87777680qqmnvzq8%XXXXXXXXXX%XXXXXXXXXXXX%%68#$$$57>>>###@#>-#%%%*6888i000008*60q0800000qqidxmmx07*#@%%+XXXXXXXXXXXXXXX%#*7$+XXXXXXXXXXXXXXXXXXX**$XXO&&&&&&&OO&&=tyttttt==tyyuaaaauuyyyuuaaggDDgggggDgggDGGGGFGGGGGGFHFGGGGFFGLLGLUEEUUUUUUUIUEWUUUUUIIIUUUIIILLLLLLLIIUWWWWWWWWWWEEWWWWWWWWWWRUURWWWWWWW~!!!QQQQQQQQ~W~WRRRRRRRRRRRUPTPPRRRRRRUUUPPKNgc9",
"                       %%97>>>>>700w09qddxxxddiw0wiidmmnnnnAZACAAACnnnncccccccmzqqqwwwiiqw0wqiqqwwqqzzdw888qizxdzzzzvbmvMCCVMnMCCZ)ZACCCVSVSCAZACVCCCCnvcck07777688wqmbmzz8%XXXXXXXXXX%XXXXXXXXXXX+%5q877777#@%%%%%%%@*7*@%%$>78w0888008>#6008800000qqdzzxmz8*$$#@%++%XXXXXXXXXXXX+%#76>%XXXXXXXXXXXXXXXXX%%$$XOO&&&&=&OOOO&==tyyytt=ttttyuuuauuyyyuuuuuuggagggHDgagHGGDDFGGGGGFFGLKGFHDHGGGGLYIIUUUUUUUUEWWEEEUUIUUUEUUUIIIIIIIIIIURWRRURREEEERURWWWWWWRRUURWWWWWWRWWQ!QQQQQQQQQQQ~~~WWWWRRRRRRRRPPRRRRRRURRRRRRPPf",
"                      @>-0ee777777770wdzidddxdiw0wiixxmcnnCACVCZZZZZVCASnnbbbbcxqww0wqwww09qqq00wwqwwww00880idiqizzzmcmmbCCVbcMAAT)AnVAZACSnbbnVCCSCbbnnbvzw677680qqqzbmzq8$XXXXXXXXXX$XXXXXXXXXXX%%60774$#@%XXXXXXXXX%7777$+$>77888888887#*8w0880000wwizzxxxi8*$@#$%+%%+%+X+%%%%XXXX%*77#XXXXXXXXXXXXXXXXXXO=+X%O&&&=&OO&&&&&=tyyyytt===ttyyuauuyyuuuyyuuuaagHHDgggDHDugDFGGGGFGLLGFFFHDHGGFFLLLLLYUUUUUUEEWEEEUYYUUUIUUUUUUUUUIIIIIUUUUUURREEUIUWWWWWWWRUURWWWRUURRWWWWQQQQQQQQQQQ~WWWWWWRRRRRRRRRRRRRRRRRRRRRRURf",
"                  .%@+-$->7787777777wwdiqiiiiiiwwwiiixmmcnCACAAAACZZSSCVCVnccccmziiqdzwwwwwqw08000000000q080qqwikzzzmvmmvbnMncVAAT)AnnAAACCCVnVVCCACnCCccmzqw7768wqqzmnmzw6#@%XXXXXXX%#XXXXXXXXXXX$@77##@XX%XXXXXXXXXXX@808>$+$#>76888888867#>800888000qqzzxxxxq0>%%%$@>77*@%%%+%XXXXX%#*7@%XXXXXXXXXXXXX%XXX+=%XX%%O&&&&&&&&&&=ttyyyyt===tttyuaauuuuuyyyyuuuugHHDgDDDgaaDDDFFFFLLLGFFGGFFFFFFGLLLLLYYUUUUUEEEEEUUUUYYLLIUUUEEEEUIIYYYIIIIUUURRUIIUWWWRWWWRRWWWRRURRURRRRWWQQQQQQQQ/QQQQ~QWRRRRRR~RRRRRURRIPUPPRRURf",
"              Xo%%$>@%@$@$>77777789wwwidizdiiiiiiiiwdxmmcnnnnCCCCAZAAZZCSSncccmcxzzizzw0wiqw000q000000wqiw888wqqkzzxmcmzzxmcbbnVVCAMMCAZZAVnSnVVVVCnnCAvvmzzq6578wqqmnCmq877#@XXXXXXX##XXXXXXXXXXX$##%%@%XX@@%%%%%@#%+XX7677*%%+#*77888888786>#>80888800qqdxzddzxxq>>777>#@%+XXXXXXXXXX%+$>*%XXXXXXXXXXXX+XXXO+++XoXXO&&&====&&&&=tyyyyyttttttyuuuuuauyyyyuuuyuagDDDDDggagDDDDDFGLLGFFKLKGGGGGGGGGGJLLYUUUUYEEWEEUUUUYLLYUUUUUUUUUIILLLLLIIIUUUUIIUURRRRWWEWWWWWRUUUIIIIUURWWQQQQQQ!!QQQ~QQWRRRRR~RRRRRRRIPPPPPRRRRf",
"            .@770e>$+@;$$$-->>--70ddwwwwwzziidiiiiiwixmmccccSCCAAZACCZZAVnnnnnnnbvxizdw0wiiq00wqw087880qi08880qqqkxxmmmxxzxmccnnCCVnnCCZZZnnVnnSnnbcnnbvvmxzq6*78wqzmbSz06667@XXXXXX%@%XXXXXXXXX%%#@XXX%@%%#######$###@X77787>+%+@>788787777887*$#88888888widdddxmmxi7>*$%##%%%XXXXXXXXX%%$>>+XXXXXXXXXXXXXXXoo+=*+XXOOO&======&&&&=yyyyytttttttttyuauuuuuuyttyuugDgDDDDgDDDggDDFKKGGGGLLKLLLKGGGGGGGJLYUUUYYEWWEUUUUUIYYYUUUUIIUUUUILLLLLIIIUUUIIIUUURRWWEWWWWWEUUIILIIIIUURWWWWQQQQQQQQQQ~WRRRRRRRRRRRRRRPPPPPURRf",
"           X7ww00e7@@$>-$$$$--->70wdiwwqizdzidiiiiiwdxxmmccnVnSCAAZASCCSnnnnbnnCbcmmxdwwdzzzdiiw0877800w08888000wqkmvbnmxzxccbncnnCCCCCACAnbnnnnnnnnCCbcmmxzq6##8wzxzcnz86667%XXXXXX#@XXXXXXXXXX+@7@XXX+$#+%%XXX%XX%##*%87r76787+X$7777777777678>%%*8888888wwqddddxmcx7$$$@#%%%XXXXXXXXXX%$*7>$%XXXXXXXX+XXXXXXX+**%oOOO&&========&&=ttyyyyyyytttttyyuuaaaauyyyyuaggDDDDDDDDgggDDHFFFFGGKKKKLLGFGGGGGFFGLYYUYUEWEUUUUUEEUUIIIIIIIIUUILLLLLLLIIIIIIIIUUUREEEEEWWEEUUILLLIIIIIUUEEWWWQQQQQQQQWWRRRRRRRRRRRRRRPRPPPUPPf",
"       .%-7ewsdw0e7@@---$$$$$$->789wqwidzxxxddiiiiiiizxmmccnnnCAACZZCncnSCCAZZAnbcmmzzdxmmxmmcmq0088wiw0888880qqqqzmvnCnzzzzzcvvccbnnCCACACVnnnbbbncbnnnvmzxq6##60zmmcnz86865XXXXXXX#%XXXXXXXXXX+78%XXXX%@##@%%XXXXXX%@#wq6##-7e6%@#76687777777777*+$688887780wqqqddxnw*%#$@#$%+%%%XXXXXXX+$>>8>#%XXXXXX+XXXXXXXXO=*%OOO&&&===<y<======ttyyyyyytttttyyyuuaauuuuuuuuaDDDDDDDHDDDDDDDDDDFGGGGGLKGFFGGGGGFDHFGLYYYUEUUUUEWWWEUUIIYYYIIIIIIIIIIILLIIIIIIIUUURRRRREEEEUUILLLIIIIIIUREEEWEQQQWQQWQWRRRRRRRRRRRRRRPPPPPPPPp",
"      o-70wddddwe77$@@$$$$$$%$>80880wqiiwiiddiqqiiiiixxmmmmmcnCCnnCAVSVcnCSCZAVnnbcmccmcncxxxzdddzzizxw888880wqqkzmvmcnnzqlzzzxmvcnCMnnnnVCCVnbnccbnmxbnmzmzk8*#78zmcncq8886#XXXXXX%$XXXXXXXXXXX%07XXXX+%>808675*%XXXX%%7w07#@#7q8@$#76877777>777777%%$>777>77700wqdzxx0$#@$#@%%+%+%XXXXXXX%$*70w8*%XXX++XXXXXXXXX%=*+OO&&&&===<yyyyt===ttytyuuyttttyttyyuaaauuuuauuuaagDDHFFHDDDgagggDDGGGGKKGFFFFGGGFHHHHDFJLYUUYYUUEWWWEUIYYYYYYIIIYIUIIILLLIIIIIIIPIUUURURREEUUIILIIIIIIIUUUUUURREWWWQWWWWWRRRRRRRRRRRRPPPPPPPPp",
"     %>ewdxmxdswe7r-$$$$$@$@@77008000iddddiddqqwiidizdidzxmmmnnnnVCVnAAnbMnCZACCbbbnVnccccmmxdixxxzdzzw000wqiidzxxmmmcbczwqzxvbnmmbMVMCCCnbSnbccccnCcmbnmzzmz05#76qzxcmwe677%XXXXXX#%XXXXXXXXXXX%6#XXXX$7088777675**#%+XX#70dq8eq0$#$*777777777>>>77>$++$*77>#*778wwqdzx0#$@#%%%+++%XXXXXX%XX+$>0007$%X$%XXXXXXXXXXX+=OO&&&&&&&=tyyytt===ttttuuuuyttuytttyuaaaagaguuuuuuagHFFHFFFDgaauuagDFGGKGFHDHGGGFFFHDDDDFLLLYYYUUUEEEEUYYYYYYYYYLLYIIIIIILLLIIIPPIIIUUUUUUUUUIIIUUUIIIIIIIIIIIIRREWWRWWWWWRRRRRRRRRRRRUURUPPPp",
"    %7wzxmccmdwwe7777>>>>>$$-77800800qiddiiidqqqizzzzzzxxxmmmnnbcbnVnCCcnVnCACAACnnnCVncccmmmxxmcccxiwwqqqizzxmmmmmmmmmvmzqqzzmbbnbcbnCAACnncvvvccccvvnCmzmmx07#76wkxcz0067#%XX%XXX#XXXXXXXXXXXX%66X%%@80067**#***68888*#%%8bSml8$@#77#7777777>>>7>>7>$$++#77**>>7700wqzx8#@#$%%%+++%X%%%%%%XXX$*8009*+*@%XXXXXXXXXXX%+oO&&&&&&&=tyyyyttttttttyuuuttautttttyuuaggDauuuuuaagDFFGGGFDaauuuuugHGGKGGHHGGGGKGGHDggDFGLLLYYUUUUEEUUIIYYYYLLLLGKLIIIUILKLIPIIIIIIIIIUIUUIIIIUUUIIILLLLLYLLIIIRRRRRWWWWRRRRRRRRRRRRRRRRRPPf",
"   @ewsmcccmmxsweee777777777000wq0000qwidiqqqqwwqwqdzxxxzzzxmnMncmcVSnVnSCVCCnCACbbnCCVMncmmcmmcnnnxswqiiiizxmccmzmccmzzzljzmmmmbbbbnncbnbbcvxxmccvmvvVCmmvcmw7#76qzmvq0067$XXX%%X%%XXXXXXXXXXXX#w6X$$70877**#####*7667887#emq8r@@@@>6>*776777>>>>>>>7>*$$++$$*7777780qwii7@#@%%%%%%++%+%$$+%%%$**>89987>+O%%XXoXXXXXX%X%O&&&&&&&=yyuyyyytttt==tyyttuayyyytyyuaggDguuuuaaauaDFFFFFDDaggaaagDHGKLKGFGGGGKKJFDDDDHFFGGLLYYYIUUUUUUIYYYLLLGDgHGLLLLLLLLLLLLIIIIIIIIIIIIIIIUUIIIIIIIIIILIIIPPPURRWRWRRRRRRRRRRRRRRRRRRRf",
"  +7lzzzmmxxxmxw0wwww0ee000wqw0wwww00wwidiqqqiddiqwixxxxxxxmmmcmmmcnnnVCCCCCCCCCncnCACCMnnccmmmnCCVcqwwqddiqdxccmmvczqzzxzzzzbnbbcmmvmcnnbcvxxzzmvvmvbVCmmcczq7*78qzcz00874@XX%@%%@%XXXXXXXXXXXX>0#X%%>767>*##$#@$@$@##**77qnw6#@%%%@>77*>7777>>>>>>>>>>>>#$$%%$#778000qzzi>%@@%%%%%+++++$$+%$$$$***>8997*+%%%XXXXXXXXXX**&&&&&&&&=yyyttyyyytt=ttt==yaauuyyytyuaagggaagggauuugDDDDHFDDFDDDDDDHGLLGGGGGGGGGFFHHHFFFFFFGGLLYYIUUUUUUIYYYLKDaagGGGGKKLLKLLLIIIIIIIIIIIIIIIIIIUUIIIUIIILLLILILLPURRRRRRRRRRRRRRRRRRRRRRf",
" o@emcvvvcccmmcswwwwwww0e0wzziqqww0w00wwww00000wqqwixxxxxxzvcmxxmxmnnnnnCCAACSnnnnCAACCCCnnVnnnnCAVcdqwiddiqixccccmzzqqqqmCcmcnCnbbczzmbnbmxzzzkzxxmvcnVmmccmq6778qxzq0067-+X%%@@$#%XXXXXXXXXXXXX%XXXX%%%#@$@$$@@@@$@#*##@$0vw88#%X++@>7>#*7>*************>>*$$#@%+%78qzmmmd*XXX%%%%++++$+$$$$$$$$$=**700>*$%oXXXXXXXOoX+:*+&=======yytttyyyttttyt==yyyuuuuyttyyuuaauaDHHgaauaaaaaDHFGGGGFGFDDDFGKGGGFFFFFGGGGGGGGGFFFFGLLLYYIUUUUUUIUILGHgHFGGGGKLLLLLIIIIIIUIIIIIIIIIIIIIUUUUUUUUIPLLLLKKLLPRRRRRRRRRRRRRRRRRRRURf",
"  X-eqqwwwww07776677r>7-#-78867688887>>>7>######**77888888800878e80qqwwwqzxxdw0qqzxzziizxdqzziqzmxq06766667778000087777766wwwqszqw0888000886666776e000qz080006#@##78677*@@%X.XXXX%%......................oXXXXX%%%%%%%%%%X+#7$$#-@.oXXX@%+++%%%++++%%%%%+++%%%%+%%%%%%%%#*707%...XXXXXXXXoXX%%%%%oX%X%$$*$++oo.......oo..o+XOO====&&&&&&=<*======&&&&====<===========yyppuyyyyttt=yypuppppppyyyypppppppyuupppppppppppuuuppaaffffffffffffappppppppppppppffffffffffffffffffffffffffffffpppppppppffNNNNNNNNNNNNNffffff8"
};
