/* XPM */
static char *reload1[] = {
/* columns rows colors chars-per-pixel */
"500 456 92 1 ",
"  c black",
". c #090605",
"X c #0B0A06",
"o c #0C0C0A",
"O c #110E0B",
"+ c #180C07",
"@ c #0E100C",
"# c #12110E",
"$ c #1B130A",
"% c #151412",
"& c #191614",
"* c #1B1916",
"= c #161619",
"- c #1D1C1A",
"; c #171918",
": c #0F1012",
"> c #270B03",
", c #281408",
"< c #361809",
"1 c #211D1A",
"2 c #231A15",
"3 c #34160C",
"4 c #1D211B",
"5 c #23221D",
"6 c #2B241A",
"7 c #372612",
"8 c #1E1E21",
"9 c #221F21",
"0 c #1E2221",
"q c #242422",
"w c #292623",
"e c #2B2A25",
"r c #262829",
"t c #2B2B29",
"y c #332D28",
"u c #34312D",
"i c #383735",
"p c #2E302E",
"a c #451C0A",
"s c #582A16",
"d c #4F2C14",
"f c #67351B",
"g c #673218",
"h c #4B382D",
"j c #6C3C25",
"k c #3D413D",
"l c #4E4335",
"z c #694A27",
"x c #7A4527",
"c c #745033",
"v c #69431E",
"b c #494846",
"n c #595755",
"m c #53504B",
"M c #6D5A4E",
"N c #6F6359",
"B c #726F6C",
"V c #5E6160",
"C c #423F41",
"Z c #885537",
"A c #935A3B",
"S c #844D2E",
"D c #91623D",
"F c #8C5C44",
"G c #986548",
"H c #99715B",
"J c #906953",
"K c #A36A49",
"L c #A97658",
"P c #AA7554",
"I c #937768",
"U c #A87B67",
"Y c #B17E65",
"T c #B6856A",
"R c #B78C75",
"E c #B9927B",
"W c #AB8470",
"Q c #948275",
"! c #C18F74",
"~ c #928F8C",
"^ c #B99785",
"/ c #ADA7A0",
"( c #C49B87",
") c #C69E90",
"_ c #C8A18C",
"` c #CAA896",
"' c #D2AD99",
"] c #D6B8A5",
"[ c #E0BDA9",
"{ c #E2C3AF",
"} c #DBD4CF",
"| c #7E817F",
/* pixels */
"                                                                                                                                                                                                                                                                                                                                                                                                                                                                                                                    ",
"                                                                                                                                                                                                                                                                                                                                                                                                                                                                                                                    ",
"                                                                                                                                                                                                                                                                                                                                                                                                                                                                                                                    ",
"                                                                                                                                                                                                                                                                                                                                                                                                                                                                                                                    ",
"                                                                                                                                                                                                                                                                                                                                                                                                                                                                                                                    ",
"                                                                                                                                                                                                                                                                                                                                                                                                                                                                                                                    ",
"                                                                                                                                                                                                                                                                                                                                                                                                                                                                                                                    ",
"                                                                                                                                                                                                                                                                                                                                                                                                                                                                                                                    ",
"                                                                                                                                                                                                                                                                                                                                                                                                                                                                                                                    ",
"                                                                                                                                                                                                                                                                                                                                                                                                                                                                                                                    ",
"                                                                                                                                                                                                                                                                                                                                                                                                                                                                                                                    ",
"                                                                                                                                                                                                                                                                                                                                                                                                                                                                                                                    ",
"                                                                                                                                                                                                                                                                                                                                                                                                                                                                                                                    ",
"                                                                                                                                                                                                                                                                                                                                                                                                                                                                                                                    ",
"                                                                                                                                                                                                                                                                                                                                                                                                                                                                                                                    ",
"                                                                                                                                                                                                                                                                                                                                                                                                                                                                                                                    ",
"                                                                                                                                                                                                                                                                                                                                                                                                                                                                                                                    ",
"                                                                                                                                                                                                                                                                                                                                                                                                                                                                                                                    ",
"                                                                                                                                                                                                                                                                                                                                                                                                                                                                                                                    ",
"                                                                                                                                                                                                                                                                                                                                                                                                                                                                                                                    ",
"                                                                                                                                                                                                                                                                                                                                                                                                                                                                                                                    ",
"                                                                                                                                                                                                                                                                                                                                                                                                                                                                                                                    ",
"                                                                                                                                                                                                                                                                                                                                                                                                                                                                                                                    ",
"                                                                                                                                                                                                                                                                                                                                                                                                                                                                                                                    ",
"                                                                                                                                                                                                                                                                                                                                                                                                                                                                                                                    ",
"                                                                                                                                                                                                                                                                                                                                                                                                                                                                                                                    ",
"                                                                                                                                                                                                                                                                                                                                                                                                                                                                                                                    ",
"                                                                                                                                                                                                                                                                                                                                                                                                                                                                                                                    ",
"                                                                                                                                                                                                                                                                                                                                                                                                                                                                                                                    ",
"                                                                                                                                                                                                                                                                                                                                                                                                                                                                                                                    ",
"                                                                                                                                                                                                                                                                                                                                                                                                                                                                                                                    ",
"                                                                                                                                                                                                                                                                                                                                                                                                                                                                                                                    ",
"                                                                                                                                                                                                                                                                                                                                                                                                                                                                                                                    ",
"                                                                                                                                                                                                                                                                                                                                                                                                                                                                                                                    ",
"                                                                                                                                                                                                                                                                                                                                                                                                                                                                                                                    ",
"                                                                                                                                                                                                                                                                                                                                                                                                                                                                                                                    ",
"                                                                                                                                                                                                                                                                                                                                                                                                                                                                                                                    ",
"                                                                                                                                                                                                                                                                                                                                                                                                                                                                                                                    ",
"                                                                                                                                                                                                                                                                                                                                                                                                                                                                                                                    ",
"                                                                                                                                                                                                                                                                                                                                                                                                                                                                                                                    ",
"                                                                                                                                                                                                                                                                                                                                                                                                                                                                                                                    ",
"                                                                                                                                                                                                                                                                                                                                                                                                                                                                                                                    ",
"                                                                                                                                                                                                                                                                                                                                                                                                                                                                                                                    ",
"                                                                                                                                                                                                                                                                                                                                                                                                                                                                                                                    ",
"                                                                                                                                                                                                                                                                                                                                                                                                                                                                                                                    ",
"                                                                                                                                                                                                                                                                                                                                                                                                                                                                                                                    ",
"                                                                                                                                                                                                                                                                                                                                                                                                                                                                                                                    ",
"                                                                                                                                                                                                                                                                                                                                                                                                                                                                                                                    ",
"                                                                                                                                                                                                                                                                                                                                                                                                                                                                                                                    ",
"                                                                                                                                                                                                                                                                                                                                                                                                                                                                                                                    ",
"                                                                                                                                                                                                                                                                                                                                                                                                                                                                                                                    ",
"                                                                                                                                                                                                                                                                                                                                                                                                                                                                                                                    ",
"                                                                                                                                                                                                                                                                                                                                                                                                                                                                                                                    ",
"                                                                                                                                                                                                                                                                                                                                                                                                                                                                                                                    ",
"                                                                                                                                                                                                                                                                                                                                                                                                                                                                                                                    ",
"                                                                                                                                                                                                                                                                                                                                                                                                                                                                                                                    ",
"                                                                                                                                                                                                                                                                                                                                                                                                                                                                                                                    ",
"                                                                                                                                                                                                                                                                                                                                                                                                                                                                                                                    ",
"                                                                                                                                                                                                                                                                                                                                                                                                                                                                                                                    ",
"                                                                                                                                                                                                                                                                                                                                                                                                                                                                                                                    ",
"                                                                                                                                                                                                                                                                                                                                                                                                                                                                                                                    ",
"                                                                                                                                                                                                                                                                                                                                                                                                                                                                                                                    ",
"                                                                                                                                                                                                                                                                                                                                                                                                                                                                                                                    ",
"                                                                                                                                                                                                                                                                                                                                                                                                                                                                                                                    ",
"                                                                                                                                                                                                                                                                                                                                                                                                                                                                                                                    ",
"                                                                                                                                                                                                                                                                                                                                                                                                                                                                                                                    ",
"                                                                                                                                                                                                                                                                                                                                                                                                                                                                                                                    ",
"                                                                                                                                                                                                                                                                                                                                                                                                                                                                                                                    ",
"                                                                                                                                                                                                                                                                                                                                                                                                                                                                                                                    ",
"                                                                                                                                                                                                                                                                                                                                                                                                                                                                                                                    ",
"                                                                                                                                                                                                                                                                                                                                                                                                                                                                                                                    ",
"                                                                                                                                                                                                                                                                                                                                                                                                                                                                                                                    ",
"                                                                                                                                                                                                                                                                                                                                                                                                                                                                                                                    ",
"                                                                                                                                                                                                                                                                                                                                                                                                                                                                                                                    ",
"                                                                                                                                                                                                                                                                                                                                                                                                                                                                                                                    ",
"                                                                                                                                                                                                                                                                                                                                                                                                                                                                                                                    ",
"                                                                                                                                                                                                                                                                                                                                                                                                                                                                                                                    ",
"                                                                                                                                                                                                                                                                                                                                                                                                                                                                                                                    ",
"                                                                                                                                                                                                                                                                                                                                                                                                                                                                                                                    ",
"                                                                                                                                                                                                                                                                                                                                                                                                                                                                                                                    ",
"                                                                                                                                                                                                                                                                                                                                                                                                                                                                                                                    ",
"                                                                                                                                                                                                                                                                                                                                                                                                                                                                                                                    ",
"                                                                                                                                                                                                                                                                                                                                                                                                                                                                                                                    ",
"                                                                                                                                                                                                                                                                                                                                                                                                                                                                                                                    ",
"                                                                                                                                                                                                                                                                                                                                                                                                                                                                                                                    ",
"                                                                                                                                                                                                                                                                                                                                                                                                                                                                                                                    ",
"                                                                                                                                                                                                                                                                                                                                                                                                                                                                                                                    ",
"                                                                                                                                                                                                                                                                                                                                                                                                                                                                                                                    ",
"                                                                                                                                                                                                                                                                                                                                                                                                                                                                                                                    ",
"                                                                                                                                                                                                                                                                                                                                                                                                                                                                                                                    ",
"                                                                                                                                                                                                                                                                                                                                                                                                                                                                                                                    ",
"                                                                                                                                                                                                                                                                                                                                                                                                                                                                                                                    ",
"                                                                                                                                                                                                                                                                                                                                                                                                                                                                                                                    ",
"                                                                                                                                                                                                                                                                                                                                                                                                                                                                                                                    ",
"                                                                                                                                                                                                                                                                                                                                                                                                                                                                                                                    ",
"                                                                                                                                                                                                                                                                                                                                                                                                                                                                                                                    ",
"                                                                                                                                                                                                                                                                                                                                                                                                                                                                                                                    ",
"                                                                                                                                                                                                                                                                                                                                                                                                                                                                                                                    ",
"                                                                                                                                                                                                                                                                                                                                                                                                                                                                                                                    ",
"                                                                                                                                                                                                                                                                                                                                                                                                                                                                                                                    ",
"                                                                                                                                                                                                                                                                                                                                                                                                                                                                                                                    ",
"                                                                                                                                                                                                                                                                                                                                                                                                                                                                                                                    ",
"                                                                                                                                                                                                                                                                                                                                                                                                                                                                                                                    ",
"                                                                                                                                                                                                                                                                                                                                                                                                                                                                                                                    ",
"                                                                                                                                                                                                                                                                                                                                                                                                                                                                                                                    ",
"                                                                                                                                                                                                                                                                                                                                                                                                                                                                                                                    ",
"                                                                                                                                                                                                                                                                                                                                                                                                                                                                                                                    ",
"                                                                                                                                                                                                                                                                                                                                                                                                                                                                                                                    ",
"                                                                                                                                                                                                                                                                                                                                                                                                                                                                                                                    ",
"                                                                                                                                                                                                                                                                                                                                                                                                                                                                                                                    ",
"                                                                                                                                                                                                                                                                                                                                                                                                                                                                                                                    ",
"                                                                                                                                                                                                                                                                                                                                                                                                                                                                                                                    ",
"                                                                                                                                                                                                                                                                                                                                                                                                                                                                                                                    ",
"                                                                                                                                                                                                                                                                                                                                                                                                                                                                                                                    ",
"                                                                                                                                                                                                                                                                                                                                                                                                                                                                                                                    ",
"                                                                                                                                                                                                                                                                                                                                                                                                                                                                                                                    ",
"                                                                                                                                                                                                                                                                                                                                                                                                                                                                                                                    ",
"                                                                                                                                                                                                                                                                                                                                                                                                                                                                                                                    ",
"                                                                                                                                                                                                                                                                                                                                                                                                                                                                                                                    ",
"                                                                                                                                                                                                                                                                                                                                                                                                                                                                                                                    ",
"                                                                                                                                                                                                                                                                                                                                                                                                                                                                                                                    ",
"                                                                                                                                                                                                                                                                                                                                                                                                                                                                                                                    ",
"                                                                                                                                                                                                                                                                                                                                                                                                                                                                                                                    ",
"                                                                                                                                                                                                                                                                                                                                                                                                                                                                                                                    ",
"                                                                                                                                                                                                                                                                                                                                                                                                                                                                                                                    ",
"                                                                                                                                                                                                                                                                                                                                                                                                                                                                                                                    ",
"                                                                                                                                                                                                                                                                                                                                                                                                                                                                                                                    ",
"                                                                                                                                                                                                                                                                                                                                                                                                                                                                                                                    ",
"                                                                                                                                                                                                                                                                                                                                                                                                                                                                                                                    ",
"                                                                                                                                                                                                                                                                                                                                                                                                                                                                                                                    ",
"                                                                                                                                                                                                                                                                                                                                                                                                                                                                                                                    ",
"                                                                                                                                                                                                                                                                                                                                                                                                                                                                                                                    ",
"                                                                                                                                                                                                                                                                                                                                                                                                                                                                                                                    ",
"                                                                                                                                                                                                                                                                                                                                                                                                                                                                                                                    ",
"                                                                                                                                                                                                                                                                                                                                                                                                                                                                                                                    ",
"                                                                                                                                                                                                                                                                                                                                                                                                                                                                                                                    ",
"                                                                                                                                                                                                                                                                                                                                                                                                                                                                                                                    ",
"                                                                                                                                                                                                                                                                                                                                                                                                                                                                                                                    ",
"                                                                                                                                                                                                                                                                                                                                                                                                                                                                                                                    ",
"                                                                                                                                                                                                                                                                                                                                                                                                                                                                                                                    ",
"                                                                                                                                                                                                                                                                                                                                                                                                                                                                                                                    ",
"                                                                                                                                                                                                                                                                                                                                                                                                                                                                                                                    ",
"                                                                                                                                                                                                                                                                                                                                                                                                                                                                                                                    ",
"                                                                                                                                                                                                                                                                                                                                                                                                                                                                                                                    ",
"                                                                                                                                                                                                                                                                                                                                                                                                                                                                                                                    ",
"                                                                                                                                                                                                                                                                                                                                                                                                                                                                                                                    ",
"                                                                                                                                                                                                                                                                                                                                                                                                                                                                                                                    ",
"                                                                                                                                                                                                                                                                                                                                                                                                                                                                                                                    ",
"                                                                                                                                                                                                                                                                                                                                                                                                                                                                                                                    ",
"                                                                                                                                                                                                                                                                                                                                                                                                                                                                                                                    ",
"                                                                                                                                                                                                                                                                                                                                                                                                                                                                                                                    ",
"                                                                                                                                                                                                                                                                                                                                                                                                                                                                                                                    ",
"                                                                                                                                                                                                                                                                                                                                                                                                                                                                                                                    ",
"                                                                                                                                                                                                                                                                                                                                                                                                                                                                                                                    ",
"                                                                                                                                                                                                                                                                                                                                                                                                                                                                                                                    ",
"                                                                                                                                                                                                                                                                                                                                                                                                                                                                                                                    ",
"                                                                                                                                                                                                                                                                                                                                                                                                                                                                                                                    ",
"                                                                                                                                                                                                                                                                                                                                                                                                                                                                                                                    ",
"                                                                                                                                                                                                                                                                                                                                                                                                                                                                                                                    ",
"                                                                                                                                                                                                                                                                                                                                                                                                                                                                                                                    ",
"                                                                                                                                                                                                                                                                                                                                                                                                                                                                                                                    ",
"                                                                                                                                                                                                                                                                                                                                                                                                                                                                                                                    ",
"                                                                                                                                                                                                                                                                                                                                                                                                                                                                                                                    ",
"                                                                                                                                                                                                                                                                                                                                                                                                                                                                                                                    ",
"                                                                                                                                                                                                                                                                                                                                                                                                                                                                                                                    ",
"                                                                                                                                                                                                                                                                                                                                                                                                                                                                                                                    ",
"                                                                                                                                                                                                                                                                                                                                                                                                                                                                                                                    ",
"                                                                                                                                                                                                                                                                                                                                                                                                                                                                                                                    ",
"                                                                                                                                                                                                                                                                                                                                                                                                                                                                                                                    ",
"                                                                                                                                                                                                                                                                                                                                                                                                                                                                                                                    ",
"                                                                                                                                                                                                                                                                                                                                                                                                                                                                                                                    ",
"                                                                                                                                                                                                                                                                                                                                                                                                                                                                                                                    ",
"                                                                                                                                                                                                                                                                                                                                                                                                                                                                                                                    ",
"                                                                                                                                                                                                                                                                                                                                                                                                                                                                                                                    ",
"                                                                                                                                                                                                                                                                                                                                                                                                                                                                                                                    ",
"                                                                                                                                                                                                                                                                                                                                                                                                                                                                                                                    ",
"                                                                                                                                                                                                                                                                                                                                                                                                                                                                                                                    ",
"                                                                                                                                                                                                                                                                                                                                                                                                                                                                                                                    ",
"                                                                                                                                                                                                                                                                                                                                                                                                                                                                                                                    ",
"                                                                                                                                                                                                                                                                                                                                                                                                                                                                                                                    ",
"                                                                                                                                                                                                                                                                                                                                                                                                                                                                                                                    ",
"                                                                                                                                                                                                                                                                                                                                                                                                                                                                                                                    ",
"                                                                                                                                                                                                                                                                                                                                                                                                                                                                                                                    ",
"                                                                                                                                                                                                              .                                                                                                                                                                                                                                                                                                     ",
"                                                                                                                                                                                                             X%  :X                                                                                                                                                                                                                                                                                                 ",
"                                                                                                                                                                                                             %X  -X                                                                                                                                                                                                                                                                                                 ",
"                                                                                                                                                                                                             %. .-X oX                                                                                                                                                                                                                                                                                              ",
"                                                                                                                                                                                                             %.X-% X-:                                                                                                                                                                                                                                                                                              ",
"                                                                                                                                                                                                             . Xq%.oo.                                                                                                                                                                                                                                                                                              ",
"                                                                                                                                                                                                             .#=riq%X                                                                                                                                                                                                                                                                                               ",
"                                                                                                                                                                                                             .o%o=%XX                                                                                                                                                                                                                                                                                               ",
"                                                                                                                                                                                                             XXXoXoo.                                                                                                                                                                                                                                                                                               ",
"                                                                                                                                                                                                             %ooooX.                                                                                                                                                                                                                                                                                                ",
"                                                                                                                                                                                                             .ooooX                                                                                                                                                                                                                                                                                                 ",
"                                                                                                                                                                                                             XoooXX                                                                                                                                                                                                                                                                                                 ",
"                                                                                                                                                                                                            .%oXo.                                                                                                                                                                                                                                                                                                  ",
"                                                                                                                                                                                                            .ooooX                                                                                                                                                                                                                                                                                                  ",
"                                                                                                                                                                                                            .ooXo.                                                                                                                                                                                                                                                                                                  ",
"                                                                                                                                                                                                            XXXXoX                                                                                                                                                                                                                                                                                                  ",
"                                                                                                                                                                                                           .oXXoo%.      .                                                                                                                                                                                                                                                                                          ",
"                                                                                                                                                                                                           XoooX==      X%%.                                                                                                                                                                                                                                                                                        ",
"                                                                                                                                                                                                          o-oXoX%:   .oXo;*;%@..                                                                                                                                                                                                                                                                                    ",
"                                                                                                                                                                                                          %=XXoo%X  X%%%*4;%ww%X.                                                                                                                                                                                                                                                                                   ",
"                                                                                                                                                                                                         X=%oooo%. .%o#%;qw*4uw++XooX oooX..X                                                                                                                                                                                                                                                                       ",
"                                                                                                                                                                                                        .%-ooXoXX  X#ooo%44#o56,6,,7y6uhhhd7y%.                                                                                                                                                                                                                                                                     ",
"                                                                                                                                                                                                    .-#.o==XoXooX  %%XXoX@;%#O$,ddaadzzvdzcclu1.                                                                                                                                                                                                                                                                    ",
"                                                                                                                                                                                                    -e%#o-%ooooX.  ooooooX%4##67ddlddzczddccclh6#.                                                                                                                                                                                                                                                                  ",
"                                                                                                                                                                                                   @rit-o*@oXoX.   .oooooooo@#ulddvzddzcvfzccldhh6o.        X.                                                                                                                                                                                                                                                      ",
"                                                                                                                                                                                                  .;wiit*@XXXooX   ooXooooooXoyhdddfddvZcvdzzlddzzly@      .qq%%X                                                                                                                                                                                                                                                   ",
"                                                                                                                                                                                                   X%uir%####o*#   o#XoXXoooX#hhdvddvffccvdvzzzlzcccl6.   ;oqq%=%o-=tq.                                                                                                                                                                                                                                             ",
"                                                                                                                                                                                                   .Oq1o;wpuwo*%   o#XoXXoooo*hzvvvfvczvcczvzzzzvzcczlh#. o%#oXo@ooo=-o==X                                                                                                                                                                                                                                          ",
"                                                                                                                                                                                                   .oOoX;ukli2*%   %%XooooXX$hlhdzzvfzcxzcczvvzzzzzzcccu.  .oo#oXXoooX%%;#. .X..                                                                                                                                                                                                                                    ",
"                                                                                                                                                                                                   .ooXX;piiiy*#..X%oXooooo#6hlllzzzvzcccczczddzcczvlzcl6. .o@*#ooXoXo@*%@#oX%%%.                                                                                                                                                                                                                                   ",
"                                                                                                                                                                                                   .ooXX4ptuuuq%%-=%XooXoXo$6ddlzzzzzccScczzzzvvcczddddhyO .X@;%oooooXXooo@#.X%*-*.                                                                                                                                                                                                                                 ",
"                                                                                                                                                                                                    .Xoo-t8-uitq--=%OoOOoXo,7dddzcccxxSSSZccczzzvdldd72**uqoXo%#oooooooXXX%#oXo#*5#X...X=X.                                                                                                                                                                                                                         ",
"                                                                                                                                                                                                    .XoX%0%%ybbirqq8%OO$+O+2hhdsjzcSxcSSZZSZZccczdd77,oX%ii%oo@oXXooooooX@e*oXoXo##%##@#*=qo.                                                                                                                                                                                                                       ",
"                                                                                                                                                                                                    .oXXo%o#ybbkitrq-%+2,>,7hhddhjjxxSSScSSSDFcccz77,#XXwb-.ooXXoooooooXX#q%oXXoXXXXX@#;%%o%o.X                                                                                                                                                                                                                     ",
"                                                                                                                                                                                                   .XoXooXo#wiiiiir-%%22,,,7hddddffxSSSSSxSZDZczzd772#o#int@o.ooXXooooXoX#*oXooXXoooooo###@=%%%                                                                                                                                                                                                                     ",
"                                                                                                                                                                                                   o%oXooooo-ruiiy=#&222,,37<<<<assjxSSSSSAZADcdd766&o#elbu*#*-%oXooooXXXooXoXXXoXXoXoo.oXooo.                                                                                                                                                                                                                      ",
"                                                                                                                                                                                                   %%oXoo-rOo*eui5o%rw22,,333<<<<dsjjxSSSSZZcZchh6yu%Xoryiu#@euw%ooooooXo#oXXoooooXXoXoooXXoX.                                                                                                                                                                                                                      ",
"                                                                                                                                                                                                    o%oX.wbqXo*q-#o-ii7777773<<<<ashjjjxxxxxxzzhh6tt#o*biiu#X*euyq=ooXXo%;#XooooooXooooooXXo.                                                                                                                                                                                                                       ",
"                                                                                                                                                                                                     o#oo#iuooo%oXo1uhh77ddd3<,,,3dhjjffjjjjjjddh2e5oX5Bnbi*#&*euiqoXooo%%oXooooooooooXXXXXo.                                                                                                                                                                                                                       ",
"                                                                                                                                                                                                       .Xo%ui#XoXoo%qih7dhdd<,>>,37dhhsssfjjjjs771q%oo-Bnbu&#%%%wuw#ooXooXoooXooXXoooooooooX.                                                                                                                                                                                                                       ",
"                                                                                                                                                                                                        .oo%kp#XoXo%-u7dchhd<>>>>,3dhddaaassjjh72w-ooo%bbiu%oXo#%5ttw-*#ooooXoooooXXooooXXXX.                                                                                                                                                                                                                       ",
"                                                                                                                                                                                                        .%%X;itoXooo%q7hcczhd<>>>,37dd7<3<<dhjh7,w%Xoo%qttr%ooooo#5uiiu5*#XXoXXXoX...XXXoooX                                                                                                                                                                                                                        ",
"                                                                                                                                                                                                         .#%X%ii#oooo&6lMccchd<3<,,3333,>,,3dhh321oXXoO&&%%%XooXo#*5ibi5&#OoXoXXoX     .....                                                                                                                                                                                                                        ",
"                                                                                                                                                                                                          .Xooqiooooo+7cccczjjddd3<33,++O+$77hd,1*ooooo%%ooooooXo#%#5it#ooooooXo#X.                                                                                                                                                                                                                                 ",
"                                                                                                                                                                                                            .oooooXoo+7jcccxjjjfda3<3>+Xoo+77y7$*%oO%oo#ooXooooXoooX*w-ooXooXoX#*@XX.                                                                                                                                                                                                                               ",
"                                                                                                                                                                                                             .XXoXoXo,dzccScxjjjfsa<,>+XoX$yyy7+#oo%-#OOooooooXXoooo*5&.XXooooXo#oXoX%o.                                                                                                                                                                                                                            ",
"                                                                                                                                                                                                               .XooXX2hccSSZcfjjffs<>+oXXo$uhh2Oooo%-&OOoXXoooXXXoo#**#oooXoooXooooXX#%o                                                                                                                                                                                                                            ",
"                                                                                                                                                                                                              oo.oXXOyczxccxjfffffsa>+XooXO6772+Xoo#-*#ooXoooXooXoO*5%oOoooXooooXXXXoXoX                                                                                                                                                                                                                            ",
"                                                                                                                                                                                                              oo.XoX#hzzxcccfffffffd<>+XXXo$222oooo#*&#OOoo#ooOoooo5-oo%qq%#@oooXXoooX#o                                                                                                                                                                                                                            ",
"                                                                                                                                                                                                                .oXo,lzjzcxcxffffjffs<>+oooOO$#oXXoo%&%%%Ooooo##%%#*#oo#titq4;XXooXoXoX.                                                                                                                                                                                                                            ",
"                                                                                                                                                                                                                 .XX7zzhjxccxjgsfffffs<>+XXooooXXooo%%#%%OoXooo###O%oooo-5ttew%@oXXooX                                                                                                                                                                                                                              ",
"                                                                                                                                                                                                                   +dczzzzzxzffsffgfffsa>+oOOooXXoooO#####oXXooXooo#oo##**-weeww;#oXXX                                                                                                                                                                                                                              ",
"                                                                                                                                                                                                                   $lccxzcxxxfffsggfffss<+XXoXXooooXoOooOOooXoXXoXo#owhue5%5eeeee5*#ooX                                                                                                                                                                                                                             ",
"                                                                                                                                                                                                                   ,lzcccxcxffffsffffhhsd3+ooooooooXoooooooXXooXooXO5n~Bni*666555we5;#*                                                                                                                                                                                                                             ",
"                                                                                                                                                                                                                  .7lcccZcxzffxjxjxfzzhhhd3$o.XoXXooooXo###ooXXooXo#bQ~~QBhy64&&55ee5;;@                                                                                                                                                                                                                            ",
"                                                                                                                                                                                                                  +7hcFGZZxffjvxxxxfxzfdhd73+oooXXoooX#w5&*%%oXooXowN~~~/~Bnle-&&556w54;o                                                                                                                                                                                                                           ",
"                                                                                                                                                                                                                 .3shjcGGZZxjjffvxxzzhdhhhd6$ooXooooXo#iu**ee;oooo#uBI~~//~~Ble5*&-5wt6&#X                                                                                                                                                                                                                          ",
"                                                                                                                                                                                                                 .,djfzZGGZcxxffffzzzhlcMMMlyy2#o.XoX.#wyewwwe5oo-tbBBB~/////Bmt54-&5ee62&#X                                                                                                                                                                                                                        ",
"                                                                                                                                                                                                                  +dfjxZFGAZcxxfgxzzccMNIIIIBBVh6&oXXoo&1yiuw1*%tbnBBBBQ~/////Imie5&&5eet6;@.                                                                                                                                                                                                                       ",
"                                                                                                                                                                                                                  .,dfzcZAZAZZxxfjzzclMNNNBBIIBBNnbe*%##*ubmueibNBBIBBBB~~////~IVlu6-46eee54@X.                                                                                                                                                                                                                     ",
"                                                                                                                                                                                                                   +dsjxZZZADZSxxxffhjlnnnVVNNBBBBBBnbiweilmilB~~~~~QBNBBIQ~///~~Bmie5456eew-#oo.                                                                                                                                                                                                                   ",
"                                                                                                                                                                                                                   .3dfjxcZAAZSxcxfsdhhlllllmnNNBBBBBNBBBBBNnB~}}/~~QBBBNNNB~~~//~BNle4555we54&#X                                                                                                                                                                                                                   ",
"                                                                                                                                                                                                                    $dsjxxSAZZZSxxxfhhhhhihhlmnnVVVVVNBBI~//~~/}}}/~~Q~~BNVNBBI~//~~Bbe4445566e5#X.                                                                                                                                                                                                                 ",
"                                                                                                                                                                                                                    .7dfzxxSZZSSxxxxjhhh726uhhblbmmmmmnBB~/////}}}}{/~~~QBVVNNBB~///~Bu4444555ee5;o.                                                                                                                                                                                                                ",
"                                                                                                                                                                                                                     $dfjxxSSZZSxxxxjhsd7,26uiiihllmmmnNBBI~/////}}}}/~~QQBVVVnNB~///~mu4554-45555-%.                                                                                                                                                                                                               ",
"                                                                                                                                                                                                                     .3dfjxSSZZZSxffjjhsdd776yyyyyuilmnBBBBBBBQ~//}}}}//~QIBBNnnBI~~~~Bmblu4&**5566w*o.                                                                                                                                                                                                             ",
"                                                                                                                                                                                                                      +7sjxZGGGGASxcccjjsssdd7y766yibmnVVnnmVBBQ~//}}}}{/~QBBNnmVBBBBIQQIBn4#;&*-45ee4;X.                                                                                                                                                                                                           ",
"                                                                                                                                                                                                                      .$7jxcGLLPGAZFFFZcxjjhhhd726tlnnnmmmbllmNBB~//}}}}}/QBBNVnVNNNNBQ~//B6&%%%&&-5wew-#..                                                                                                                                                                                                         ",
"                                                                                                                                                                                                                       O,djxZGPGFAZZFFFFFFcxjhh7++wlnNVmmmblilnNBB~~/}}}}]~IIBBBNNnnmVI~//N5######;45eee5%@.                                                                                                                                                                                                        ",
"                                                                                                                                                                                                                       .+7fjxSFFFZZZFFFFZFZcccch22eimmmnVnmblmmbnBB~///]}}]/~QQQBNnmmnB~~~h*##@@@#;;4wwepew=X                                                                                                                                                                                                       ",
"                                                                                                                                                                                                                        .,dffjxcZSccccZZZZccccch7yiimlbmnNnmbbblmnBB~~///]}}]/~IBNVmmVBB~Bu&%##o@O#%;4qetppt%..                                                                                                                                                                                                     ",
"                                                                                                                                                                                                                         +7dfffjxxcxjxccccxccch76yyehhlllmNNmlbbmmnBBBQ~~/{}}}/IIBBNnnVBIVe&%&###X@%;*4wwrtt5*@X.                                                                                                                                                                                                   ",
"                                                                                                                                                                                                                          +affsfhjjjjjjjxjzjzjd72665etuhlbNBNmbmbbbnNBBBQ~/}}}]~QQBBBBVBBi&*%oX@@XX@%*;*4qwwww4%X.                                                                                                                                                                                                  ",
"                                                                                                                                                                                                                          .,dffssssjfjfjjjjjhh6,266*-6yhmbmBBNmbbbbbmmnNB~~/}}///QIBBBBNbw&*&#..o#%%%4;@%;;4qwww%XXX.                                                                                                                                                                                               ",
"                                                                                                                                                                                                                           X7ffjffjsssfffffsd7#o%1wwweyimlbnNBNblbbbbmmnBB~///////~BBBBni--**%X..o*#%4#oo#:;;0wtq;ooo.                                                                                                                                                                                              ",
"                                                                                                                                                                                                                            $dsfjjjfssssfsfs<,ooO&16yueyhihbbVBnbbbbbmmnVBI~~~~~///~QBNbw*-*&%#o....@%#XXX@@:-0wrr0=@X                                                                                                                                                                                              ",
"                                                                                                                                                                                                                            .,ssjjjfsssssssd3$Xo%%O#1ee6yuihhlnBBmbbbmmmnBBIQBBI~///~Bi211-*%#%#O... X%@XXXX@;;0wrppq;X..                                                                                                                                                                                           ",
"                                                                                                                                                                                                                             O<sjjjfssaaassd,+.%*#Xoo1e55weeiilnBBnbbmmmnnNBBnnBB~//Ime*2***%#O###O...@@@@XX@@%=;0wppt4%X.                                                                                                                                                                                          ",
"                                                                                                                                                                                                                              +afjjfsaaaaad7$oo%%oooX%55wwwwyihbnBBnmmmmmnnnbbmnBBQBnbiw5-*-*#######X...X@@XooX%%;4wrppq%X.                                                                                                                                                                                         ",
"                                                                                                                                                                                                                              .<sjjsaa<<<<a,+o##ooXoXo%1eyewwyilbmVBnmbbbmmbhilbnNBbillie1-**%#######oX..XXX@oXo:%;;4wttw;%X.                                                                                                                                                                                       ",
"                                                                                                                                                                                                                               +affsaa<>><<,Xo%oooooooo&eyewweyiilbNBnbbbbbhuuilmnnbiillie1-*;%###@@@@oo...X%%@@@::;;4wwppw;X.                                                                                                                                                                                      ",
"                                                                                                                                                                                                                                ,sfsda>>>33$oo%ooXooXXoo-uyewweyuiibNBBmbliuuyuibmnbuuuiiutq1**%##ooo#%oo.. .o@o@@@%;;4qrpup4@X.                                                                                                                                                                                    ",
"                                                                                                                                                                                                                                +dsssa>>>,,+o@%oooooooXXo1uyeweetuuibNBBbu5weyyuilml5wuuuiiy5-*;;#@oXo##@#o....o#@%;;;;40wpuuw;oX                                                                                                                                                                                   ",
"                                                                                                                                                                                                                                 ,ssda>>>,+oXo%ooXooXoXXoO1eewweetttulnBnu45weetuibi%%wtyuiiyw-**%##oo###%;%#X.X@%;;;44440wtpptw;X .                                                                                                                                                                                ",
"                                                                                                                                                                                                                                 .7dda>>++oXoooXoXoXooooooo*5555weeeeuibnmue556etuit@.#5tuuuiuw5-**;#@@###&**%#o#;-4;;44444wwtpiir%.                                                                                                                                                                                ",
"                                                                                                                                                                                                                                 .2<<<>++XXooooXoooXoXooXooo%-5555weetuyibbiw55etuu*ooo#-ryuuuuew5-**%#%###%%***;;%*-45q444qwwpkbbk4X.                                                                                                                                                                              ",
"                                                                                                                                                                                                                                 X,<>>>+OXXXoXoooooXXoooooXXo%-5115wetuuewhbu55wet5OXooXo=wettuuew5-**&%%%%#%*-544*;*-5544qqqwpibnnbr%.  .                                                                                                                                                                          ",
"                                                                                                                                                                                                                                 .,>>>,+Oooo#ooooooXoooXXooXX#*15155wett55wiit515w%oXXoooo%5ettptrq-**&&&&%%#%-qqw5--;44;40qqwrpkbmbbi-X.  .                                                                                                                                                                        ",
"                                                                                                                                                                                                                                  X+>,$+OoXo%oXooooXooooooooXX#*55555ew51-*1tiy5--oXoooooXX%weeettew1--****%##&-5weeqq-=;=-44qrppikbmbi-@.....                                                                                                                                                                      ",
"                                                                                                                                                                                                                                  .+++OooooooXoO%#oooooooooXooo#*5545we5#oo##1iy-&oXoXXoXXoo%wptetttew5---=;%#%*5weereq4%%=-400wwrppikbkp4@  X                                                                                                                                                                      ",
"                                                                                                                                                                                                                                   XooXoXXoooXo&-#ooXoooooooXooo#*--5we5ooooXOwut-oXXXXooXooo%5eteetupew5--;*%;&-5weeete;%%=---4440wrppkki4X.   .                                                                                                                                                                   ",
"                                                                                                                                                                                                                                  .oXXoXXXoooXo&*OXXXoooooooXoooo#-1qww*oXXXoo*wue&@XooXoooXoXo;wetuuuutwq--=*%%%&*15weew*@oo%;-;;;444qpuup;:Xo.Xo                                                                                                                                                                  ",
"                                                                                                                                                                                                                                   %%oooXXXooo#%#oXooooooooooXXooo&wew1%oXoXXoo#-ye*OooXXXooXooo*wrttuuuurq---*%%%%%*-5wq4;:oo:;-44;;40wrpuur%oX.X.                                                                                                                                                                 ",
"                                                                                                                                                                                                                                   .%ooooXoO%O%*#ooXooooooooooooXo#wew*oXXoXoXoO&5yuw%.ooXoooXooo%qrruuuuurq5---=;%%%%*--5q8=::;04-;=-000wtuip;oXX                                                                                                                                                                  ",
"                                                                                                                                                                                                                                     .Xoooo%5-**%oooXXooooooooooooo&w5#XXooooXoo#&1hbi%ooXoXoXooXo#-epuuiiurqqq5--*%###%*;5qq0==8:::;;;--00qpui0:oo.                                                                                                                                                                ",
"                                                                                                                                                                                                                                      .XoooOet5=%oooXoooooooooooooX#w-#ooXooXooooo#unnu%oXooXXXXoooo-etuuiiurqqq5-*&%###%%=8rrr0-:::=;==%;04pibku-#o..                                                                                                                                                              ",
"                                                                                                                                                                                                                                       .#oXo&te=%XooooooooooooooooX#w&oXXXoXooooXXo5bBnu%oXXXooXXXXoo;wtuuiittqq5---=%###%%=0rrr88%:=-;==-;;40pikuq@XX.                                                                                                                                                             ",
"                                                                                                                                                                                                                                        .%oXo=w-#oooXooooooooooooXX#5#ooooooooooooo-inBneooooXXoXooooX%qrttuuprqq-*--=%###%%=-88888=%%=-=;=;;;wubkkpw:XX                                                                                                                                                            ",
"                                                                                                                                                                                                                                         ..XXo%-%oXoooooooooooooooXo*#%%oXooXoooXo.#5lnBnt#XXoXooXXoXoo%-rttuuutq5=*--*%###%%%=--qrr8=%%:%==;00ruuibbu=oX                                                                                                                                                           ",
"                                                                                                                                                                                                                                           .X%%*-#oooooooooooooooooo##%**#oXoooXoooo#einBnt#XoooXXXoXXoo%qqertttr5-&*--*%#OOoo%%=qrrqq=:@:==;;;;40ribkp=o..                                                                                                                                                         ",
"                                                                                                                                                                                                                                             o&%--&ooooooooooXXooXoo@#@&ww*@ooXoXXo##&5inBnt%ooXXooXooXXo%*5weetew5*****&%##ooo:%=--qq5;%%==-;;;;40piiur;@X.                                                                                                                                                        ",
"                                                                                                                                                                                                                                              .o%5-%oXooooXooXXoooXo##o#wpw-@oXXXXo###*tibnnu%XoooooXXoXooO-wweeeeq5;*&&&%%#ooXoXo%%----;==%=--=;;;40wtppq%o..                                                                                                                                                      ",
"                                                                                                                                                                                                                                               .o*5-#XooXoooooooooX##oo#4wew=%ooooXXoo@*5eubbu*oooXooXoXoo#-55wwqweq5-&&&%%%##oooo%%====;-8=::%===;=;40rppt;oXX. .                                                                                                                                                  ",
"                                                                                                                                                                                                                                                .o&5%oXoXoooooooooo%#oo#;-wew-%oooooXoXo&-5tibi&ooooooXXoX%55445qqqqw5*&%%%;%%#oXXo:%%%***--=oX@=4004;44wtpuw%oX.                                                                                                                                                   ",
"                                                                                                                                                                                                                                                .oo**#XoooXoooooooo%#ooo;*-ete*oXXoooXooo#%*5ukiqooXXXXoXX%4----4qqqerq-=%%%*%%%oooo:%%%%%=-0-%oo%;0-;;;4qrppw=@X.                                                                                                                                                  ",
"                                                                                                                                                                                                                                                o%o#-%ooXooooooooooOoooo@%*5ee1%ooXXoXoooooo#*wile@oXXooXX#****---qwrttrq-%%%%%%%%ooooo%%%==---%oXX=-=;;;;4wrrr0%oX.                                                                                                                                                ",
"                                                                                                                                                                                                                                                 %oo%%OoooooooooooooooXooo#*5w5-#oXXXoXoXooooo%wuie#XoooXo#*****--qqqrrttr5=%%%%%%%oXXoo:%%==---;:o:-0q4;;44qwppw-@XXo                                                                                                                                              ",
"                                                                                                                                                                                                                                                  o%o%%oXoXXoooXXoOOOOoooXo@%*15*#ooooXXXXooXo%-quie@XoXXo*--**--5qqqqrrrttq-*%%%%%%oXooo%%%=--q-=%%%;q0;-4;4wrppuw%@oX                                                                                                                                             ",
"                                                                                                                                                                                                                                                  X%oo-%oXoooooXXooOOO*5*ooXXo#%#@oooXXooXXXooo##4uu5oXXo*554-----0qqqqrrtttr-%%%%%%oXXo:%%%%=*-qq9-=;;%=44;440tuiip4@XX.                                                                                                                                           ",
"                                                                                                                                                                                                                                                   X%o%-%XXoXooXXoooo@5kkuw5-%XoXooXoXXXXoooooooX#-we5;#%5w55-==-8qqqqqqqrrttr8=%%%%:ooo%%%%%%**9rtrrq-%%40=;40tibVVbt%XX..                                                                                                                                         ",
"                                                                                                                                                                                                                                                    Xoo*-*%oXXoooO#ooo5iutttttqq&OoooXXooXXoooooooo*wee5q555q4-=--qqqqqqqqwrtutq-%%%%o%%%%::%%=-qpiuuutq;00;;0wubBBBBnbp4%oo.                                                                                                                                       ",
"                                                                                                                                                                                                                                                     .X%qq=%oooXo#%oo@ti*#%%-qtuyw55-%#ooXXooooXoooo%wutw44wwq-=---q-qqqqqqqrtptq=%%%%%%%%oo%%*-rttyuuurrt0%-tubnnbkiiiiit*%X                                                                                                                                       ",
"                                                                                                                                                                                                                                                      .o=qq*ooooo#ooo%ueooXo5-*15weeeew5&#ooXooXooooo*tt5455qqqqq---q-80qqwwqqtupq-*%%;%%#Oo@%=-8-==**==qq8-pkbbipw04;;;;0q;@X                                                                                                                                      ",
"                                                                                                                                                                                                                                                      .%o-rq%##oOoooo*e-oXX=iu1*---15weeeq-*&#ooX.Xoo#wtq4554qqwqq-----0--qqqqqtpue-&%&%%%%:%%%==%%##%%%=-qruiiuw44;%o@@oo@oooX  .                                                                                                                                  ",
"                                                                                                                                                                                                                                                       .o%qq--*#%#Ooo*4*#XXqbbiuutee5555erwwwww55-*%o@-w54455qqqwwqq-----58qqqqrtuut5**%%%%%%%%::oO@@@@#%*=qpuq5w54;@XooooooooooX.                                                                                                                                  ",
"                                                                                                                                                                                                                                                        %%=rqqw55-%%*w5-%%%ebbbbbliiiyeeeeetetpuilli=o-544-445qqqqqwq-----88qqqrtuiitw*%%%%%%%OooXoooooo#%%-ttq*-;;;@oooooooooXo%X                                                                                                                                  ",
"                                                                                                                                                                                                                                                        o#o-qwwww5*%5ut-%%*qq5etuiiihlhiiiiuuteeweut%o*54444--45qqqqq0---0qqqqqqrtpiiuq-=%%%;%oooXXoooooo%%=rrq-%@@%#oXXoooooXoooo.                                                                                                                                 ",
"                                                                                                                                                                                                                                                         .:o;q55-&%%wut-*%-w=%%#%*4weuiiilbbbiiuutt5oo*ew555---0qqqq00q5qqq88qqqrrttiiutq=%%*%%%%ooXXooo#%%=qq-&#oo##oooooooooooXXX.                                                                                                                                ",
"                                                                                                                                                                                                                                                          o%@**%##%*wur---qtqq--=**=-55weuibmbbbblt*oo#weeq5---qqqqqqqqwqqq-80qqqqrrtuiitq=***==*%oXooooo:%-q-%#Ooo#%oXXoooooooooXooX                                                                                                                               ",
"                                                                                                                                                                                                                                                           ..o%@###-eue*%=erqq-----4qwwwwwtuilbbmbq%ooo*etw5-;--880qqwqqqqq9----qqqrrruiiuw-*%%==*%ooooXoo:=-%OOOoXo#oooooooooooXo.o#.                                                                                                                              ",
"                                                                                                                                                                                                                                                           ..o####eipue5*quurrqqqqqqqqw55-55etuiii5#oXoo%5e5-=----8qqwqqqqqq----8-qqqqwuiiir-%%%%%%%#ooXoo%%=%OOOooXXooXXooooooooooo#o                                                                                                                              ",
"                                                                                                                                                                                                                                                             %####bBi5-55ubiiuppptrrrrw51--55wwwtu5%oXooo#*5---8--qqqwqqrqqqq8----qq0qqqrubbt-*%%%*%%@oooo:%=%oOOooooooXXoooooooooooo#X                                                                                                                             ",
"                                                                                                                                                                                                                                                             %-o#Oebbe###ebiippuuptrrtt5---555--qt-#oXooXoo%%---0--qqqqqqqqqq-=--------8rrinbu5%%==*%%oooo%%%OooooooooooooooooooooooooX                                                                                                                             ",
"                                                                                                                                                                                                                                                             Xt%##&qpw#o.-iurrtpptpuuiu51--45w4*5t%ooXoXXooX%qq----4--qqqqqqqq----------qrpbbbuq-=%%%%%%%%%&#ooooooXoooooooooooooooooo.                                                                                                                             ",
"                                                                                                                                                                                                                                                             .qt#%=-*=%oX%trqqrtrrruiiu55---5w5*quooooooXoXo%=qqq04----qqqqqrrqq--------qrtuibbit-=%%%%%%%=&OooooooXooooooooooooooooXoX                                                                                                                             ",
"                                                                                                                                                                                                                                                              .1*%--*%*#X%tr=0rqqrqwruu5---5-5-*qyO#XoXXooXXoo=qe5-----8--8qqrrrq8---=-8qqrruibmbi8=%%%%=-1*OooooooooXXoXXooooooooooXoX                                                                                                                             ",
"                                                                                                                                                                                                                                                               .o%q----%o#tt%=qqqqqqqquq==-q4-*%wu#%ooXXooXXoXo;rt5--------qqrtttqq--=--qqqqruibnbiq=%%=-qq=OooooooooXXooXXoXooooooooo.                                                                                                                             ",
"                                                                                                                                                                                                                                                                 @==&-q%oo=q%=8qqqqqqwt-===-q=#Xqi%%ooXoooXXoXX.*ttq=--=----qqrtutrq------8qqruibnbiq%=-qqq=%ooooooooXooooXoXooooooooo.                                                                                                                             ",
"                                                                                                                                                                                                                                                                 .o#&-q--oo8-=888qqwwqr=;%&=-*#X-i=*oXooXXXooXooX%qr-====---8qqqruurq--qq8--qrtiibnnktq8qtq=%ooooOoooXoo#oooXXooooooXXX.                                                                                                                            ",
"                                                                                                                                                                                                                                                                  .o#*-w1#o%--989qqqqwq=%%%%;%#X=i-5-%#ooooXXoXXooo-q-=====--qqqqruurq--8qq--qqtuibnBnbiitq=#ooooooooooo#oXooXooooooooo.                                                                                                                            ",
"                                                                                                                                                                                                                                                                  .%#o#*%o%o%qqrrqqqwqq%%%%%%%Oo;iuuurq*%ooooooXooo#rq-=-----qqqqqruutqqqqq---qqrtibBBBnir-%oooooo%%%oXX#@oooooooooXooX.                                                                                                                            ",
"                                                                                                                                                                                                                                                                   X%ooOO@#oo=qrrtqqqq-=%%oooooo%ibbbbit5%oooXXXoooo&qq=--=-55qqqqrtuuiuqqq----5wruibBBbuq%ooooooo%%%:XX%%ooooooooooooX                                                                                                                             ",
"                                                                                                                                                                                                                                                                    =%ooOo.oO:=qpprrq--*%Oooooooorbnnnbbir-%oo.oXoooo%qq-===---qqqqrruitq5-=%===-qribnniq%%%oooXoXXooooo%*@XoooXXoXoooo                                                                                                                             ",
"                                                                                                                                                                                                                                                                   Xw#o@o%-o%%%-ruitqqw-=%Ooooooo%-tibnnbbiuq-#XXooooX#qt-===-444qqqqrte-%%%%%%%=-qribbu=#%OooooXooooXooo##XoXXoXooXooX.                                                                                                                            ",
"                                                                                                                                                                                                                                                                  oq%ooooeu%%%%%8pkuqqt---=%ooooooO&1tuibbbbbiw#oXooooX#wtq=%=--80-8qqtr=%%=%%%%%=-qtbbt=%oooooXXXo=q0%ooo%oooooXXoooXo.                                                                                                                            ",
"                                                                                                                                                                                                                                                                 .=qo#%@#q5&%%%%%rku9-trqqq-%#OOOOOO%%==qibnnbu-oXoooooooqtq===-8q---qtr=%%%=%%%%%=-tbbtq=%Oooooooo=piur8%ooXXXooooXoooX                                                                                                                            ",
"                                                                                                                                                                                                                                                                X%oo@%*%o%5=%====rir%Orttrqqq-*%##OOOoooo*qibbiwooXXooooo#-qq-==----=qte-====%%;%%%-riiurqq1-=%%:oo:-pibmbtr-%oXoXXooooo.                                                                                                                           ",
"                                                                                                                                                                                                                                                                q%Xo%*-&o#rq*=%%==tqoo%=qqrrqq5-=%%#oooooo#%tiiu%oXoooooooo=qq-%%----qwq===**%%%%%%=qiitqqqqqqqq---8rppibnmnmbuq;XXXooXXo%.                                                                                                                         ",
"                                                                                                                                                                                                                                                                %%o##%%%%%5=%%%#:%=*Xo#%==--5-qqq-%oooXXoXoo*tib-ooXoooooooo=rq=&%==--qq===%****%==-qurqq---8qqq0qrpiiibbiibmnnnbt=%oXoXo%X                                                                                                                         ",
"                                                                                                                                                                                                                                                                 oXo#@oO-=;%#oooooooXooo#%%%==-qq5=ooXoXXXo%o;bbeooXoooooooooqr-=%=*;-5-=====%*%*==qerqq==-----==-=qpuiiuipptibbbbmb=XoXoXo                                                                                                                         ",
"                                                                                                                                                                                                                                                                   X%ooo-q-*OOooooooXoooooo#%%%=---%#XoXoX%eq*iieoooooooooXoXo5q-====-q--====%;%===-qq5=%%=====%%%%-qqrtrrttrqwr4quu%XoXoXo.                                                                                                                        ",
"                                                                                                                                                                                                                                                                   .#ooo*q-%oOooooooXooooooO##o%%%*1*oX#-55ulqruqoXXXoooooXXooo%q-====---====&=%%==-q-%%oo%%:::oooo*--qqrrrq-%;5;*55#XXXoXXX.                                                                                                                       ",
"                                                                                                                                                                                                                                                                    Xooo#*=%OOooooooXXooooooooooO#*w5oX4bnttbtqtqooXooooooXooooX%--===--====*%%%%==0q%#oooooooXXXoX#%%=qqq08-%%55%*4#ooooXoXo.                                                                                                                      ",
"                                                                                                                                                                                                                                                                     ooo#*-OOOoXooooXXoooooXoooooo#w5oowB~u-itqq=oooooooooooooooo%q-==--===*&%=%=%=q-%oXooooooXXoXXooXo%%=--=%o*w;@@ooXooooX#X                                                                                                                      ",
"                                                                                                                                                                                                                                                                     ##.o%*OoOoXo##oooXXoooXXX.oOO#54oo-nBt%ee-q%XoXoooooooXoooXXo%-=%--====*%%%%%=q-oooXooooXooXoooXoXoo#%%%oo#-%XXXoXoooo.oo                                                                                                                      ",
"                                                                                                                                                                                                                                                                     o=o%%#oO%%ooo%#oooXXoooo#%#&*%-*Oo*ui-o%q1qoXoXXoooooooooooooX#-q======*%%%**=q=oXooXooooooooooooooooooooXooooXXooooooXoX                                                                                                                      ",
"                                                                                                                                                                                                                                                                     o*%%%#oO%-%oo#%#ooooooXX*e5*---%oo*--%X%-&%ooXoXoooooooooooooXX%----==*%;%=%*-q%ooXoXooooooooooooooooooooooooooooooooXooXX                                                                                                                     ",
"                                                                                                                                                                                                                                                                     Xo.XXXXoo-1#oo%##ooooXoo*ut&*-*#oo#@ooX@*%oooXXooooooooooooooooXo%=---===;=%*--oXoXoXoooooooooooooooooooooooooooooooooXoo-.                                                                                                                    ",
"                                                                                                                                                                                                                                                                    .XooXXooXo%5*oooOOooooooX#qe%**%#oXoXXooo##ooXoooooooooooooooOoXooX%5----;==;*8=XXoXoXXoooooooooooooooooooooooooooooooooXo%.                                                                                                                    ",
"                                                                                                                                                                                                                                                                    XooooooXXoo%*#.oooooooooooo#o#%#ooXooXoXoooooXXooooooooooooooOOooXXo=5q--===%%q=XoXooXXooooooooooooooooooooooooooooooooXooX                                                                                                                     ",
"                                                                                                                                                                                                                                                                    oooooooooooX#*oXooooooooooooXoooXooXoooX#%ooXoXXoooooooooooooOO#OXXX#*qq9=--==q=XoXoXooooooooooooooooooooooooooooooooooXoo.                                                                                                                     ",
"                                                                                                                                                                                                                                                                    .XXoooXXXXXoo%#Xooooooo@oXooooooXooXooXo##ooXooooooooooooooooO#%%oXoXo5rq----qp=ooXooXXooXXoXooooXoXoXoXooooooooooooooooXX.                                                                                                                     ",
"                                                                                                                                                                                                                                                                   XXXXoooooooXXX@%oooooooo##oXoXoooXXooooooooXoXooOooooooooooooO#%%%ooXoX#qtrw--qu=ooXXo#oXXXXooooooXXXoXXXoXoooooooooooooXoo.                                                                                                                     ",
"                                                                                                                                                                                                                                                                   #ooXooooooXXoXo##XXoooo#%%oXXooXXooXXoooooXXoooOOoooooooooooo#%%==oooooX%=qerqti%#ooXo##ooooXoooXXooXoXoXXooooooooooooooXoo.                                                                                                                     ",
"                                                                                                                                                                                                                                                                   .XoXoooooooooooo#ooooooo##oXXooooooXXoooooXoXXoOOoooooooooXoO#%%%*ooXXooXXo=qeii**oooXooo#%%%%OXoooXXoooooXoooooooooooooXoo.                                                                                                                     ",
"                                                                                                                                                                                                                                                                   XoXoooooooooXoXXoooooooXooooooooooXooooXoXXoooooOoooooooooXoo##o*-oXoXXoooXoo-ii;%oXXXoXoooo%%%#%oooXXoXXoooooooooooooooXoo.                                                                                                                     ",
"                                                                                                                                                                                                                                                                  .ooooXooooooXooXXoooooooXooXoXoooooXooooXXXXXoooooooooooooooXXooo*5oooXoXXoXoXo-w#oXooooXoooXXXoO-q-*%ooooXooooooooooooooXoo.                                                                                                                     ",
"                                                                                                                                                                                                                                                                 .:XoXoXoooooooooooXXoooXooooooXooooooXXooooooooooooooooooooooooooo%*oooXoXXooo##oOoooXXoo#elhuq&Ooo%o%-5=oooXoooooooooooooXoo.                                                                                                                     ",
"                                                                                                                                                                                                                                                                 ooXoooXXXooooooooooooooXooooooooooooooooooXXooOOooooooXooooooooooXooXoXXoXoo&1eyw1:ooXoo&ymBBNVmhy%oXooo%*5-%#ooXoXoooooooXoo.                                                                                                                     ",
"                                                                                                                                                                                                                                                                 XXoooooooooooooooooooooooXXoooXooooooooooooooOOoOOoOooooooooooooXooXXoooooo%euuiiy1&#o#1inNBBNNNNVeoXXXXXo%==%o%%oooooooooXoX                                                                                                                      ",
"                                                                                                                                                                                                                                                                .XXoooooooooooooooooooooooooooooooooooooooooooO#O%%%#oOoooXoooooooXXXooooXo%wiiiihiw12&2hMNJJJNNNNNn2XooXXXXoooo%-ooooooooooo.                                                                                                                      ",
"                                                                                                                                                                                                                                                                Xooooooooooooooooooooooooooooooooooooooooooooo#%%%%;%OOooXXoooooooXoooXoXo*wuiiiiiuyw77hNJJJJJIJJNNMhOXooooXoooXXoooooXXXXXoo.                                                                                                                      ",
"                                                                                                                                                                                                                                                                .ooXooooooooooooooooooooooXXoooooooooooooooooO%%%=*=&#OooXXooooooXooXoooX%wuiiihiuuy77jIIIIJJIIJJNMMMy#ooXXoooXooXXoooXXoXXoo.                                                                                                                      ",
"                                                                                                                                                                                                                                                                XXoooXooXXooooooooooooooooooo###oooooooooooooO%%====;#oooXXoooooooqw%XXoo*eiiiihhhyy7yMIUUIIJIIJJJMMMMh$#OoooXoXXoXoXXXXoooXo.                                                                                                                      ",
"                                                                                                                                                                                                                                                                ..oXoooooXoooooooooooooooooo%%%%#ooooooooooo##%=-===*%oooXXXooooooui5oXXo-tuiihhhuuy7hNUQIIIIIIIIJNMMNMh61&&+oooXoO*&&#oXoXoXX  :                                                                                                                   ",
"                                                                                                                                                                                                                                                                .oooooooooooooooooooooooooo;ew-&#Oooo#OOoo##%%*=---==%O##oXXooooooque@oo#5tuuihhiuyy7hNIIUUIIIIIIJJMMJJny5ww1*OXXXO*6y6*#XooXXoo-                                                                                                                   ",
"                                                                                                                                                                                                                                                                o*ooXo%%ooooooooooooooooooo-uuw&*&%OOOOOoo#%%===-====%%*%oooooOoXo*t5ooo%5tuuiiiuuyyylNJHUWUIIIIIIJJMJJNlw6w11%oXXo#6hd77*+ooooo.                                                                                                                   ",
"                                                                                                                                                                                                                                                                #-#oX#%%ooooooooooooooooooX%uie&*=&%OOOOO#%%*========%%-%oooOo#oXo%q%Xoo%5weuiiuyyyydlMMFIWUIHIIIJJJJJJNMh7211&oo###6hd7776OXoXO                                                                                                                    ",
"                                                                                                                                                                                                                                                                o%%oXO%oooooooooooooooooooXo-uu---=%ooooo#%***%%%=====*-&OoO#%%OXo#%Xoo#*-4wuiiyyyy7hcMccJWUHHHIIHJJJJJJNmyyyw1&#5-&27d777h6XX.                                                                                                                     ",
"                                                                                                                                                                                                                                                               .X%Ooo##oXooXXooooooooooooooXoriw-==%Oo#O##%%%%oo%=%=*===%OoO%=-%ooXoXoX%=-*5yiiyy6yhlMcccJWWUIHHHHJJJJJJNNhyyyw11w2$$67ldddh*..                                                                                                                     ",
"                                                                                                                                                                                                                                                               .o%oo%%ooXooXXoooooooooooooXXo%uu5=*%OOOO%%%%oooX%==%*%%%%oOO#-q%ooXooXo%***-tuuy66ylMMcccFURWUUHHHHJJJJJJNMu6eyyy6*OO$,7lldh7o.                                                                                                                     ",
"                                                                                                                                                                                                                                                                Xooo-=XooooooooooooooooXoXXXoo%ue-#OO#O##%#Oo*wo#%==***%#OOo#-q%ooooXX@%***-ryew67hcMcccccHWRRWUIHIHJJJJJJNc76yyy6*ooO+2hllld$.                                                                                                                     ",
"                                                                                                                                                                                                                                                                %#oOq&.ooooooooooooooooXXooXXooquw#OOOOooOO#Xin%o#%===**%#OoO=-%ooXoXo#;****ww612ylcccccxcGWTRTUWWUIIJJJJJNMlyyyy6*Oooo+7hlzl7#                                                                                                                     ",
"                                                                                                                                                                                                                                                                oq#%1#ooooooooooooooooooooXXooo%uu*ooOoooOoooin=oo%=====%%#oO=-%oooooo#**-*-5*$22ylcccccxcFLWRRRRWUIIIJJJJJNMhyyy62Oooo+,7vzzd$.                                                                                                                    ",
"                                                                                                                                                                                                                                                                 %q1=ooXooooooooooooooooXoXooooo-uw##%ooooOoOti-oo%-=;==&%###=-=ooXXXo%*-----#o$2hlcccccZSZGLTREERWWIIJJJJMMMMhy762#oXXo+,7dzd7O                                                                                                                    ",
"                                                                                                                                                                                                                                                                  %w%oXooooooooooooooooXXoooXoXo@5e=*-%oooOoo=-Oo%*---===%%%%%=%ooXXXo%*--44*oX$7hlccMMFFFFFHYR(EEWUUIJJJJJJMNMld76,#oXXo$7dhld3X                                                                                                                   ",
"                                                                                                                                                                                                                                                                 .-=ooXoooooooooooooXooXXoXooXXXoO*--5%oooooo%#oo%*---====*%%%%%ooooXo#*--4-#oo$7hcjcMFFZZFFGLT!!ERUUIJJJJIJJJJMhd77,+XXX+,67hhd$                                                                                                                   ",
"                                                                                                                                                                                                                                                                  ooXoooooooooooooooXXXXooooooooooo%55%oOoooooooo%*----==*%%OO##oooooo%&-11%oXX+7hhjcMFFcxcZFHTR!RRRWWIHJHIHJJJJMchd7$#oXX+*7dld7+.                                                                                                                 ",
"                                                                                                                                                                                                                                                                  .ooooooooooooooooooooXo#&#ooooooo#--ooOoooooXoO%&---==*%%#OOoooXXXoo%%=*-#ooo+7hhhjcFFZxcZFHYTRRRRE^RUIIIHHJJJJJczd3$#+o+$7dddd,.                                                                                                                 ",
"                                                                                                                                                                                                                                                                 .XooooooooooooooooooooXo%-;oXoooooo*=ooOoooooooo#%*--==;%%#OooooXXXXo%%***oXoo+3dhhhcFFFcZFFHYYTTRE(((WWUIIIHJJJJJFch7,,$*27dddhd,.                                                                                                                ",
"                                                                                                                                                                                                                                                                .XoXXooooooooooooooooXXXo#;%oXXoo%%o%%XoooooooooO#%%===*%%##oooooXooXo%%&%%ooXo+,7dhhjMFFZFGFHYYTTTR(((^^^RUIIIIHHJJFcch766677ddhdd$                                                                                                                ",
"                                                                                                                                                                                                                                                                XooXXoXXooooooooooooXoooo#%#ooXXo#%oooXooooooooO##%%==**%#OOOoooooXXoo%%%#ooooO+,<dhsjcFFFFFFGUYTTTRE((^^^RWWWUIIIHJJFFMclllhdddddd7X                                                                                                               ",
"                                                                                                                                                                                                                                                                XXXXooXoooooooooooooXoooo##oXoXXo##%oooooooooooOO#%%==%%%#OOOOooooXXo%%%@oooXo+,>3addscFFFZSZZGLUTTRE^(RIIIIUUUIIHHHHHHJMccccldddddd3X                                                                                                              ",
"                                                                                                                                                                                                                                                                 .XoXoooooooooXooooXoXooooooXoooo%%%ooXooooooooooO%%%%%%%OOOOoooooXoO%##oooXX+2,><<<asccZZcxZSSHYYTREERIMMJHIUWIIIHHHHHJFcccclddddddd,                                                                                                              ",
"                                                                                                                                                                                                                                                                  .oXXoXooooooXooooooooooXooXoooo%##ooXooooooXXoooO%%%%%%##O#ooooXooo#OoXooXo$,,><<<ascccjxcFZcPYUTRERHMMIQWWEEWWIHHHJJFFclzcld7ddddhdX                                                                                                             ",
"                                                                                                                                                                                                                                                                  .oXooooooooooooooooooXooXooooo###O##ooooooooXooooO##oOOOO##oooXoXoO&#ooooXo$,,,<<aascccxZFZcZHYUTREUFJQE^^^^EEWWHJJFFFFczzcl77hhddld,.                                                                                                            ",
"                                                                                                                                                                                                                                                                  .ooXXoooooooooooXXoO#XXoXXooXo##OO&1%ooooooooooooooooOOOO#OoooXooo#-%ooooXO,,,,3<ddsjcZFGGSjZHYWRRTUHE^^E^^EEEEWIHJJFGFZxzll77hhddld7$                                                                                                            ",
"                                                                                                                                                                                                                                                                  XoooXoooooooXXooXoO#oXXooooXXo###O&w;oooXXXXoXoooooooooOOOoXXoooo##*#oXooo+,,,,<<ssshcFGHGZxFGLYTTTTE_(^EEWEEE^EWWUIJJGFcccchdlhddlld7.                                                                                                           ",
"                                                                                                                                                                                                                                                                  XXXoXXooooooooooo#%oXoooXXXXo#####&5*ooooXXXoXoooooooooooooXXoooO#%%ooXooo+,,,,3<dsssjFGGGFZFHHLTTWREEE^ERWEEE^ERRWUHHJFcccccdhzddddd7+                                                                                                           ",
"                                                                                                                                                                                                                                                                o=5-*%#ooXXXXoooooo%OoooXXoooo%%%##%*-%OooooooooooooooooooooooXooooo%%XXXooX+,,,3<aaddsjZGGHGGFGFGYYYTREE^EEREEEE^^ERWLHHGFZcccdhzzllhd7,X                                                                                                          ",
"                                                                                                                                                                                                                                                             .X%qeuuytrq-*;*oXoooo*%XoXooXXoXo*1*%#%**##oo.oXoooooooooooooooooooooo%%OXXooXX$3733<aaaadfcFGPPGFFZZLLLWREE^^^ERWEE^^ERWUHHJGFczhddzzzzzld7,.                                                                                                         ",
"                                                                                                                                                                                                                                                           .%qqqqweettuuuilblq#Xo=%ooooXoXXXo#-55*%#%%##OooooXooooooooooooXXooooooo%%ooXooXX+,377<aaaddsxFGHKGZSjjGLYWTEE(((^RWE^^^^EWYLLHJFczhddzcczzzdd7+                                                                                                         ",
"                                                                                                                                                                                                                                                           -it1-115qweyyyuihmnb-#=#oXoooXXoXoo%551&%###%#%%oooooooooooooooXXooooXoO%%XoXXoXX+,333<<adsshxZFGGGFSjxGLTTTE(___^RWE^^^^ERRYYLLJZczddzcczczzda,.                                                                                                        ",
"                                                                                                                                                                                                                                                          o5ee1**-115wettuuuibnnb=oooXXXooXooXo-1-&&#%%%&**%oooooooooooooooooooXXo%%oXoXXoooO+,337aadssjjcZFGHGZcZGLYYTR(___^RWRE^^^^ERWWYULJFFcjzcMcczzvd7$                                                                                                        ",
"                                                                                                                                                                                                                                                         o-%1y6****2115weeeeyulnBnr#XXoXXoXXXXo#&&&&%%#%****oXoooooooooooooooooXo%%%XooXoXooo+>37<adsshjjjcFHPPGZAKPPLYTR((_^EEEEE^^(ERRWUUUJGFczzcFMccczld7+                                                                                                       ",
"                                                                                                                                                                                                                                                        Owe&&65**&**21155wwweyulmnBb-oXoXooooXXoo#&&*%%&***%OXooooooooooooooooooo%%ooooXoXXoXo+,7dddshjjjjjZHPPGFFGGPLYTRREEEEEEEEEE^EERRUUHJFFczzccccccczdd,.                                                                                                      ",
"                                                                                                                                                                                                                                                       Otuuyw15ww1---1-15555wetuilmNme.ooXo%#oXoo##%%%&***%#oooooooooooooooXooXo#*%XoooooXooo++,7dddshjjfgjcFHPHFFFZGLTTRREEEEEEEERE^EERRWUHJFFczzccccczczzd7,                                                                                                      ",
"                                                                                                                                                                                                                                                      %yuuuiueeuuuutte5-*-55wreettulmni*ooX##oXooo@%*&%*-*%#oXoooooooooooooXooXoo%oXoooooXXo+++>7dddshjjssfjFHHGFFZxZPTTTREEEEEEERRE((ERRUIHJFFccccZcczzzzzzd7$.                                                                                                    ",
"                                                                                                                                                                                                                                                     Xeyuyyyuuteeuuuuiiuw-155ww555wuimVny&oo#%oXXooo%%*---%%#XXoooXoooooooooooXXoooXoooooXX++>>>3addsfjjfffgcFGGFFZxcGLYWTTEEEERTWWE((ERTUHJFFFZMczcccccczzczd7$                                                                                                    ",
"                                                                                                                                                                                                                                                     *eyyyyttyyeeuiuuuiiiue5555555wtyuhmnmt%#ooXoXXo#%=151*&#OooXoooooooooooooXoooXooooooooO+>>>><dasfjjjfffjZGGGGZcxSGLLLWTTRRRWUUE(((((RWHJFcFJFcjdzzccccczzd7+.                                                                                                  ",
"                                                                                                                                                                                                                                                    O15wytttttyyqeiiuyyuilitww5555wwweyibmnl-ooXXooXo#%-1*&###OooooXooooooooooooooooooooooXo+>>>>3<adssjjjfffjZFGPGZxZGPLLPPYTRTTYLR(((()(RUHJcFJHFczdddllzccczd,.                                                                                                  ",
"                                                                                                                                                                                                                                                   X1511qetteeyyr5wyiyytuiliue1*--15wwetuibmbu*@ooooooo%*&#####ooooooooooooooooooooooooXooXo+>>>><<adassjxffffxZGLPZcZGPLLGFHTRRTUUT((((((ETUHFFFGGFcczh777dzzzv7,.                                                                                                 ",
"                                                                                                                                                                                                                                       .X         .&16111weeeeette15iuytyuihiiuw***-55wwertibnbw##oooXXo%%#####OooXooooooooooooooXoooooXooXX+>,><<aadsssjxjffjxZFKLFZFGGLLGcFYRRTWUYRE(`__(EWUJFFFFFFFFMlhd7ddzcd7+                                                                                                 ",
"                                                                                                                                                                                                                                       o-X..oX.  .#*199111qrrrrettew5eytttuuiilliw----5wwwweubnmi5#XXoXXooO#OO#O#oooooooooooooooooooooooXXo.O,,<<<addsssjxjjjjxZZFPGFGGFGLGxZLRRRTYLUW^___((RUHFFFGGGJJJMcczddzczd7+                                                                                                ",
"                                                                                                                                                                                                                                       .%ooo#%*..5-15tqtq1qqrtrreete11etttetyuuiihuw555wwwq5wtimnmw#ooXoooooOO#O##oXoooooooooooooooooooXoooXo+,33<addsssjjjjjjxSZZGGFGGZFPGZFYRRRRTLHUR(_()(EUUJFGHHFGJJFcczzzzzzzd,X                                                                                               ",
"                                                                                                                                                                                                                                        XooXoXoore*qrtttt99tttrweeweywqettewwettuiihutww5qwwqweubnbe%#oXoooooooo##oXoooooooooooooooooooXooooX+>333aassssfjjjfjjxZFGZZGGZZGLGGTRRRRTWUUT!())(^RUUHHHGFGJJFccccczzzzzd,                                                                                               ",
"                                                                                                                                                                                                                                        XooXoooo=*-qtttttt9qtrrwwwwwwe5-wytwwweetyuiiiyw5555q55euhbmi1%oXXoXoooo##OooooooooooooooooooooXooooXo>33<<<dssssjjjfffjSFFZAGGZcFLLLTTRRRRTYYTR(___(!TUUULHHGFGHGDZcczzzzzz7+                                                                                              ",
"                                                                                                                                                                                                                                      .XoooX=8%%#%-9qttttr11qwwwwwww55w5-5etwwweeetuyiiuteww1111weuhbhwOoooooooo##OooooooooooooooooooooXoXoOoX+,3<>>assssfjfffggxFFZFFFZSZPLLYTTTTRTTYWR!)_`_(RTYLLLHJFZFHKDZcczzzczd3X                                                                                             ",
"                                                                                                                                                                                                                                      Xoooo%ttqq51--qrttrrq111555www5wwe5**5eeeeeeettyiiiiue5111111wullu*oooo##OO#OooooooooooooooooooooooXXO+X+><>>>assssgffffggfZAAFFAZSZPPPLYTTTTTTTUWR(___(!RULHHHHJFZFGPGDczzzcczd,X                                                                                            ",
"                                                                                                                                                                                                                                      ooXooqiurrw5--5wetweeq-*1666w5wwwwrw1&1wweeeeeetyuihhiy5111**5euihu-oooo##O#ooooooooooooooooooooooooooooO>>>>><dsfsggffjfgfSZAAAASxZKPPLLYYTTTTTWYTE((__(^WUHHJHJGZZZGGFZczccczzd,.                                                                                           ",
"                                                                                                                                                                                                                                     .OOoo=iitrte5--5weeeeeew-**5wwwwwww5et1&1weeeeeeeeeyuihhuw11*&*16yubleoooo##Ooo#OooXXXoooooooooooooooooooX+>>><<asjjfsgfjjjjjZAAAASxZGGKPLYYTTTTTTUYUR^(`_^RUHJHJHJFZSFGGFZcccczcz7+X                                                                                          ",
"                                                                                                                                                                                                                                     o#OO:qutrrte5--5wwwuutet5***1555wwwwwttw**weewwwwweeeyyuhhy1*&&*1wyuibt%ooXo#oo%%OoooXooooooooooooooooooXX+>>>><asjcjggfjxxxjSZAAASjZGGKPLYYYTYYYUYUUW^```(EUHHIHHJFZZFGGFFccczzzzd3+                                                                                          ",
"                                                                                                                                                                                                                                    .&:+:*tq-qrtr5--1555bnltee51&*1555ww555www--5w5wwwwwwwweruhhu5*&&*1wtyihy%XoooO###OoXoooooooooooooooooooooo++>><<<asjjggfjxSSxSZZFASxSZGPLLLYYYPGFJHJHW^_``_^WIUUHJJGFFFGDGGZcczzzzzd3.                                                                                         ",
"                                                                                                                                                                                                                                    X*++:qt*%-qtew511--1mBmueeee1**155ww5555ww5&*5w55ww55qqwweyuiur-*&*-wetuuwooXooOoooXXooooooooooooooooooooXo++>,<<<<ajjggfjSZZSSSAGGZSSZGPPLLLYYPZcZGJJIRE^((^^ERWHFGJGFFGDGGDcczzzzzvd,.                                                                                        ",
"                                                                                                                                                                                                                                    o::+*tt%o*qqqww51-*-mNluweeew-&*155555515555**5ww5ww555wwwwreyut5*&*55wetu5oooXoooooooooooooooooooooooooooo++>>3<<<asjfsgfxZZSSSAKGGZSGKKKPLYYYLGZGPLHIUWW^__(^RIFccGPGGGDKDDDDcczvzzvd,                                                                                        ",
"                                                                                                                                                                                                                                   .Xo+*9t-:%-qqqww55-*1bnuewwwew1**-1551-1551555*&-5w55515555qqwweete5***5ette*oooooXooooooooooooooooooooooooX++>>,<<aaassssfxSZZSSZFGGFFKKGGKLYYTTYLLYYWWUUWR_``^WJMcjxFGFGKPGDDDDczfvzzd7.                                                                                       ",
"                                                                                                                                                                                                                                   .ooo-q1%o%=---qwwq-**bmuwww5ww5*&*-1---15555ww5-%&1q555115-15555wetew5*-wettw%oXoooooooooooooooooooooooooooXo+>>>3aaaadsssgjSZZxjxZAGGGGGGGGPYTTTTTTTTTRWWWR(`_^RUIJczjzcZGGDDDFDZcvvzzzd,.                                                                                      ",
"                                                                                                                                                                                                                                  .oXXo&q&oO%***=5wwq5**ibtwww55w5-*&----55555555ww-%%*5ww511--1--55weeew*&5weee5%ooooooXooooooooooooooooooooXoo+>>>3<a<<assssgjZZSjxZFGGGGFFAZGYTTTTTTTTRRRRWR^``_`(^WUGjsjcGGDDGKGDczzzzzzd,X                                                                                     ",
"                                                                                                                                                                                                                                 .ooXXo%-%o%%%%%*-wrw5--ileww555w55-**----55551-155w-%o%5ee5-----555wewew*%*-5wwe-OXXXXoXooooooooooooooooooooXXo+++><<aa<asggssgxZSxxZGGGAAAZZxZLTTTTTTRRRRWWWR^(`_``(RWHcsjcGKGGGKKGczzzzczl7&.                                                                                    ",
"                                                                                                                                                                                                                                 .ooXoXo:oO%:oO%&-wte515uieww5-55555-**--11-111551151-%#%-5www55-555wwww51*%&*5ww5*oXXXooooooooooooooooooooooXXo+>>>><<aaadsggssfxSSxZAGGGGDZSxZPTTTTTTRRTUFFHW^(((__^RUHFcjcFHPKGKKGDcczzzczl7X                                                                                    ",
"                                                                                                                                                                                                                                .oooXoXXooo#oo:%*-euuw1-ulyww51555555***---11-151-15551-*%&-5ww5w5551-----*%%#*555-#oooooooooooooooooooXoooooooo+>>>>>3adaassfgsgjSZxxSAGGGDASSZGLTTTTTTTRJzcJR(_(___^RWIHJMcZJPKKPPGFZcczccczd,.                                                                                   ",
"                                                                                                                                                                                                                               .XoooooXooooooo#%*-euit5*uluww511555w5-*%*---111111-51-1111&%*-*-5wetew5551-%%%#%*-55%oooXooooooooooooooXooooooo+>>>,>>>adaaasfgssjSZSxxZGGGGAZZZZGLTTTTTTTGxJUW^((`'`(EWWUIHFFJHKPPPKGDcccccccz7$                                                                                   ",
"                                                                                                                                                                                                                               XoOOooXXooXoXo%&&%*eiit5*tluwr5--155555-%&*--111-1--1--------*==*--5rtyuyytte51&&-5wr1#oXXoXoooooooooooooXXoooo++>>><>>><ssdasssssjSZSxxxZDKGDAAScGGPLTTTTLccHWREE^(_``(RWWUHHJJHHPPPKKGDDccccczd3.                                                                                  ",
"                                                                                                                                                                                                                              .oXoooooXoXooXO&**%&eiit5-wuutw511115-155-&&---1--11---------1--11--&*=-5-5ettytr5-1-=&@oXXoooooooooooooooXXooo++>>>>,<>>3dssa<asggfZZZZZxSDPKDDDZZAGPLTTTTGzZLYWWRR^_``_EWUUHJHGGLLPPKPPGZccccczld,                                                                                  ",
"                                                                                                                                                                                                                             .%oooXoooooXooXo#%&&&eiit5*5wyuw551111**155-%*-11--11------98--919qqq5q-111115***%#oooXooXoooooooooooooooooooXXo++>>>>,<>>>adsa>asgffxZZADxxAPKDGGGGGGPLYTTTFcGLYYYWWRE(__^RUHHHHGGLULHGGPKGDcccczzzd$.                                                                                ",
"                                                                                                                                                                                                                            .%#oooXoooooooooXoO%&&eiit5*15tuew55111***-55-**-1------11----99--9qqqqqqqqqq5w5-%o#%###ooooooooooooooooooooooXo+++>>>>><<>><asd<<sgffjSZZAxfSKKGKPPGGGKLLLTTHGLLLLLYUWRE__)EWHJHUJFHULHGGKGGDDccccczv7eX                                                                               ",
"                                                                                                                                                                                                                            %%ooXXo##OoooXXXoooO%*eiit5--1wtutew551-***-55-&&*----------------9q111991555wweerwq55--*%oXXXoooooooooooooXoooo+++>,>>><<<>><sd<<asffjxxSZxjxZGKPPPGAZAGPPTTYTTYLLLLLYWE_`_(EWHJHHFFLLHGGGGGGDcccccczd7*.                                                                              ",
"                                                                                                                                                                                                                           X-oo.ooo%#oooooXoooXXo%wiiu1--*5eutwww551****-55*&&-**---=-==-==------9--9-1-5555etteeww55-%oXXoooooooooooooXooXo++++>>>>><<<><dsa<aasffxxcZZxffZKPPYKDZZDGPLTTTTTLLPLLYTR(`'_(EWUHHFZGHLPGGGKGGFMMcccczde:                                                                              ",
"                                                                                                                                                                                                                          .**oXXXoo=#oXXXooXooooo#wiiu---**5uueww5511****-15-&&&========-===-----1-----555555weeerw5q5*%oXooXXXoooXXXXXooXoo++++>,>>><<<<<addaaasjfjjxSDSffSGKPYPGGGDGPLYTTTTTLLLLLTT!_`__)EWUHJFFJLPKKKGGGGFFDDcczvd$.                                                                             ",
"                                                                                                                                                                                                                          o4#oXoo.%1#ooooooooXoX%-tiiu-1-*&-tutwww511-=*=--11=%%*=*=--===-=-1----------15555wwwwwwwwq511*%#oXoooXoXooXooooooo+++>,,>><<<<<<adsdasxjffxZDDSxSADPTPGGGGGPPLTTTTTTLLLLTTR(````(RWUHJJJLLPKKKGGGFFDccczzvdo                                                                             ",
"                                                                                                                                                                                                                          %;XoXooo%*oXoXoXXXoXo%uitiii*--*&&wuytww551-******51*##***--**-------***1**-1211155wwwww5weeeeeew-%ooXoXooXooXo+OooO++>,,>>><<a<<<dhsasxxffjSADDSSZDPPPKGGGKKPPLYTTTTTTTYLTT!__''(EWUUHJHLYLKKKGPGGDDccczzzl6.                                                                            ",
"                                                                                                                                                                                                                         X-XoXoooooooooooXXooo%umithui*---*&5uuuew5511******-51&#%******&**--***************15555555wwwyiiiyw*#oXXXooXXXo+++OOO++>,,>>><<<><dhfdsjcxfjxZDGZxSDKKPPGGGGGGKPLTTTTTTTYLYTR(`'`_(RWWHJJHYLPKKKKGGFDcccccczd$                                                                            ",
"                                                                                                                                                                                                        . ....           X%oXoXoooOoooXooXooX#1ileelui----*&-uliyw5551--*****--1*###%&&*****-*&*-2**-**1221**115155111*-weyiiye1%#ooooXXo++++OOO+>,,,>>><<><afhssfccxjxSDDASSAGGPPKGAGGGGKPLT!TTTTYLLYT!_'``_EWWUHJJLYLPPKGGGGDZccccccl7$                                                                           ",
"                                                                                                                                                                                              Xo%%%%#Xo%-%-ruiqX       .XoooXoXooooooooooXooo*ehiewluu--1----tbbie55111--******--&##%%%%%&*&*&&*5wwwww655565111555w511-*&*5euiiuyww1&o.oXo++#oO+O+>,,>>><<<<<shsssjxxxxSDDDSSADGKPPGGGGGGKPLT!TT!TYLLYTE_`''_^RWUUHJHLLLPGKGKGDZSccccczd6.                                                                          ",
"                                                                                                                                                                                           .=ibbnnnmbt9qq9qrubbtX      .;%o::oooooXXoooOoooo#wuiueeltu111---*qhbbuw5111--------*--***&%%%***155wwwqwww5555555115weewww5112211yihiiihu*ooXoO++O+++>>,<<>>><<<<affssgjxxxSZDDZZSAAGPPPPGGGGKPLT!TT!TTYLYTE(_`''`^RWWUHGLYLPKGGGKGDSccczzzz7$                                                                          ",
"                                                                                                                                                                                          oinBBBBBVmbiuihiuyw55e4%%.   @;oo::XooOOoooooooOo#1uuutetltt11---1-=5ibitw51--1--------1--*****-5weew51*&****--111-1166wwwwewwww61226yiihhhwoXXoOO+++++>>,33>>><<<<asffsgfxxxxSADDAZZADPPPPGGFGKKLYYTT!TTTYTT!!((```_EWUHHJLYLPKGGGKGDDZcczzzzd,.                                                                         ",
"                                                                                                                                                                                         .bBbnBBnmCiupiCCyttyew-%4tt-%q5%o:::Xo:OOoooooooo#-tuutteultt5----1---5uiue5-1111--=****----**---555511*********-----1115565wyyyyyw51116eyyuwoXooooO++++>,,3<,>><adaadsffssjxSxxSDDDAZZDPPPPKAAGGKPLYYY!!!TTTTEERE(__`^WUHHHLLLLPGAAGGDDZZczzzzv7$                                                                         ",
"                                                                                                                                                                                        .iBVinBnbiptttiht91wwwye555pikiw@o::oo::#ooooooooo&euueetwulee5-11----**5uue511-1--*******---*******21111********-----12111216yyyyyyyyw556wwywOoooooO+++>>,,,33>><addaasffssfxSSxSDGGDSSDKKPPPGGGGKPLLYY!!!TTTRRRRRE(_`_EWUULHHLYYPFZFGGDDZczzzzzd7+                                                                        ",
"                                                                                                                                                                                       oiB~nkVBbiytqtttw2111221115--wil5ooOoo:::OoooooooXo*tutweewtuw5-*-55--=*&-tutw5---***=******=***&&&**11112********---**12111115wwyyyuuyutw511wy1ooOOoO+++>>>,>>33>>aaaaaasggsfxSSxSADGDASSAKPPPPPKKGKPLYYT!!!RR!!RRRE((`'_EWUULJPYYYPFZZGGFFZczzzzzd3+..                                                                     ",
"                                                                                                                                                                                      oiV~BbmVbirrq9qr1-*11*&&&&&*-5wte-#oooo==ooooooooooo*euewweew55-*&*5w51-*&*5ete5---******************-111111**&&*-------**----11115wryyuiiiyw&&22ooOooO+++>>,,>>>33>addaaasfgsgxSSxxSDKGGAxSDKPPPYYKGKPLLYT!!!!(((!!!!^(`''`^WYULPLYYYHcxSGGGFczzzzzdd,X                                                                      ",
"                                                                                                                                                                                     .qbB~Vbnburr8-9q1-&**&&&&&&#%&-wrr=%ooo:=:ooooooooooo%eteewew5511*&&1ew5-*&*1wee5*-=***--=-=****-1--****11*11*&&&*---1---------11111**5weyyuiyyuuw#oooooO+++>,,>>>3<<<dddaasgggfjxxxSSADKKAxxAKKPLPYKDAKLYT!!!!(_`_!!!(((`'''`^TYLLYYYYUFxjFGGGcccczzzdd,o                                                                     ",
"                                                                                                                                                                                    XwiVBBbbbitrr8-qq1&&*2***22&##%*-88%%ooX%=ooOoooooooXo%weeeeww5511-&#=ete--*-**5w-*****------*11*151*%%&*15-*-*&&**-----******--111121115weewwwyuuu1oooooOO+>>>,,>>,<<<assaaasgfjffxSxSSSDPKSjSAKKPPPKAZAKLT!!!!(``(((((((`]]]'`^WYLYYYYULFjcGGGZccczzzzd7,X                                                                    ",
"                                                                                                                                                                                    -ukBBBibiutrr08qq-&*-1***11*###%%:oo%oXo=%ooooOOOooXXo%5eewwww5551*&%*5ttw-**&&*51-****-------*--55*&%%&&1w1****&&*-511-****&***1-21155511155wwwwyy1OoooOOO+>>>,3,>><<<adssaassffssjSSSxSZKPSjxSAKPPYKZSZAPT!!!!(`((``(_```]]]]]`(RUUWWUUYHZjZGGGcccczzzzd3*.                                                                   ",
"                                                                                                                                                                                   #utbBBniiitrrrq0qq8==*--**11*OO##oXoX%%O#-OooooooOooooo#5ewwwww5511*&%*-5ew1*&%**-5-*=**===----******%%&**5w1****&&*-55--*&**&&**--*1115555ww561156y2OoooOOO+>>,,33>>3<<aaasssssgfssgxSSxxSDKASxSAKPPYLDSSZKYT!!!!(`_(''''']]]]]]]'_RUWWWUUUHcxZGDZZScczzzd7,#.                                                                  ",
"                                                                                                                                                                                  oukubBNbuuutwqqqqq98-**122211*OO##ooX.%&%;&OoXooOOOooooo#wewqqww551-=&&***15-*****155-**====---****&%&%%&--ee1****&&-11--*&&****&&**-111555566ww12&226$oXoOOO++,,,33,>3<<aaaassssgfgssfxSSxxAKGZSSAKPPYYKZSZGLTT!!!!(__`'']]]]]]]]]]'`ERTWWWRUHFZFAZZZDcczzzd7,O                                                                  ",
"                                                                                                                                                                                  rbkimVnbuuuteqwqqqq8=*-1211*1&o###oXXXo*5-%OoXooOOOOoooo%wtw55q5511-*******--*****-w5-***----*****%&%##$&15ew1****--111-**&&******----11556655551*&&22*ooooOO++,,,33,><3<aaaasssssfggggjxSxxSGKAAZZKPPYYPGAAGLTTT!!!((`_`''']]]]]]]]]]'_ERWWRWUIGFFGDDDZczzzld7+XX                                                                ",
"                                                                                                                                                                                  ukuinnnbyytewq55qq-1=*--11-&#OX%;%@ooX.-uw%:oooO%%#OOooo*ete55qw511****&&&****%**%*ee1=**-1-***&&&##oXO$*we5122****-11-*&&&******--55q55555www5w5112222#oooOO+$,,3,33>><<<<<asssssgfjfggxSSjSAAGAAZAKPLYPKKGKPTTT!!!(((__`''']]]]]][{{{]'_^EEEWWIJFFGGGDccczzzd7+                                                                 ",
"                                                                                                                                                                                 @iitbnmmbuteq5--11q5-**=*-5-%o.X%%%%o@..=rt-OoooO%&#OOoo#*5ww55qq5--***%&*--&&&%%&%%wtw-**---***&%&#o.X#1we512**2**-111*&&&******-555qwwqqwwwwwwww116666&oXoOO$+>,33,3<<<<<<<asgssssfjfffxSSxxZAAGAZZAKPPPPPKKLYTTT!!!!((__''''][{{{{{{{{{]`(^ERWWIHJGGGDZcczzzvd,X                                                                ",
"                                                                                                                                                                                 qnbrbBnmburrq1---1w5-**=*-55*o.#%%%%:@.o=qut#ooO#%*%#OOo#%*=-5ww55-**&&**-1-##&%&&%#-tt5------*&*%#o.o#1ee5********-11-*&&***-*--555wwwwwwwwwwwq151122662oXoOO+$+,33,33<<<<<<asgfsassffffjSSxxSSAKDAZZAKPPYYPKKYTTTT!!!!()_`'``']{{{{{{{{{]]'_^EEWUUUIGGGGZczcczl7,o                                                               ",
"                                                                                                                                                                                %nBnumBVmCuttq11q11wq9**-=*5w-#O%%#%*%o.%%=uu*o#%%%*&%OOOO##O%5w5511*&&&**15*##&%&&%#&etw11-----*%#o.o&5ee5-********----**------1555www55555555511***&&*2&OooOO+#++,3337<<<<<aaagfgsssgfffjxSxxxSZGGAZSZAKKYYLKGPLTTTTR!!!(__`___']{{{{{{{{{]]`_^^ERRRWLJGGZccccccd7,o                                                              ",
"                                                                                                                                                                               .uB~BnBBVmhyttq99q119qq=---*1w5&#%%#%*%.O%%-qtq&%&;;*&#OOOOooX#-51111**&&*-11&oO%%&%%%%1r5-1----*&%OXo&wte55--********--***-----5ww55q5551-**1-**&*&##oooOOooooO++++,3337a<<<<aaaffgsssgffffjxSxxxSZGGAZZAGPYTLGGGPLTTTR!!!(((__^__'[{{]]{{{{]]]``^^^^^^WUULHGFcccczd76:                                                             ",
"                                                                                                                                                                               -n~~~BBBnbittttq999111q9-----55-&&%##%O#%%&-*-ew*%%;;%#OOooXXXo%-1111-***-51*#o#%%&&%%%&1-------*&%##-5te51-*********----**---555wwwq51-**%##%%#OOOooooXoooooooOO#$,,333<73<<<aaasgfgsssgffffjSSSxxSZGGZZADPYYPGGAGPYYTT!!!(((((^^_']]]]]]{{{{]]]``)^^^^(RWUWULGFFFZzh7qo                                                            ",
"                                                                                                                                                                              .iB~~~~Bnbiptttttq911-*9q------55-&&###o=-&1*%%5e-%%*%#ooooXXoXoO&*-1***---5*#O#%&&&%#%%%=-4----*&###1eee511***********--**-----5555511*%##OooOooooooooooooooOOooOO,,,3333333<<aaaassgssssfffgfxSSxxxSAGFAAAKPPPKGADPLYTTR!!!!(EE^E(`']]]]]]{{{]]]]`))^^_)(RRRWYLHJHGZch66o.                                                          ",
"                                                                                                                                                                              :m~~~~~Bbittyertqq11--&-15-=----51&%##o%5111&O#-e-=--%Ooooooooooo#&*-***--11*#O&&&&%&%%%%%*55--*&#O#1weww11-*-****-***-----11555555--=*%#ooooooooooOO####OooOOOOoOO,,,,33,33<<<aaaaasssssssffggjxSSxxxZAKGAAAGPPPKGAGPLTTTR!!!!EEEE_```'']]]]{{]]]]]`````((^^ERUUHHHHGJM7666%X                                                        ",
"                                                                                                                                                                              :n~~~~|BnCiuyewqq51--*%%-5-**----1*%##o55-5-#oO%--qur#oooooooooooo#&****=---*%%&&&%%&%%%%%-11*&&##&5yw551------*****--1---1155w5111**%##OOOOO#####O+######ooOOoooo+,,,,33,,33<<<aaaassfssssjjggfjSSSxxSZGKDAZAKPLLGZGPLYTTRR!EEEEE^___``'']]]]]]]]]]```))_((^^RWUUUUUJJFclh776=:                                                      ",
"                                                                                                                                                                              :m~~BBBBBnbiyewwq51-**&%*5-*&*---1*%#O&w5--*#o#Oo%rbu%ooXooooooooXo#&*&&=-****&&&&OO::::**11*&$###wue1111-------****-11--11555551-*%OO#O###&%###%%#####oOoooOOooooO$,,,33,,333<<aaaaasffsssfjfgfjxSSSxxZAKKAZAKPYYPZFPLYTTTTTRRRRE^____`'']]]]]]]]]]`````^^(^ERTUUUHIUUHJFcld766&.                                                    ",
"                                                                                                                                                                              %n~~BnB|BVbhuywwq51***-*&**%&*----*%##5w51-&#%%oXo-ut=oooXooooooXXoo#**&---***&&&%OO::::*211*&&&1wuy112211----*--****1115551--1-*%##O######%%##OOOOo#oooooooooooooO+,,,,3,333<3<aaaaassfssssjfgfjxxSSxxSAKPDAAKPLYLFFPPLLLTTTTTRRE(__(^`']]]]]]]]]]]]```__)^^^ERUUUHHUUHJFFFcchh7*X                                                   ",
"                                                                                                                                                                              -B~BnBI~BVbCiytrww51**11&%%&%&-----%#&555q*#%*%ooo#*--:ooXooooooXoooo%&*---***&%OoooO:::%&1*&&*5yy62**2--112*1*--***211151---**%##O#+######+OOoooooooooooX.ooooXooO+,,,,333<37<<<aaaassfssssffgfjjxSSSxSZDPKGAKKPYLHFGPPKGPLTTTRREE(((^(`'']]]]]]]]]'``````)(^^ERWUUIIUIGFFcFFMcch7$X                                                 ",
"                                                                                                                                                                              wBBBBBBBNnnbiuewrwe5-*--&#%**&*--1-&&155w5&%--#Xooo%&%:ooooooooooXXooo%-51---*&OooXXXXo#oO%O#$5uu62***11*-12*2****&***1----*%###O###OOO##O#OoooOooooooOOO######+oo#+,,,,333<<<3<<<adadssssssfgsfjjjSZZSxxZKPKDKKKLYPGFGGGGPLTTRRREEEEEEE(``']]]]]]]]'````````((^RRWUUIIHJFFMFFJFFMcld$X                                               ",
"                                                                                                                                                                              rnVBB|BBVnmChiywweew-=-*%#%***&*-1*&-5555-**51#O##%%%%:ooXoooooooooXXXo%--11--#ooXXXoX#u%.oo-wyuw1**2-11111**2****&&**----**%#####O#%OOooO##########%&&**2*&**&$Oo#+,,,,37777<<<<<addasssssgfssfjjfxAASxxSDPKAGKKPYPGFFFFGPLTTTRREERRREEE_``']]]]]]]]'```````_((EERUUIIIIJFFFFFFFGJGMl7$+                                             ",
"                                                                                                                                                                             XbVB|~~BBBBnbhiywwttr5---&%&&-*%&-1*-5511-=*-51*##%%%%OoooooXXoXooooO-qq-----1-OXoXoooo-utq#owyw51-**2*1**1******&&%&&******%%####OO#%O##++%&*&&&*&&*11111122*222$O++,,,,,337<33<<<addaasssfffssfjffxZZSxxxAKKFKKKPYLPKGGFGPTTTTRRRRTTRRRRE_`']]]]]]]]]```````_((((ERUUIIIHJFFFFccMFJFFcl72+.                                          ",
"                                                                                                                                                                             =VBB~~~BBBVnmhiuyyyttw1--&&&&*&&%*-*5w155---111*&&%%&&OXoXXXooooo%tbibnnbburq1*#oXoXoXO55et5;**1911---******&&&&&*&&&***&&%%#####o###O%&&****-*******11111111222&$OO$,,,,,3777<3<<<aadaadssfffssfjffjjSSSSSSAAAKKGKKPYLKKGGGPLTTTRRRTTTRRRR(`''']]]]]]]````````__(((EWUUIHHJJFFFccccMFFFcczh6X                                         ",
"                                                                                                                                                                             rBB~~~BBVnnbChiiiuytrw9--*&&&&&&#*21ww1q---1121**&&%=*%XooXoooo%hnB~Vnnnnmbbiiiut-ooXo&*o.#*wp1qq11----***=*%%%%***&*&**%*%#########%%**21111111*****11111112222$+Oo#,,3,,,37773,<<<adsddssffssafxxjffxSZSSSZAAAGAAFKYTLKGFGGPTTTTEETTTTTWRE_'''''']]]]`````````__(((RWUUUHHJJGFFcxcMFMFcFFcch6o                                       ",
"                                                                                                                                                                            %iB|~~BBVnnbCCCiipttttw1-***-*&&&&*5ew1wq----**-**&&&-&OooXXooo%bBBBBnnnnbbiiyuuiihuq%#5%    @ur55111--***%**&%%***&%%#%&%%#########&2151111111111****---11111222$$Oo+$,,,,,37773<,<<<assssssssssfjxjffxSZSSZZZFGFAZAKYTYPGAZGKPTTTRRTTTUTTRR(``'''']]]'``````````__((^RRRUHIHJFFFccccMccccccccch$.                                     ",
"                                                                                                                                                                           XuiB~QBNnnnmbbbCipttttrq1-----&&&***ey5rr1----*&******-%oooX##o#iBBnnbbbbbbhit-&=-qyibluu#.   Xqw51111-****&**&%%%%%&%%#%%%%####O#O#*155w65111111111-**---11112222$+OoO+$,,,,,3773<>3<<asssasssssssfjjffjSAZSZZZAGGAAFKLYLPGZZGGKYTTRERTTYYTTR^(_`'``']]]```````````_((^^^RUIUUHJGGFcccczjjzzzcFccld#.                                   ",
"                                                                                                                                                                           =bbB~BVnnbmbbbChitttttqq98--=*&&***25w1w51111-******11-%oooo###iBBnbbChhhhhhi-OOoO%&-eteiy5#. X0ww1111*&&******%%%&%%%%#####oooooO#*5www5551111111122*211111112222$+OoO++,,,,,37733>3<><assaaasssggsfjjfjxZZZAAZAGAFAFGKPLPKAAGAGPYTRERRTLLYTREE(`````']]'``````````__(^^^RUIUHHLHHFFcccjjjhjjzccFccl7+                                  ",
"                                                                                                                                                                          .iBBBBBnnmmbbChiuptttrrqqq9--=*&**&*1115155111***221111*#Xoooo%lBBnbiiipuuiiii9OoO:OO&-*&26664%*wwe5-*-*********%&*&%%%%#####ooXo#*-5eew556651122111111111211111222$+OoOO+$,,,,33<<<<<>>>assaaaasfjjssjjfjjZAZAZSAAFAAGFGKPLPGGGGGPLTTRRRTYLYTRRR^_````']]'````````````_(^^RWUIUUUUHGFFccccjjfjzzccccMch,X                                ",
"                                                                                                                                                                          %nBBBBnnmmbhhupptttttrrqqq1--**&*&&211155551111*-11111*&OoXoooeBBmliywttrtyuiit&ooooooOo#&&$25eputte11-*********&**%%%%#####Oooo*5weetew5511111211111111111112112222+oooOO$,,,,<33<<<>>><adssaaasjjjssfjjjjSAAASxZAAAFFFAGPYYPKKGGPLYTTR!TYLLUTRWR^`````']]'```````````_(^^^RUUUUUUUJGFFFMccjjjzzxczcMMMch$                               ",
"                                                                                                                                                                          =BBBNVnnnmCiuytqtptttrrqqq11---&*&**111551111111111151*&oooo#oiBniuyr119qrtyyii*...oXXXXXo%&&&&5utww11-&***********%##%##O##oo#*eteteeww5111111111111111111112112222$OooOO+,,,,<<<333>>><aaasa<asfjjssfjjjfxZAASxSAAFFFAZAKYTTPPKKPPYTTTRRTUUYUYUR^(````''''````````````_((^RRUUUUUULHGFFFMccxccccczcccDcch2.                             ",
"                                                                                                                                                                          qVBNnnmmbbhutrrtuittttrqqq-----**&&*-111515111111111r51-#o#&O&mniuttw1199tttyii1ooOoo..X...O$&##wy11y5*$****&&*****#####ooOOo#*weeeeww551111111111111121111111222222+OooOO+$,,,<333<<,><<<aasa<assffssfjjjjjSAASjxZAFGFAZZFLT!YPKGKPYYTTR!RYYYYYYWE(_`'```````````````````_(^RWUUUUUUHHJJFFccccFZFFczzccMczl6X                            ",
"                                                                                                                                                                          rNBNnmmbhiuuptiiiprttqqqq----=**&&&&*111115111111115w1-*#o#&Ownleeeewwttttyyyihy*&&&%OX.....XX#&1e5ebe******&****&&###@oooooO*5eweew5511111111111111121112211222222$+OoOOO+,,,,33<3<73><3<<ada<assgffsgfxSxjxZAZxjxZAFFAAZZKT!TPKFKPYYTT!!R!TYUUYWRE(_`````````````__``````_(ERUUUUUUUJJJGFccxcFFFFFcfdzcMczd6X                           ",
"                                                                                                                                                                          qnVnmbhiiiCChuuyt8rttqrqq9---=*&&&&&&*2111511111115w11*###%#Otlieweyyuiptyyyyyiu9&*&*&##OoXX...+&1wlnuy1****&*****&####oooo#*weewwww551111111111121*1111**221122222$+ooOoo+$,,,3333<<<3<<<<<aa<assssfggfSZSjjSAZSxxSAFGFAZSGT!TPKFFKYYTTR!!!RYLUYWTE^(_`````````````____````(^RWUUUUUUHJFFFccxcFFFFFZcvdzcccl7,..                         ",
"                                                                                                                                                                          %ihiiyeetrtttqqttrqq1---==%%%%%%##%#+#%&&&**&&&**&-1&&#XO%#oo-ee55-1wtt999qqq--q*OOOOO##%%Oo..  X#1ilti*%%%##%%%###OooX.oo.#-w5111--*&&&&*&&&&&&&&&&&&&%%%%&%%&&&%##+ooXXoo+++>,,,,,33,,>>>><<<<<<aadddsjzjfsfjjjfffzxcccjjcFGFZZczcFGFJJHHHJJFMFJJJIIIQQQQQWQQQQQUUIIUUUWQUIIIJJJJJJJNMcccjhhhccccccchddhlhh7,*O                         "
};
