/* XPM */
static char *shoot1[] = {
/* columns rows colors chars-per-pixel */
"500 456 89 1 ",
"  c black",
". c #0C0B0B",
"X c #090905",
"o c #140B08",
"O c #0E120A",
"+ c #16130C",
"@ c #1A1614",
"# c #1B1A16",
"$ c #1C1B1B",
"% c #151615",
"& c #100F10",
"* c #250C04",
"= c #23170B",
"- c #211E1B",
"; c #251B14",
": c #351509",
"> c #1D221B",
", c #24211E",
"< c #2A241A",
"1 c #332713",
"2 c #1B1D21",
"3 c #211F20",
"4 c #1E2223",
"5 c #242323",
"6 c #292623",
"7 c #282728",
"8 c #2A2A29",
"9 c #322D2A",
"0 c #35332D",
"q c #393634",
"w c #393838",
"e c #2F3030",
"r c #4F2D16",
"t c #68351A",
"y c #413E3C",
"u c #453B34",
"i c #503826",
"p c #6C3D25",
"a c #451D0B",
"s c #3D413C",
"d c #45413D",
"f c #564631",
"g c #734A2F",
"h c #3E3E41",
"j c #413F41",
"k c #3E4142",
"l c #4B4946",
"z c #464649",
"x c #494749",
"c c #484746",
"v c #534E4B",
"b c #55524D",
"n c #4D4E51",
"m c #5B5956",
"M c #575656",
"N c #504F50",
"B c #625D5A",
"V c #735748",
"C c #64615D",
"Z c #796551",
"A c #5E5E61",
"S c #686666",
"D c #787676",
"F c #716F6E",
"G c #606061",
"H c #8B5434",
"J c #97643B",
"K c #8C5B47",
"L c #986448",
"P c #996A56",
"I c #926B55",
"U c #A57155",
"Y c #8F796D",
"T c #A57B66",
"R c #B48B77",
"E c #B9927C",
"W c #AE856E",
"Q c #9A826E",
"! c #C2967C",
"~ c #7E7E80",
"^ c #8C8A88",
"/ c #B99784",
"( c #B1A8A2",
") c #C39D86",
"_ c #CCAB97",
"` c #CBA68F",
"' c #C6BAB1",
"] c #D4CDC8",
"[ c #807F81",
/* pixels */
"                                                                                                                                                                                                                                                                                                                                                                                                                                                                                                                    ",
"                                                                                                                                                                                                                                                                                                                                                                                                                                                                                                                    ",
"                                                                                                                                                                                                                                                                                                                                                                                                                                                                                                                    ",
"                                                                                                                                                                                                                                                                                                                                                                                                                                                                                                                    ",
"                                                                                                                                                                                                                                                                                                                                                                                                                                                                                                                    ",
"                                                                                                                                                                                                                                                                                                                                                                                                                                                                                                                    ",
"                                                                                                                                                                                                                                                                                                                                                                                                                                                                                                                    ",
"                                                                                                                                                                                                                                                                                                                                                                                                                                                                                                                    ",
"                                                                                                                                                                                                                                                                                                                                                                                                                                                                                                                    ",
"                                                                                                                                                                                                                                                                                                                                                                                                                                                                                                                    ",
"                                                                                                                                                                                                                                                                                                                                                                                                                                                                                                                    ",
"                                                                                                                                                                                                                                                                                                                                                                                                                                                                                                                    ",
"                                                                                                                                                                                                                                                                                                                                                                                                                                                                                                                    ",
"                                                                                                                                                                                                                                                                                                                                                                                                                                                                                                                    ",
"                                                                                                                                                                                                                                                                                                                                                                                                                                                                                                                    ",
"                                                                                                                                                                                                                                                                                                                                                                                                                                                                                                                    ",
"                                                                                                                                                                                                                                                                                                                                                                                                                                                                                                                    ",
"                                                                                                                                                                                                                                                                                                                                                                                                                                                                                                                    ",
"                                                                                                                                                                                                                                                                                                                                                                                                                                                                                                                    ",
"                                                                                                                                                                                                                                                                                                                                                                                                                                                                                                                    ",
"                                                                                                                                                                                                                                                                                                                                                                                                                                                                                                                    ",
"                                                                                                                                                                                                                                                                                                                                                                                                                                                                                                                    ",
"                                                                                                                                                                                                                                                                                                                                                                                                                                                                                                                    ",
"                                                                                                                                                                                                                                                                                                                                                                                                                                                                                                                    ",
"                                                                                                                                                                                                                                                                                                                                                                                                                                                                                                                    ",
"                                                                                                                                                                                                                                                                                                                                                                                                                                                                                                                    ",
"                                                                                                                                                                                                                                                                                                                                                                                                                                                                                                                    ",
"                                                                                                                                                                                                                                                                                                                                                                                                                                                                                                                    ",
"                                                                                                                                                                                                                                                                                                                                                                                                                                                                                                                    ",
"                                                                                                                                                                                                                                                                                                                                                                                                                                                                                                                    ",
"                                                                                                                                                                                                                                                                                                                                                                                                                                                                                                                    ",
"                                                                                                                                                                                                                                                                                                                                                                                                                                                                                                                    ",
"                                                                                                                                                                                                                                                                                                                                                                                                                                                                                                                    ",
"                                                                                                                                                                                                                                                                                                                                                                                                                                                                                                                    ",
"                                                                                                                                                                                                                                                                                                                                                                                                                                                                                                                    ",
"                                                                                                                                                                                                                                                                                                                                                                                                                                                                                                                    ",
"                                                                                                                                                                                                                                                                                                                                                                                                                                                                                                                    ",
"                                                                                                                                                                                                                                                                                                                                                                                                                                                                                                                    ",
"                                                                                                                                                                                                                                                                                                                                                                                                                                                                                                                    ",
"                                                                                                                                                                                                                                                                                                                                                                                                                                                                                                                    ",
"                                                                                                                                                                                                                                                                                                                                                                                                                                                                                                                    ",
"                                                                                                                                                                                                                                                                                                                                                                                                                                                                                                                    ",
"                                                                                                                                                                                                                                                                                                                                                                                                                                                                                                                    ",
"                                                                                                                                                                                                                                                                                                                                                                                                                                                                                                                    ",
"                                                                                                                                                                                                                                                                                                                                                                                                                                                                                                                    ",
"                                                                                                                                                                                                                                                                                                                                                                                                                                                                                                                    ",
"                                                                                                                                                                                                                                                                                                                                                                                                                                                                                                                    ",
"                                                                                                                                                                                                                                                                                                                                                                                                                                                                                                                    ",
"                                                                                                                                                                                                                                                                                                                                                                                                                                                                                                                    ",
"                                                                                                                                                                                                                                                                                                                                                                                                                                                                                                                    ",
"                                                                                                                                                                                                                                                                                                                                                                                                                                                                                                                    ",
"                                                                                                                                                                                                                                                                                                                                                                                                                                                                                                                    ",
"                                                                                                                                                                                                                                                                                                                                                                                                                                                                                                                    ",
"                                                                                                                                                                                                                                                                                                                                                                                                                                                                                                                    ",
"                                                                                                                                                                                                                                                                                                                                                                                                                                                                                                                    ",
"                                                                                                                                                                                                                                                                                                                                                                                                                                                                                                                    ",
"                                                                                                                                                                                                                                                                                                                                                                                                                                                                                                                    ",
"                                                                                                                                                                                                                                                                                                                                                                                                                                                                                                                    ",
"                                                                                                                                                                                                                                                                                                                                                                                                                                                                                                                    ",
"                                                                                                                                                                                                                                                                                                                                                                                                                                                                                                                    ",
"                                                                                                                                                                                                                                                                                                                                                                                                                                                                                                                    ",
"                                                                                                                                                                                                                                                                                                                                                                                                                                                                                                                    ",
"                                                                                                                                                                                                                                                                                                                                                                                                                                                                                                                    ",
"                                                                                                                                                                                                                                                                                                                                                                                                                                                                                                                    ",
"                                                                                                                                                                                                                                                                                                                                                                                                                                                                                                                    ",
"                                                                                                                                                                                                                                                                                                                                                                                                                                                                                                                    ",
"                                                                                                                                                                                                                                                                                                                                                                                                                                                                                                                    ",
"                                                                                                                                                                                                                                                                                                                                                                                                                                                                                                                    ",
"                                                                                                                                                                                                                                                                                                                                                                                                                                                                                                                    ",
"                                                                                                                                                                                                                                                                                                                                                                                                                                                                                                                    ",
"                                                                                                                                                                                                                                                                                                                                                                                                                                                                                                                    ",
"                                                                                                                                                                                                                                                                                                                                                                                                                                                                                                                    ",
"                                                                                                                                                                                                                                                                                                                                                                                                                                                                                                                    ",
"                                                                                                                                                                                                                                                                                                                                                                                                                                                                                                                    ",
"                                                                                                                                                                                                                                                                                                                                                                                                                                                                                                                    ",
"                                                                                                                                                                                                                                                                                                                                                                                                                                                                                                                    ",
"                                                                                                                                                                                                                                                                                                                                                                                                                                                                                                                    ",
"                                                                                                                                                                                                                                                                                                                                                                                                                                                                                                                    ",
"                                                                                                                                                                                                                                                                                                                                                                                                                                                                                                                    ",
"                                                                                                                                                                                                                                                                                                                                                                                                                                                                                                                    ",
"                                                                                                                                                                                                                                                                                                                                                                                                                                                                                                                    ",
"                                                                                                                                                                                                                                                                                                                                                                                                                                                                                                                    ",
"                                                                                                                                                                                                                                                                                                                                                                                                                                                                                                                    ",
"                                                                                                                                                                                                                                                                                                                                                                                                                                                                                                                    ",
"                                                                                                                                                                                                                                                                                                                                                                                                                                                                                                                    ",
"                                                                                                                                                                                                                                                                                                                                                                                                                                                                                                                    ",
"                                                                                                                                                                                                                                                                                                                                                                                                                                                                                                                    ",
"                                                                                                                                                                                                                                                                                                                                                                                                                                                                                                                    ",
"                                                                                                                                                                                                                                                                                                                                                                                                                                                                                                                    ",
"                                                                                                                                                                                                                                                                                                                                                                                                                                                                                                                    ",
"                                                                                                                                                                                                                                                                                                                                                                                                                                                                                                                    ",
"                                                                                                                                                                                                                                                                                                                                                                                                                                                                                                                    ",
"                                                                                                                                                                                                                                                                                                                                                                                                                                                                                                                    ",
"                                                                                                                                                                                                                                                                                                                                                                                                                                                                                                                    ",
"                                                                                                                                                                                                                                                                                                                                                                                                                                                                                                                    ",
"                                                                                                                                                                                                                                                                                                                                                                                                                                                                                                                    ",
"                                                                                                                                                                                                                                                                                                                                                                                                                                                                                                                    ",
"                                                                                                                                                                                                                                                                                                                                                                                                                                                                                                                    ",
"                                                                                                                                                                                                                                                                                                                                                                                                                                                                                                                    ",
"                                                                                                                                                                                                                                                                                                                                                                                                                                                                                                                    ",
"                                                                                                                                                                                                                                                                                                                                                                                                                                                                                                                    ",
"                                                                                                                                                                                                                                                                                                                                                                                                                                                                                                                    ",
"                                                                                                                                                                                                                                                                                                                                                                                                                                                                                                                    ",
"                                                                                                                                                                                                                                                                                                                                                                                                                                                                                                                    ",
"                                                                                                                                                                                                                                                                                                                                                                                                                                                                                                                    ",
"                                                                                                                                                                                                                                                                                                                                                                                                                                                                                                                    ",
"                                                                                                                                                                                                                                                                                                                                                                                                                                                                                                                    ",
"                                                                                                                                                                                                                                                                                                                                                                                                                                                                                                                    ",
"                                                                                                                                                                                                                                                                                                                                                                                                                                                                                                                    ",
"                                                                                                                                                                                                                                                                                                                                                                                                                                                                                                                    ",
"                                                                                                                                                                                                                                                                                                                                                                                                                                                                                                                    ",
"                                                                                                                                                                                                                                                                                                                                                                                                                                                                                                                    ",
"                                                                                                                                                                                                                                                                                                                                                                                                                                                                                                                    ",
"                                                                                                                                                                                                                                                                                                                                                                                                                                                                                                                    ",
"                                                                                                                                                                                                                                                                                                                                                                                                                                                                                                                    ",
"                                                                                                                                                                                                                                                                                                                                                                                                                                                                                                                    ",
"                                                                                                                                                                                                                                                                                                                                                                                                                                                                                                                    ",
"                                                                                                                                                                                                                                                                                                                                                                                                                                                                                                                    ",
"                                                                                                                                                                                                                                                                                                                                                                                                                                                                                                                    ",
"                                                                                                                                                                                                                                                                                                                                                                                                                                                                                                                    ",
"                                                                                                                                                                                                                                                                                                                                                                                                                                                                                                                    ",
"                                                                                                                                                                                                                                                                                                                                                                                                                                                                                                                    ",
"                                                                                                                                                                                                                                                                                                                                                                                                                                                                                                                    ",
"                                                                                                                                                                                                                                                                                                                                                                                                                                                                                                                    ",
"                                                                                                                                                                                                                                                                                                                                                                                                                                                                                                                    ",
"                                                                                                                                                                                                                                                                                                                                                                                                                                                                                                                    ",
"                                                                                                                                                                                                                                                                                                                                                                                                                                                                                                                    ",
"                                                                                                                                                                                                                                                                                                                                                                                                                                                                                                                    ",
"                                                                                                                                                                                                                                                                                                                                                                                                                                                                                                                    ",
"                                                                                                                                                                                                                                                                                                                                                                                                                                                                                                                    ",
"                                                                                                                                                                                                                                                                                                                                                                                                                                                                                                                    ",
"                                                                                                                                                                                                                                                                                                                                                                                                                                                                                                                    ",
"                                                                                                                                                                                                                                                                                                                                                                                                                                                                                                                    ",
"                                                                                                                                                                                                                                                                                                                                                                                                                                                                                                                    ",
"                                                                                                                                                                                                                                                                                                                                                                                                                                                                                                                    ",
"                                                                                                                                                                                                                                                                                                                                                                                                                                                                                                                    ",
"                                                                                                                                                                                                                                                                                                                                                                                                                                                                                                                    ",
"                                                                                                                                                                                                                                                                                                                                                                                                                                                                                                                    ",
"                                                                                                                                                                                                                                                                                                                                                                                                                                                                                                                    ",
"                                                                                                                                                                                                                                                                                                                                                                                                                                                                                                                    ",
"                                                                                                                                                                                                                                                                                                                                                                                                                                                                                                                    ",
"                                                                                                                                                                                                                                                                                                                                                                                                                                                                                                                    ",
"                                                                                                                                                                                                                                                                                                                                                                                                                                                                                                                    ",
"                                                                                                                                                                                                                                                                                                                                                                                                                                                                                                                    ",
"                                                                                                                                                                                                                                                                                                                                                                                                                                                                                                                    ",
"                                                                                                                                                                                                                                                                                                                                                                                                                                                                                                                    ",
"                                                                                                                                                                                                                                                                                                                                                                                                                                                                                                                    ",
"                                                                                                                                                                                                                                                                                                                                                                                                                                                                                                                    ",
"                                                                                                                                                                                                                                                                                                                                                                                                                                                                                                                    ",
"                                                                                                                                                                                                                                                                                                                                                                                                                                                                                                                    ",
"                                                                                                                                                                                                                                                                                                                                                                                                                                                                                                                    ",
"                                                                                                                                                                                                                                                                                                                                                                                                                                                                                                                    ",
"                                                                                                                                                                                                                                                                                                                                                                                                                                                                                                                    ",
"                                                                                                                                                                                                                                                                                                                                                                                                                                                                                                                    ",
"                                                                                                                                                                                                                                                                                                                                                                                                                                                                                                                    ",
"                                                                                                                                                                                                                                                                                                                                                                                                                                                                                                                    ",
"                                                                                                                                                                                                                                                                                                                                                                                                                                                                                                                    ",
"                                                                                                                                                                                                                                                                                                                                                                                                                                                                                                                    ",
"                                                                                                                                                                                                                                                                                                                                                                                                                                                                                                                    ",
"                                                                                                                                                                                                                                                                                                                                                                                                                                                                                                                    ",
"                                                                                                                                                                                                                                                                                                                                                                                                                                                                                                                    ",
"                                                                                                                                                                                                                                                                                                                                                                                                                                                                                                                    ",
"                                                                                                                                                                                                                                                                                                                                                                                                                                                                                                                    ",
"                                                                                                                                                                                                                                                                                                                                                                                                                                                                                                                    ",
"                                                                                                                                                                                                                                                                                                                                                                                                                                                                                                                    ",
"                                                                                                                                                                                                                                                                                                                                                                                                                                                                                                                    ",
"                                                                                                                                                                                                                                                                                                                                                                                                                                                                                                                    ",
"                                                                                                                                                                                                                                                                                                                                                                                                                                                                                                                    ",
"                                                                                                                                                                                                                                                                                                                                                                                                                                                                                                                    ",
"                                                                                                                                                                                                                                                                                                                                                                                                                                                                                                                    ",
"                                                                                                                                                                                                                                                                                                                                                                                                                                                                                                                    ",
"                                                                                                                                                                                                                                                                                                                                                                                                                                                                                                                    ",
"                                                                                                                                                                                                                                                                                                                                                                                                                                                                                                                    ",
"                                                                                                                                                                                                                                                                                                                                                                                                                                                                                                                    ",
"                                                                                                                                                                                                                                                                                                                                                                                                                                                                                                                    ",
"                                                                                                                                                                                                                                                                                                                                                                                                                                                                                                                    ",
"                                                                                                                                                                                                                                                                                                                                                                                                                                                                                                                    ",
"                                                                                                                                                                                                                                                                                                                                                                                                                                                                                                                    ",
"                                                                                                                                                                                                                                                                                                                                                                                                                                                                                                                    ",
"                                                                                                                                                                                                                                                                                                                                                                                                                                                                                                                    ",
"                                                                                                                                                                                                                                                                                                                                                                                                                                                                                                                    ",
"                                                                                                                                                                                                                                                                                                                                                                                                                                                                                                                    ",
"                                                                                                                                                                                                                                                                                                                                                                                                                                                                                                                    ",
"                                                                                                                                                                                                                                                                                                                                                                                                                                                                                                                    ",
"                                                                                                                                                                                                                                                                                                                                                                                                                                                                                                                    ",
"                                                                                                                                                                                                                                                                                                                                                                                                                                                                                                                    ",
"                                                                                                                                                                                                                                                                                                                                                                                                                                                                                                                    ",
"                                                                                                                                                                                                                                                                                                                                                                                                                                                                                                                    ",
"                                                                                                                                                                                                                                                                                                                                                                                                                                                                                                                    ",
"                                                                                                                                                                                                                                                                                                                                                                                                                                                                                                                    ",
"                                                                                                                                                                                                                                                                                                                                                                                                                                                                                                                    ",
"                                                                                                                                                                                                                                                                                                                                                                                                                                                                                                                    ",
"                                                                                                                                                                                                                                                                                                                                                                                                                                                                                                                    ",
"                                                                                                                                                                                                                                                                                                                                                                                                                                                                                                                    ",
"                                                                                                                                                                                                                                                                                                                                                                                                                                                                                                                    ",
"                                                                                                                                                                                                                                                                                                                                                                                                                                                                                                                    ",
"                                                                                                                                                                                                                                                                                                                                                                                                                                                                                                                    ",
"                                                                                                                                                                                                                                                                                                                                                                                                                                                                                                                    ",
"                                                                                                                                                                                                                                                                                                                                                                                                                                                                                                                    ",
"                                                                                                                                                                                                                                                                                                                                                                                                                                                                                                                    ",
"                                                                                                                                                                                                                                                                                                                                                                                                                                                                                                                    ",
"                                                                                                                                                                                                                                                                                                                                                                                                                                                                                                                    ",
"                                                                                                                                                                                                                                                                                                                                                                                                                                                                                                                    ",
"                                                                                                                                                                                                                                                                                                                                                                                                                                                                                                                    ",
"                                                                                                                                                                                                                                                                                                                                                                                                                                                                                                                    ",
"                                                                                                                                                                                                                                                                                                                                                                                                                                                                                                                    ",
"                                                                                                                                                                                                                                                                                                                                                                                                                                                                                                                    ",
"                                                                                                                                                                                                                                                                                                                                                                                                                                                                                                                    ",
"                                                                                                                                                                                                                                                                                                                                                                                                                                                                                                                    ",
"                                                                                                                                                                                                                                                                                                                                                                                                                                                                                                                    ",
"                                                                                                                                                                                                                                                                                                                                                                                                                                                                                                                    ",
"                                                                                                                                                                                                                                                                                                                                                                                                                                                                                                                    ",
"                                                                                                                                                                                                                    XXXX    X++o                                                                                                                                                                                                                                                                                    ",
"                                                                                                                                                                                                                    X++o   o;111+                                                                                                                                                                                                                                                                                   ",
"                                                                                                                                                                                                                    o+;=+Xo;i00i1+                                                                                                                                                                                                                                                                                  ",
"                                                                                                                                                                                                                    +=;1111rf1@if1o                                                                                                                                                                                                                                                                                 ",
"                                                                                                                                                                                                                    +;<ifffggf@<fi;o                                                                                                                                                                                                                                                                                ",
"                                                                                                                                                                                                                    +<1fgffgZV;@fgi=X                                                                                                                                                                                                                                                                               ",
"                                                                                                                                                                                                                    +19ff11gZV;&iggr+                                                                                                                                                                                                                                                                               ",
"                                                                                                                                                                                                                    =11ff<0ZZi&&rggi=X                                                                                                                                                                                                                                                                              ",
"                                                                                                                                                                                                                    =11iv0iZf#%9fggi=                                                                                                                                                                                                                                                                               ",
"                                                                                                                                                                                                                    =r1;9<9u<&9ggggr=                                                                                                                                                                                                                                                                               ",
"                                                                                                                                                                                                                    =ri+&<<;&;VIgii1o                                                                                                                                                                                                                                                                               ",
"                                                                                                                                                                                                                    +rf<&@<;&1ZKgi1+                                                                                                                                                                                                                                                                                ",
"                                                                                                                                                                                                                    +rf1&&6#&<ggir=X                                                                                                                                                                                                                                                                                ",
"                                                                                                                                                                                                                    +rf1;&&..;ffr;o                                                                                                                                                                                                                                                                                 ",
"                                                                                                                                                                                                                    +rf11&...#ffr+        XX                                                                                                                                                                                                                                                                        ",
"                                                                                                                                                                                                                    +rgi0+...%9r;X     X++====+oX                                                                                                                                                                                                                                                                   ",
"                                                                                                                                                                                                                    +rgi0@....<1=     o;1rifir11=+XX                                                                                                                                                                                                                                                                ",
"                                                                                                                                                                                                                    orgi0;....;r<X  X+1iffggggffi11=+X                                                                                                                                                                                                                                                              ",
"                                                                                                                                                                                                                    orgi0-....-ii@XX+<1fggZZZggggffi1;&XXX                                                                                                                                                                                                                                                          ",
"                                                                                                                                                                                                                    +rgr9;....6ffi<<19iiifgggggfggggi91<=++&oXXXXXXX                                                                                                                                                                                                                                                ",
"                                                                                                                                                                                                                    +rgr9;....8VfriuffduirfgggZZKIZggffii9<<;+++++&ooXXXXXXXX                                                                                                                                                                                                                                       ",
"                                                                                                                                                                                                                    =fgri<&..&9Virfvbbvu1rggKKIIPPIKIIIZgfi0<<;;;++%++++++o+ooXXXXXXX                                                                                                                                                                                                                               ",
"                                                                                                                                                                                                                    =ggif1&..&9f1ivvddfiraigHHKKLIIKKPPPPZVi<<##;@%+%+%%%%%%%++++++ooXXX                                                                                                                                                                                                                            ",
"                                                                                                                                                                                                                   X1gHif1&...-<;uvu91iffitgggHHHLUJLUTTQQIf90qq0665,,,,,,-,##@+%+++++&XXX                                                                                                                                                                                                                          ",
"                                                                                                                                                                                                                   o1gKii;.....&+0d9<<rgggggHHHHHHJJJUUUWRTVfddw6,$$##$$$#%%%%%%&&+++&++&oXX                                                                                                                                                                                                                        ",
"                                                                                                                                                                                                                   X;gKii;......&86;<<1igHggHHHHHHHHHHJUUTQYbvd8#%.....#>&..........oo&&+&.XXX                                                                                                                                                                                                                      ",
"                                                                                                                                                                                                                    ogIgi;.......++@;1ripgggHHHHHHHHHHHHKITYvu08$&.....$5&.......XX.X....o..XX                                                                                                                                                                                                                      ",
"                                                                                                                                                                                                                   X;gIgf,....@$&..o+;iiiigHHHHHHHHHHJHHggVZvu09@...&..&$.............XXX...XXX                                                                                                                                                                                                                     ",
"                                                                                                                                                                                                                   XrKIgf,....%#.....&1ppipHHJHHHHHHJLHHgpgVf988&X......@.................XXXXX                                                                                                                                                                                                                     ",
"                                                                                                                                                                                                                   =ggggf,.....%&....&<iitpgHJHHJJHHJLJHgppf0#--.X......%...................XX                                                                                                                                                                                                                      ",
"                                                                                                                                                                                                                  orggggf,....&86%....;ritpHHHJHJJJHHHHggiiu9+;#........%....................X                                                                                                                                                                                                                      ",
"                                                                                                                                                                                                                 X1gKZgVV<....%0q6%&&&;1rrpHHHHJJJJJHgtiiiii9;-5@............................X                                                                                                                                                                                                                      ",
"                                                                                                                                                                                                                 +fHgVZZf;%&..%0dvq88-;1rrpgHHHHJJJHHHtrrrri08-875#%.....................%#%.X                                                                                                                                                                                                                      ",
"                                                                                                                                                                                                                X1gJggVb9;65$58wubmdwui11rpgppHHHJJHHHppr11009#5qwq5%..................##%%$.X                                                                                                                                                                                                                      ",
"                                                                                                                                                                                                                XrKWHff0,9wqqwww0lCbcvbu9riptpgHHHJHHgpgi;<0q8-58q08-$@%................&&%,%X                                                                                                                                                                                                                      ",
"                                                                                                                                                                                                                XrJWKi1<6qwwwwqq0lCmbbmbvfipttgggHHHHgtgi<8yyq8566888qq8$%................&%%X                                                                                                                                                                                                                      ",
"                                                                                                                                                                                                                oiJWKr=;7qqwcwqquvmMlcvvbbiiippppHHHHgtgi9vBxw9655880wzcq52$$#%..............X                                                                                                                                                                                                                      ",
"                                                                                                                                                                                                                XrKWLi=+$55wxcyddxbvddcccbviipgppgHHHHpii0SFvywq87888wczw85$$@&.............XX                                                                                                                                                                                                                      ",
"                                                                                                                                                                                                                 ;gJWg=..&#qxxxxllvcdyywydvfiigggggggpiii8vBlyxcq98557qwq6$$#%...............X                                                                                                                                                                                                                      ",
"                                                                                                                                                                                                                 X1gLIi&..%qxxxvlcccyywqqqddfiipppgggtrii<9yywxc888,-58q7@#5#................X                                                                                                                                                                                                                      ",
"                                                                                                                                                                                                                  X1gIV;..&8xxlxldccywwqq0quiiiitttpttrr9;@698qq588,$5785%%$@...............OX                                                                                                                                                                                                                      ",
"                                                                                                                                                                                                                   X1gZ<...8Mxclcydduwqwwq000irrriirtirr9@&#,$$5-55$#3575..%%..X.............X                                                                                                                                                                                                                      ",
"                                                                                                                                                                                                                    +ig1&..8Mvclcwyywqqqqqq091rraraaarrr1;&@-@..%#@%%$562.X&%................XX                                                                                                                                                                                                                     ",
"                                                                                                                                                                                                                    X;ir<&%qvlyccwyyqqqq90q09<111a1:1rr1<@.%@@...%&..#$5$.X&%.%%@@&..........XX                                                                                                                                                                                                                     ",
"                                                                                                                                                                                                                     X1fi#%qcwwlcwyywqq999900<1;=:::1111;+.&%%.......@#$#..%@@#$5555,$@&......XX                                                                                                                                                                                                                    ",
"                                                                                                                                                                                                                     X1gg<$wwqwlcyccwq09989001;*****=11;;+.&@&.......%%@%..@#@#$7eqqqq85$%..O.XXX                                                                                                                                                                                                                   ",
"                                                                                                                                                                                                                     X<gKi9cw8wllclldwwq9999091=oooo=;;;;&.&&&.......%&&%..#$%#25qqwdywq95%&#&.XXX                                                                                                                                                                                                                  ",
"                                                                                                                                                                                                                     X1gPVvlq8dMxxvvcdjywq9889;;ooXoo===@o..&....&...%..&.@87$$$58qqwwyywq6##%&..XXX                                                                                                                                                                                                                ",
"                                                                                                                                                                                                                     +iVIZBd0qvMbMMMvvvljyw8<<-;o....oo@@............&..&%qMx8,$-5889qwyddw8#&.&.O.XX                                                                                                                                                                                                               ",
"                                                                                                                                                                                                                    X1fgZFbudbmMMmmMvMMvlcc9<<;=o......&&...............&5mYFMw6--5579qwyddw0,%&..O.XXX                                                                                                                                                                                                             ",
"                                                                                                                                                                                                                   X;iggZYBdMSCmmmmMNMMvxvvq89<+........o...............%qD^^DSl05,-589qwydcdwq7%..&.XXXX                                                                                                                                                                                                           ",
"                                                                                                                                                                                                                  X=igggZYCbmSSFFSBMMMMxlxvw9i9=o.......................%wD^^^^Fmd9,,5890qwddczw8%&.O...XXX                                                                                                                                                                                                         ",
"                                                                                                                                                                                                                 X+0gggZYYBbmBSDYDFCmmMxlzly0di1;oo.....................%wS^^^^^YSvu0098890wyczcy0<#&..&.XXXX                                                                                                                                                                                                       ",
"                                                                                                                                                                                                                X+1fggfBFFmvbMmmSSFFFSMxxllduffi1:*oo...........&@%.....%yCD^^^^^YFSBbdq9890qwwddyw06#&&....XX                                                                                                                                                                                                      ",
"                                                                                                                                                                                                                o<fgVfdmSCblbbbvbMCSFFSmxxlcufgirra:*oooX......&@-$@&...@wMSDYQ^^^Q^^^Sbdq9900qwyyyyw05$&.&...XX                                                                                                                                                                                                    ",
"                                                                                                                                                                                                               X=ifgbvdbBbxlxbxlxxbMmSSSmMxcufgiippr:***oo.....-$$-,-%.%9lbMBSFYQQ^((((QSvw99890qwyyuwq9,%..&&.XX                                                                                                                                                                                                   ",
"                                                                                                                                                                                                               +1fVfvbdNblzlcllccllxxbMmSSBvuufipggpr::**oo...&86$$,6--qbmMvvmCFDD^(]]](^Fbd086890qwyywqq8$&.%%O.XX                                                                                                                                                                                                 ",
"                                                                                                                                                                                                              X=1fVbbMllMlccwyddyydczlxvmSSSBffgggggpra:*oooX..,86,866yBFFSBvvbBCSY(']]](QFBcq988899qwwwyyq5%&%%&O.XX                                                                                                                                                                                               ",
"                                                                                                                                                                                                             X+;rffdbmlcbzddwwwwwwwwwydcxMSFFFVggggggpr::*ooo..+;6898yF^^DFFSBbvvbF^']]]'(^QBcy086689qqwycyq7$$%%%&.XX                                                                                                                                                                                              ",
"                                                                                                                                                                                                             X=1rfffvmldxcwwqqqq000qqqqwcxMSFFFZVggggpir1**oo...&#,-6M^(^YFFDFCblvBY('''((((Fbcy08<5899qwyyywq85$@%%&.XX                                                                                                                                                                                            ",
"                                                                                                                                                                                                             X=11ffidbdwlcqqq9988888889qwcxMBCCFIZVgggiir1=*oooo++@@8m^((^QQYDFCbbbCQ^((('''Dmbvy9,-6689quyycywwe4@%%%&.XX                                                                                                                                                                                          ",
"                                                                                                                                                                                                             X=11if0dvwwlcqq088866688878qwycMbbBBBVffffiir111<<<<990ubY^^^^^QDFSSSCCFQQ^((]'Fbbbc9--,66889qqwwwwwq5#%@%%&.X                                                                                                                                                                                         ",
"                                                                                                                                                                                                             X+;11fiddw9dy00086655566568890wMBCFFFYYYYYYZZVVVVbbbbBBCCFYQ^((^QDFYYDFDFFDQ('(Fvvbd8#-6<,,68999qqqqq065$&&%%%.X                                                                                                                                                                                       ",
"                                                                                                                                                                                                             X+;;1ffddw8qw888655--566555668qCFDYYYQQQQQQYYFZZZCCCCCSSCCSF^((^^^^^^^^^DFFF^((Cllvy,@#86##-566688qqqwwq5%&%$$%&XX                                                                                                                                                                                     ",
"                                                                                                                                                                                                             Xo=;10ffdw69q888555-;-66555555qSYYYYDDDYYYYYYZZZCCBBBBBBvlbCD^^^^(((((((^YFFY^Qbyydq#&&66@@#-555588qqwwwe74$$4$%&.XX                                                                                                                                                                                   ",
"                                                                                                                                                                                                              o+;;1f0i089085655-;;-88655--,qCDFFFCCCCCCCZZCBBVVbvddcduqdbCFY^^(('''(((^QDDDFd00w9@..@#&&%$$-55578qwwhhwwww82$$2%.XX                                                                                                                                                                                 ",
"                                                                                                                                                                                                              X+;;10110<806,65--;;,66556--,9MCBbvvvvbbbbbbbBbbbvduuuu00dlbBFD^(']]]'(((^^QYFd8696&...&..&%@#$$3578eqwhzzzzke4244$%OX                                                                                                                                                                                ",
"                                                                                                                                                                                                              Xo+;<11;1<895-55-$---,--,,-;-6cbvcduudvbvvbbbbBbbbvddyywwdvmCFD^^(]]]]](((^^^Fd6,6-.........&%@%#$277ewwzzzzzkhe4>466%.X                                                                                                                                                                              ",
"                                                                                                                                                                                                               X+;;19;;1<8,-,,-----;#;--#@#,yvldq099uvvbbbBBBBBBbvlddydbBSFD^^^(']]]]]'(((^Fd966-............%@%$277ewhkzznMMnw768e8$&XX                                                                                                                                                                            ",
"                                                                                                                                                                                                               X+=;191;<<6-#-------#####@+@-0yw09<-<0vbbbbVVVbbbvvvlcdcbmCSFDDQ^(']]]]]'((^Scq98#.............&%%2578qwwhznAGAMnxkwqw7$&XX                                                                                                                                                                          ",
"                                                                                                                                                                                                               XO+;<90<<,-#;-----$####$#;;-,8986,;;-9cvvvvvvfuddccvvcccvbMmBCSSFQ^(]]]]]'(Ymldw8@...............@$2578ewwhznASSGGAMkwww7@.XX                                                                                                                                                                        ",
"                                                                                                                                                                                                                Xo=<19<#-@@;-,--#####-,,,,,------;;-8uddfggfi190uuwwddyydclvbMBCFD^(']]]](Fmblw6@...............%%$5678eqwhzMSSSSSSnw7774$%.XX                                                                                                                                                                      ",
"                                                                                                                                                                                                                 X+;<1<#,@+$,5,;#####$---,---,,,66668uuuiggpi;<9uq89qdyqqwyddlvMCFD^((]](^FCmvw6@&&..............%%$567eeqwkMAGASSSMzw8$466$.XXX                                                                                                                                                                    ",
"                                                                                                                                                                                                                 Xo+<10<@@@$56,;--#####--,5,<5,,,<<<<00iiggir;;<96,,,0yq999qqwdlMCSD^^(((QDFBvw6-#%o.............&@#$5778ewkzzzzMASSMxw7>$68$..XXX                                                                                                                                                                  ",
"                                                                                                                                                                                                                  X+=<9<%#@#<6,-,,-$$##;--,-----;;#;<90iiiii1=+@#@##;<9096<689qwlMmSF^^^YFDDSvw8<-#%&.............%@$25778ewwwqwhznmMzhw8544>$$&.XXXX                                                                                                                                                               ",
"                                                                                                                                                                                                                  Xo+=<<#%;@<96<6,--$###$$-;;;;;;#@@;<111iir1oo++&@#;-,8996-,899wcvMSFQYSBSFSvu096-#@%............%@%$5577778e88ewhzzchwq876$$64%...XXX                                                                                                                                                             ",
"                                                                                                                                                                                                                   Xo+<<<+<;686665,,---$--$$--$###@#;;;;1rir1oo@@&@###$,8906-,88qyylbBFFBMmCBbdwq96,-$@&..........&%@#$2355567777eqwhczzzkwe7444>$$&.XXX                                                                                                                                                            ",
"                                                                                                                                                                                                                    Xo+<<><<,5,6886555,----$$;####@#@@@=;1rr1*o;@&&%..&@#,006$,6890ylvMBBMbMMMvywq086,$@%&........&%%@@#$222$225678ewhcMSmzwwe72$$4$%&.XX                                                                                                                                                           ",
"                                                                                                                                                                                                                    XX+;<<%+#,69q985555,--$$;#########@=;1rr1*o#@........&$896,,6680wylMmMvxvvvldyw0985-$#@%......&%%%%@%####$$22577eewzMMMMnkwe74>466%.XX                                                                                                                                                          ",
"                                                                                                                                                                                                                     XX+<<++#8qww755755----$######$###;;;1rr1*o=&.........&#586555558qycvlwyllcdccywq0885,,#%&.....&%%%%%@@#%#$$$245678qcnMAAMxzcw77884$&.X                                                                                                                                                         ",
"                                                                                                                                                                                                                     XXX%>#%8cwq7225553----$$#########;;;1rr1*=@o...........%-885-,,58qudq,6wcw0ycdyqq08885,$%&.....&&&&&%%@@@%%%#$$$37ewzzxMMMMzwe75>%$$$%.XXX                                                                                                                                                     ",
"                                                                                                                                                                                                                      XXO%,0dc854553$$$$###@@@@@@@@#@##@=;rr1*=+.............&$795,55689q9#@6qq68qydwqq00875,$@&............%%%%@%$##258qqqwzMMMzwqqe7>%$77$..XX                                                                                                                                                    ",
"                                                                                                                                                                                                                      XXXO6sdw757775$%%%%&%%%&&%%%@%@@@@==1r1*=+...............$806666,698@&@---,69udwqq0e885,$@&...............%@@@@#$55658wwwkcckwwqe5$244$&..XX                                                                                                                                                  ",
"                                                                                                                                                                                                                         .6e8wcchwq855$$@&.......&%@@@@@+=111*=+...............&$8q9886<6,&.o.&&#-,9wwwwqqe885,$#%&...............&&.%@##$$578eqwczzzzwq7$%%$$>%.XXX                                                                                                                                                ",
"                                                                                                                                                                                                                         O>>8cMMxcwwq9765-@.........&%@@@=;11*=o..........&&....%$6996666#.......%#58qwwwqq88855,$@&..................&%@@#$557eqwhczxchw84$&&$>$%.XX                                                                                                                                               ",
"                                                                                                                                                                                                                        .$>6wzxzdwwqqqe8886-@........%@@@=;1:*=o..........&%....&.%$66,,6#.........#568qwwqqe87855$@%.............X.....&%@#$5578eqwhkzzkww74$$4774$OXX                                                                                                                                             ",
"                                                                                                                                                                                                                       X%6ewsswwwwwqqqe888885-#%......&++=;;;*=o............&%%&&...@,,,-@..........#,580qwwqq88855$#%&&.........XX......%@@#$55778eqwcxxzhwwe448ww7>&XX                                                                                                                                            ",
"                                                                                                                                                                                                                      X&>6ewswwwwwqq09887678885-@&&...&+@====*=o..............%%.....@-,#&...........#,588qwwwq98855$#@&.........X.......&%@#$$25557ewkxnnnnnzzxnzkwe4%OXX                                                                                                                                          ",
"                                                                                                                                                                                                                     .%$$47wkdwwqqq0988775557786$&&%%%%@@====o=o...............%%.....&$-@............%$557qwwwqe87565$#%.................%%%#$$22257qcnmFDDFSSFFGzkw44$OX                                                                                                                                          ",
"                                                                                                                                                                                                                   XO>$%%>7wwwwq00088886555555788-&.%%&@@@==ooo+...............%%&.....&$$@............&$557ewwwq8776555$@&.X..............%%@#$$$$$5exSFSmMnnMMxcwe4$$4$.X                                                                                                                                         ",
"                                                                                                                                                                                                                  .%$$&O%>6888888888666555555556985&...%@@@oo.+@...............%@@%......#-$@............#5558qwwq9875565$%&.................%@%$$$$6qnmMzwwwwwq8742$.&$$%.X                                                                                                                                        ",
"                                                                                                                                                                                                                XO%%&..&24$>5,,55,5565555556555-,8q5%....%oo...&...............%@@@%......$66@............%$$45ewwqe8755553#&................&%@$$$48wxzwq88ee8742$$@&...%&.X                                                                                                                                       ",
"                                                                                                                                                                                                               X&%%O.&$$65$$5,---,,,,,,55555555-$,88-@.........o................%@#@&.....&5wq$&...........%#$$58qwqe877654$%%.................%@#$5qkdq8758e874$$%%@%....&%XX                                                                                                                                      ",
"                                                                                                                                                                                                              X&%&.O%>$@#$5qwq8,----$$--5555555,---,68$&.......o....................&&.....#8cw5%%&.........%%#$27ewqe8776552$%%...............&%@#5qwq85557874$%%%%%%.......X                                                                                                                                      ",
"                                                                                                                                                                                                             XO%OX.%56$&%5qwzldq85,--$$$-3355555--$$588-%.........%@.................@......3qxc85#%.........%%%%$7qwqe87776522#%................%#5qq75$$$575$%%%%%%&&......$X                                                                                                                                     ",
"                                                                                                                                                                                                            .%&..O%>5,#$8kxxxxvldw95--$$$$-55555,--$-5885$%.......#$.............@...%%.....@6wxxw7$@&........&@%%28qwqee8775553#@...............&$5865$#$$56$#%%%%&&&&......%.X                                                                                                                                    ",
"                                                                                                                                                                                                           XOOXO%>665,8wxMMMbMmmMlwq85553$$--55555,-$$,8986$......$$.............%...&%.....@>8wMMc7$$@........%@%$68qqqqee877755$@...............%$55$@@@%$$#%%%%&............X                                                                                                                                    ",
"                                                                                                                                                                                                          XO&.O$8wswqwcMmmmASmmmmMxxcwq75$$$$3555555$$$59wy9%.....$-%.................%%....%#,8dxlw75$%.......%%@#578eqwqqq877752$@%..............%$$@%&%@##%@%&..............XX                                                                                                                                   ",
"                                                                                                                                                                                                         XO&.O40wcddlvMmmmFDDSMzzxvxxcq7555$$$3335555$$$-8wq-&....$5#..................&....&%#,8qwcwq5#........&%#5578eqwwwqe87652$%%.............&##&...%@@%.................&XX                                                                                                                                  ",
"                                                                                                                                                                                                        XO&&%8sdwq0qxmmBmmD^^FMcwwdccwq755552$33355555-$$,65$$@..%-5#..................&..&&..%#,58qww8$%........%@$5578ewwwwwq875552#@%...........&@%.....%%....XX..............X                                                                                                                                  ",
"                                                                                                                                                                                                       XO%>>8clwwqqlCSSSmADDDSMcqqqqqqwq75775532--355555-,5-#@@..$55$..................%........#$$$6qw8$%........%$55778eqwwwwq775655$#@&..........%&...........................XX                                                                                                                                 ",
"                                                                                                                                                                                                      XO>68wcNxcwwxSDDDDSmMSSSxwe7777qq8557e855$$$-35555555-#&..&7854%.................&........%@@@#5qq8$...@%&..O#$55778eeqwwwe777555$$$@&......................................X                                                                                                                                 ",
"                                                                                                                                                                                                     XO>6ewxmSmnzxSFDDD^DSxxmSMhe75-$555$$58e85$$$$3555555553$...5e87$...........................O..%%$587#&%$5$%.%@#$5777788eqwwqe8766555-$%...X...&&............................XX                                                                                                                                ",
"                                                                                                                                                                                                    X&>6ewzmFDSMMmSFFD~^DScwzMMxw87$$$#@@#$78875$$$$3355555555#%.%5885#................................&$55#@$55$$###$25567778eewwwwe775555,$@&.....%@.............................XX                                                                                                                               ",
"                                                                                                                                                                                                   X%>6wxMGFD~FmmFFFD~[DFMw8qwxMzwq8qq#..@#477775$$$-35556555555%&%5875@.................................#5$##$$22$$#$222465777ewhhcwe8775655-#%....##..............................XXX                                                                                                                             ",
"                                                                                                                                                                                                  .%,8wNSFFD[^FnMSSFD^^^DSxq77ewwcczxw#...@$555653$$$-355576556773%@575$@.................................@#@@@%#$2$$$$$$4555558ewhhhwwe7766555$@&..##&............................#..X                                                                                                                             ",
"                                                                                                                                                                                                 O>68wNSDFFD^^FnMmmS~^^^^^Fvw75559wxMj5%...#55555553$$$355555757qq5%#575$....................................%.%%%$$$$$$$$35555778eqwhhwq87757775#%%$#.............................#%.XX                                                                                                                            ",
"                                                                                                                                                                                                .%660lSDFSSD~DAxMnxSD^^^^QSNwq5$357wNxc9@..@$544$5555$$$$25555557885$-785#...................................%....#$$$###$$$24565778ewhcwq87777875$$-#.....&...........................XX                                                                                                                           ",
"                                                                                                                                                                                               X%680dmFDDSFDDSzhzwwnS~^^^Fxq8e75357wMSSme%..@$$$$$5885$$$$-6555555775$785$@...........................XX.....@....#$$######$$$2557778ewjchqe877787865#....%%&...&......&&&&&&........%..XX                                                                                                                          ",
"                                                                                                                                                                                              X%8qqsNmSDDFFFGzwwe55qcmD^DSxwqq865-3qMDDFz5...%$$$$58e75$$$$5555525555$$555$%..........&@%%&&&.........X.....@#....#$$#######$$$255558eewjzkwe87777808$...%%@%&.&%&....&%%%%%%%&&.....#%.XX                                                                                                                          ",
"                                                                                                                                                                                             X%6wdskcznMAMnzkwq85$$27wzMmmmMxcq85$@#8MDDmw$..%%$3-357853$$$$2$$2$5555$%#555#.......XX.7wq8878555-,$#%&&&%#$%#$$$#@#$$$$$$$$#$$$2233578eqwcxzhq8757qww5%@%@%%%%%%%%%%%%%%$%@@%%%......%$&.XX                                                                                                                         ",
"                                                                                                                                                                                             X>wzzksskkczcwee755@%%%@58wcxxxzywe5$@%%wSDDmq%..&#753$$5752$$$$$$$$$$55$#%#55$.........&7wq87qq0880qqq8777eww8$5756$$$$$$$##$$##$$22225778ewzMMzw877qwsq55$$$$%%%%%%%%$$$$$@%............&&.XX                                                                                                                        ",
"                                                                                                                                                                                            X%wbxlzcskkkzzkwq85#.XXXX%$7qwwq778e85$@#8MDDDM7&..%5875#$3553$$$$$$$$$555##%#$$@.......X.57$#488867800877788eq7#5755$#$5$$$##$$$$$$$$$$23557ewzMMxhqqwwdwqe754$%&......&................X...O.XX                                                                                                                       ",
"                                                                                                                                                                                           X%qxxzclzxxnMmmnzw85%X XX X&#5885#%37873#$5wSDDDx$...#8qq5@@387-##$$$$$$555$$#@#$$%......X.$5@@48e7778888888e88q5@#575%@$55$$$$$$###$%%##$$2257ewznMMnxzcwwqqe62%&..........%%%@@$$##@@@$#%&.....XX                                                                                                                      ",
"                                                                                                                                                                                           %8sssdzMGSSFDDFmnw8$%.XX   X.@#$$@%#5775-$$5cSDDSq@.X.$ew8$@%5q5###$$24$555$2$@@#$$#.....X.#5@@5wwqqwwcywwwwwwcc7#@5q8$%@$$$$#$$$####%%##$$$2478qwcMSFSxcq888772%...#5225558qqwczxnnxw877755$&..%.XXX                                                                                                                    ",
"                                                                                                                                                                                          .5qwwwcmSDFSSDDDFMc82@%&.XXXXX&%@%%@@#3533-$$7xDQDM8@...$qw8$@#87$###$$$$$552$$%@$$3$#......58@@5cxzcxMmMxxxxMMmMq5$$8q5@%%%###$$$$###%######$$558ewkMFSzw757676$&..&6qwhzzzxnMmSSDDDFMq755---@..%@.XXX                                                                                                                   ",
"                                                                                                                                                                                         X%6wwszCSSSmMMASDDFmxq5#@%&....&%@$$$@%@$$35535wmDDSM8%...-qq7#%$55###$$$>4555$$$%@%$5$@.....58$@$qwqqwxMxxxxxnMmMq5##565$%%%@###$$###########$$$5577ecMMw84$2455#....%6ewzzzxMMMMmMMMMc5#@%%%%&...%..XXX                                                                                                                  ",
"                                                                                                                                                                                        XO&,wNmCSCMvxzzxmSFFFSMw8,$$#@%%%@#$43#@%@$$55557hmDDSx7%..&$8q7%@$55##$$$$$$552$$#@%%$5$#@%.&78#%#87$$5qqqqqqqqwww8#&%%###@%@@%##$$######$######$$5558wzzq5$$$$22%.....@28qqwwwwwwwwqqwq$&.........&...XX                                                                                                                  ",
"                                                                                                                                                                                        O&%wbSSSmldydzxxMmASFDSmlw0885-$$$$$553$@%@$$33$>8zSDFSz5....#8q5$#55$##$$$$$$55$$#@.&#355$%.&78#%#75$%$6555555577ee#...%%..%@####$$$$######$######$256ewwq5#%%$22%.....$6eqqqqqqqqqq98e7$&..............XX                                                                                                                 ",
"                                                                                                                                                                                       O&>0bCSmMxwqwwcxvMMmSSSSSmbxzyq0888567775$@%@%$$$$5qxSFFmw#....$77$#$5$###$$2$255>$$%..%$555#@%55$@#75@@$5$##$$555577#&.X.....@$####$$$$$#$##$$######$$47qwq5$%%$$$%.....$577877788787855,$%&.............XX                                                                                                                 ",
"                                                                                                                                                                                      .%>0NmmMldwwwwwyczxMmSSSmmmmMbxlcwwqqqwqq85$@&%%$$$$5wMSFSx8%....#55$#$5$$$$$2$$$552$#%..%$55$#@$3@%#q8%@$5$%#$>555555#&....XXX.$5$@%@$$$$$############$258wq5#%%%$$%&....%$578888888755,$$$@%..............XX                                                                                                                ",
"                                                                                                                                                                                      %6wNMmxcywwwwwwqqwwzMSSSBmmMMbxxxlzzzxxxcwq7$&&@$34$57wMSSSz5%....#3$%#$-$$$22$$$553$$@...%$5$##$$@@$qq$@$5>##$2555->55@....XX..%55#&.%@$$$$###@##%#%%#$247w82$%%%$$%&....%%$355555,,,-$#@@%%&..............XX                                                                                                                ",
"                                                                                                                                                                                     O>qzbbxczcwwwwqqqqqqwzxMmmmmMMbxxxxxxnMMmMvcw7#%%%$$$258cmSSmw$....%$#@%$32$$$$$$$$52##%&...@%@%#$2@%#qq5$555$$245555577#...&.....@53%%.%@#$$$##@$%%$##%#$27q7$%%%%%#%&......%#$2$$##@@%&....................XX                                                                                                                ",
"                                                                                                                                                                                    .>esxNxcczwwqqq0990qqwqqwcxmmMxbMMNxxxNMmGSmMxw5@%%%#$$57qzmSSM8%....%$%%$322$$$$$$$5$###%.....&%#$$%.@8q5557555555555555#&.........%$%#&.%@#$$#%%$%$$%###$$575$@%%@@@%.....XX..&%............................XX                                                                                                                ",
"                                                                                                                                                                                   X%ewskzzccwqqqq8889qqqqqqwjxMMxzxMMMzccxxMmSSSMce$@@@@%#$57wxmSmh#.....%%%$22$$$$$$$-53#%#@.....&#$$%..%5853577755555555$6-%...@.......%$#%%%$$$###$%%$%%###$$55$%&.&&&.........................................XX                                                                                                               ",
"                                                                                                                                                                                  X%6ewwhczzcweeq88780wyywqwxMMMxckcxMMcwwcxxMSSSGMw85$@&%@%$58wxmBx7%.....%%$$2$$2$$$$35-#%#@.....&,q8@.&%$52$$78755555553$87$@..$%.......#5$%.%%#$###%##$%###$$25$%..............................................XX                                                                                                               ",
"                                                                                                                                                                                  O6eeewwkccwq88qq09qwclcccxMmmMzkwwcnMxwwwcxNmSSSmxwe7$%%%@$558wxmMw$.....&%$2$$$$$$$$452#@$@......$qw5$5$#5$#$6855555555$#5887$@$%%.......$$#%%%%####%#$@$####$25$@..............................................XX                                                                                                               ",
"                                                                                                                                                                                X.$>47wwhkkwqe89qqwwwcxxlxvMMmMxcwwwwxMNcwwycxMmSSSmlwq7$@%@$557qcMMx8@.....%#$$$$$$$$$$3$#@@@......&$8855,$5$##5755545555#@$qwwq75652#%.....%$$#%%@$######$####$$5$@...........................................%...XX                                                                                                              ",
"                                                                                                                                                                                O$$%%4ewkwwqq888qwdclxMMMmMMMmmMcwwqqcMMxwwwwcxMmSDFMcwq7$%%@$558wxMMw$.....&%%%%%$##$$$22#@@@........%#%%#@$7$$$5553$$55$$$#wxxzwwwwwq5%.&%%&%$-#%%%%@########$$$4$@...............................................XX                                                                                                              ",
"                                                                                                                                                                               X$>&O%6wwwqe88888qcxxMMBSSSSmmSFSxdwqqwzxxjwwwyzxMmSFSMcwq5$%.%$58qcMMc7@......%&&%%###$$$$#%@@......&&.&%%%%#7$@#$33$$$$2$###qxMMNxMMbxw5##$$%.&#$#%%..%$$#######$4$%...............................................XX                                                                                                              ",
"                                                                                                                                                                              XO%&O%>wwwee88888qwxMmCSSSFFFSSD~DbdqqqqwcxcwqwwycxMmSFSxcwq6#..@$58wxMxq$.........&@%$#$$$$#@@@.X.....&..%##%&@#@@$$2$$$$$$###58wcccxMmMz9$#$$#%..@-$%&.%#$$####$#$5$%X...............................................X                                                                                                              ",
"                                                                                                                                                                             X&%OO&$8weeqwwwwdzxMmSFFDDDDDDDDD^DMwqqqqqcxxwwwwwwcxNmFFMxcwq5%.&@>5qzMNw5%.........%%%#$$$$%@%%.X........%$#@..@@%#$$$$$$$$#####55778wzxcq-@$$#@%..@-$%&%@#$$$###$555@................................................X                                                                                                              ",
"                                                                                                                                                                            X&%OO&>ewkhkxMMMmSSFDDDDDDDY[^^^DDDSxwq8eqwcMMxcwwwwyclMSFSMxzw8$..&#58cMMc8$.........&%%#$$$$#%%%.X........@$$#%.%@###$$$$$$####@@@##@@$,0wq,&&%##%...#$#%%%%#$$$$$$555@................................................XX                                                                                                             ",
"                                                                                                                                                                            O>>%>8scbmmGSFFDDDYYY^^^^[YQ^^^^^DDSMzqeeqqcMmMxjwqwwwwxmSFSMxzq5%..%$5wxMxw5%.........&@##$$#%%&%%.........%@@@%&.&@#$$,,,-$$###@@@@%&...$9q5...%#%....%$#@%%%#$2$$$55$%................................................XX                                                                                                             ",
"                                                                                                                                                                           X%880dbmCSFDDDDDQYYY^^^^^^YDDDDDDDDDSmxwqqqqwxmmMzwqqqqwyxmSSmNxw8%..&@$8cxzw0$..........%@%%%%@%.&&..........&......%#$55555,$##%@@%%%....&$88&.X&@%.....%#@%%%%#$2$$$5$.X........XX.....................................XX                                                                                                             ",
"                                                                                                                                                                           O6wdbCFFDDD~^^^^^^^^^^^YDDDFFSBmCSSFSmMcwqqqwxMmMxwqq0qqwcNmSSmxcq3&..%#5qwccw5%..........&%@@%@%%%&..................%#588555-$#@%%%%&...%$%88&...%@.......&%%@@%#$$$55$&................................................XX                                                                                                             ",
"                                                                                                                                                                          O>wNCFDDDD^^^^^^^^^^^^^YDSCBmMMxbbMmSSmMzwq8qwxMMmMjqqqeeqwcMSSBMlw7%...@$7qkccq5@...........%@%@@@@%...................%$88555,$#@@%%&&...@6508%..&%@%........%%##$##$553%.....%...X...................................%..XX                                                                                                             ",
"                                                                                                                                                                         X>wNSDDQQDQ^^^^^^^^~DDDDDSmMxxxxxxxxMMmmMxcq8qcnMmBmxwqqqqeqwzMSSmxw8-&..&%5ewccwq5&.......X..&%@@%%@%................%...%$-$#$,$#%%%%&...%@80q7-&%%%@%.......X&#$$###$577%....@$#@%.......%%%%%%%@###@@#####@@@%%%%%...%..XX                                                                                                             ",
"                                                                                                                                                                        X%8cmFDDDDDD^^^^^^^^^DDDDSmMvvMMbMMMxxnMMMxzweqcMMmGmNhwqwqeqqwlMSSMje5#...%$7qwccw8#.......XX..%%..O%%................@&...&%..@>$%&%%%&..5q65qq8q@&@@@@.......X.%$$$$#$57e$@%%%#5-@&...............&.......&%&&&&...........X                                                                                                             ",
"                                                                                                                                                                       X&,wcMCSSSSSFDD^^^^^^^^^[DDFSSSSSmCCMxzxxxnnxkwwcxMmmmMxwqqqeeeqhxSSmcq75%...@57qwcwq5&......XX.&%%.....................&@........##&..&&...7ml,888y5&%##@.......XX.$5555$58w5$#%.%@%.X........................................X                                                                                                             ",
"                                                                                                                                                                     XXO%>8wzbmmmmmmSFDDDD~^^^^^^^^DDDDFSSSmxccczxMNzczzxMMmmSmcqqeee8qwzMSGxwe5#...%#5qwcwq7$.........%@@%&&&..XX..............%........&#%&.&&&..6SS8#5qw9&.@@%...........#5qe757q$$@...%&.&&&&&%%#@@@@@@@@&............&...........XX                                                                                                            ",
"                                                                                                                                                                   XO%%%%$7qszMmmmMmCSSFDDDDDDDD^^^^[DDFFDDSMzswczxxxxxxxxMmGSFMweee88qqsxmSmzq7$....%$8wwwq8$.........%@@@@%%&.XX..........&.............%#%&.&&&&-cM9%-96-&..&.............%$57557@%....%%%6900uuuvi911<<<-@.........&;;;;+oo.ooo.&..X                                                                                                            ",
"                                                                                                                                                                 X.&>>%%&$7qdxMmmMMMmCSSSSSSmmmSFDYDDDDDDDDFGxcwwwzxxxxxxxMmSSDSce77778qwcMSSnw85%....#6wwqq85%X.......%@%%@@@%&...........&%&.............%&......&6q5&#6@&....................%@$7$......&<yvbVVVVIVir9116<;&........;00991;=oooo.%+.XX                                                                                                           ",
"                                                                                                                                                                X&>>%OOO&>ewlbMMMMbbMmmmmMMMxxxMmmmmmSDDDDDFSMzswwwczxxxxxMMmSFSxq755578qwxSSmc05#....%5qqq875%.........%@@@@@%&.........&%%%&......................-6#.%#........................&55......@0bVVVZZITTIfi99991<#&......@0ii9191=oooo%++&X                                                                                                           ",
"                                                                                                                                                              XO>86%OOO%%4ewcvvvxlccxvbbxxxzzzlxxxxxxMSDDDDDSmbzywwwjczzzxxMmSFFMw7555588qxmSSxq5$....&$8q8775@.........%@@@@@%&.........#$@@&&&&...................@#&............................%@.....&6vBVVZIITTTTVfiiiiiu9;&&&&..+1ii91ii1=ooo++++oX                                                                                                          ",
"                                                                                                                                                             .%>66>OXO%%>7eqwyyywqqqwwyddcccczxxxMMnxMmSDDY^DSmbzswwwjczzzzxMAFFSxe555578qwxmmxw75@....%58855$@..........................$,$#%&%&...................&&....................................@iBZZZZITWWWWTVfiuuuuu9-#@@+&o;iiiriii1=oo+++=+.X                                                                                                         ",
"                                                                                                                                                          XX&>66>>%OO%%47ee09qqq9888890qwwwwwdczzxnMMMMmASD^^DSmxzdjczzxzcczxmSFSMw5335577qcMmMk85$%...%2775$#%........%$#O..&&..........@5$#%%%&.......&.................................................6vZZZIIIWRWWRWTViiiuuui9,;@@++=<iiiiiii1=o++==+&XX                                                                                                        ",
"                                                                                                                                                         X&>6886>66>47eqwwwwwqq09889989qqqqqqqqwczxMMmMMMmSD^^QSmxcczxxxcccczMSSSSxe5345558wxMmxq75$....#55>#@%........%$4>$$66&.........&$$$%%%%...%..&%................................................%qBYIZIIPWRRRRRRPgiiifuu01;@@++==<iuippfi1o=====+.XX                                                                                                       ",
"                                                                                                                                                       X.%660ssssswwwzzcccccdyywwwwwwqqqqq00888qwcczxMMvMMmSD^^YSMxczxnnxzzzxMmSSSmj72$$557qzMmnw875@...%$-$@%...........%$%&>8&..........@-$@@@@%&&@%&&%&...............................................%uZYIIIIPWRRRR//WZgiiuuuu0<;@++o=;1riggfir==+===+o.XX                                                                                                      ",
"                                                                                                                                                      .%>6eesxMmBBGGSSmbxllvvvxlllllcdywwqqq989qwwwwczxxMMmSSD^^DBbxzxxxxxzxxxMmSSSNe3$#$57qcxMMzq87$....@#%@%...........O%..56&..........&#$@%@@@%%##%&%%&..............................................%uZYIIIIPWERRRE//TVfiufuui9<;@+oo=;1igggpi;==+==++..XX                                                                                                     ",
"                                                                                                                                                    X%>6,,,60dNmFDDDDFSSSCCSSSCBmmmMvxlcywqqqqqqwwwcczlxMmSFFFD^YSmMnzzzzzxxxbMMmSSMq3#%#57qwxMMxwe87#.XX&@@@%O.............O,>..@.........%###@$$%.@,$%@@%%%............................................&uBIIIZITRRRRRE/ERTViuufuu09<;++oo=1iigggir11==+++o..XX                                                                                                    ",
"                                                                                                                                                   X%688<<<,ewlmFFFDFFFFFFFFFFSSSSSSBmMvlcddccccccclxvvxvMSFDDDDDFSSSmMnzzxMMMMMMmSmw5#@#57qwcxMMzq8q5%XX.%@@%&..............$O.%$&%........%#$##@...$5$%%@@%%&..........................................&0VZZZZZTWWWRRRERRWIgffffuu09;@@@+o=1ripgfi11==++=+o.XXX                                                                                                   ",
"                                                                                                                                                  X%6e6,<<=<0dvmCCSSSSSFFFFFSSSSSSSSSCmmMbMMMbbbvvxxvbbvvmCSFYDFSSFDDDDFmMMSSSGmMMSSx7$@%-5qwwxMMxwqqq5.XX&@%%.X.............%..&$&@%........&&......&$$%&%%@%%&................X........................&9fVVVVVITTTWRRERRWTZffffduu0<;;;=+==1riggir1;==+==+o..XX                                                                                                  ",
"                                                                                                                                                  &60e6,<<<9wdbbbbCCSSSSFFSSSSCBBCSSSCCBBBBBBBBBmmmMMMmMMmCBSFYDSmSD~^^DDSSFDDSmMMSSmq$@@$58qwznMNcqqw8%...%%................%..&#&#%..................%%.&%@@%&.........................................&1ufVVVVITTTTWRRRRWWTZfffffdu0<;;;==*;1iiggir:;;==;=+o.XXX                                                                                                 ",
"                                                                                                                                                 .%>66556890udlvbmCCSSSSSSSSSCBmmmCCSSCCCCCCSSSSSCBmmmBMbMmmmSDDSmmSD[^~DDDD^DSmmmSSSj5%@#38qwzMMMze8wq5.....................%..+#&$%......&............&..%%@%%%%..............X...%%&.....@%.....@%....&<iifVVVITPPTRRRRERWWTVvfvffuu01<-;=**1ripgiir11;;;==+o..X                                                                                                 ",
"                                                                                                                                                .&&O>>,88000udlbMCSSSFFFSSSSCBBmmCCSSSCBBCCBBBBBMMMvvvbxzclMmCSFSBmSDD~D~DDD^DFSSGSSSve$@%$5qwcMMMxq7qw7&...............X....%..%$&#%......&................&%%%%@%.................%@%%&...5$.....##&....;9iigVVITTPTRRRREERRWTZVgfffuii99<;=*;1iiiiiira;;;==+o...X                                                                                                ",
"                                                                                                                                              XO&&OO%,689988wdbMBSFFFDDDFSSSSBBBmCCCCBMMMMMbbbbbvvllllllcywxmSSBCSSSD~D~^^DDDDFFSSSSSmw3@@#59wcxMMvweqw8@....................%..%$&@%.........................&%%@%&................%@@%%%..$5%....#5@.X..;11rpVKITTTTRRRREEERRWTIVVgffiii091111riiiiiirrr11===+o..X                                                                                                ",
"                                                                                                                                             XO%&OO&$50098560dbmCSFFFDDDDDFSSSSSSCCCBmbbbbbbbvvvvvvvvvxccdwybCmbMCSFD^^^^^^DFSFFSSSSSmx8#@%38qwxMMMzwwwq$............$%......%..&@.%%..........................&&%&................%%@@@%%..%75....%5#...&;111igKITTTTWRRRR!ERRWWWTIZVVVfiiiiiiiipppppppgfr1;===+oo.XX                                                                                              ",
"                                                                                                                                            X&%&O+%,58qq98,60cvMBCSSSFFDDDDFFSSSSSSSCmMMMMMMMbvvMMbbbbxcllcylMMxxMSDD^^^^^^^DFFFSSSGGmMw5@%$5qwxMMMxwwwq5%...........#&......%..O..&&..............................................%@%@@%%&X&55.....$#...&<111rgVITTTTTWWWR!)ERRWWWTTTTPVggffgVVVgppggpgggir;====++o.XX                                                                                             ",
"                                                                                                                                            O%%O+>,80ww09880yclvMmmBSSSFFDDFFSSSSSSSBmMMMMMMMbvbMMMbbbxcclxcclxllxmFD^^^^^^^DDFSSSSGmmmx8#%#5ewzMMmMcwwe5@...........O.......%..&...&.......&.....................................%@%@%%%%%..$#.....@%...&-111rigKPTTTTTTWRE)EERWWWWWRWTPIIIVVVKKgggpppgggir1;;=;==+ooXX                                                                                            ",
"                                                                                                                                           .%&XO%6e00000qudccdclvbMMmBSSSFFSSSSSSmmmmmMMbMMbbbMMMMMMMbvxlllcccllllMSDQ^^^^^^^[DFSSGmMmAmj5$%$7wzMMmMxcw85@..................O%..%..%%.......%........................&......XX.%%%@@%@%&%@%..@%.....%....&;111rriVITTUTTTTREEEEERWWWWWRWTTPIVgKKVggggpppggpir1;;;;==o&.X                                                                                            ",
"                                                                                                                                          X%%OO%60wq0wdclvlddyddclxbMMmCSSSSSSSSmmmmmMbvvvvvvvMMMMMMMMMvlcywycccccbCFDDDQ^^^^^~DFSGmMMmSMq2%$5qcxMmmxcw86#.....&.....O......&$..%%%@%&......%........................&......X.&%@$###%@%%#$%.............&;111arigKPUPTTTTWREEEEERWWWWRRWWTIKggKgggggpppggpprr111;;=+&o.X                                                                                           ",
"                                                                                                                                          &%O%>8wswwwcvbbldyyyyyydcxxbMmmmSSSSSBmmmmmMvvlllcvvbbvbblllvvxyq0qwyywylMSFFFD^^^^^DDFSGmMMMSSx7$#58wxMmmxcw85$%X..&.%...&%......%O..%%%#%&%&.............................%........%@##$###@%%#4%....%&........;111rrigKPPPTTTTWRRE/))EERWWRRRWTIKggHHggggpppggpiirrr111;++ooXX                                                                                          ",
"                                                                                                                                         X%%%>6qwywdddllldyyyyyywwycxvbMMmmSSSSSCBmMbvccccddcvvxvvvlddcxxcq89qwwwwcxMmSSDD^QDDDDFFSmMNbGSmw3#$7qzMmmxcw85$&X....&......X....%O..%%$$#%#%............................&%&......&%@##$###@@%#5#.....&........;111rrriVIPPTTTTWREE/)))/ERWWWRWTPKKHHKHggggppggpriiirr11;==++oXX                                                                                         ",
"                                                                                                                                        XOO%>6ewq0wydddddyyyyyddywwycxvMmmmCSSCCSSmMvldddddddccccdcdddcllcw99qqqqqdxxMBSFFDDDDFFFSGMMNNmSFN8$#5ewxMmxcq85$%..........XXXXX..$O.O#@45$#$@............................&%&.....&%@$####%$@%%%$$.X...&&.......+;11rrrigKKIPTTTWRRRE/)))RWWWWWRWTPIKKKKgggggpppprrpirrr11;==++oXX                                                                                        ",
"                                                                                                                                       .%OO$68wq880wyyuuuwwwudccyuwyclvbmmmCSSSSSSBMblccccccdydyyyydcdywwccq90q090yxbMMSSSSFFFFFFSmMNxnMSFSw5#$7wzMmvcq87$%...%%...&.X  XX..>%.%$#55$#-#&&%.........................&%&..&.%%@@%@@@@%$%%%@$5#....&.&......o;111rrrpgKIPUTTWTTTRE/)/RWWWRRRRWTPIKKKgggKKKHggpippiifi11===++oXX                                                                                       ",
"                                                                                                                                      X%%%%47eqe5690wwuwwwwuyclcdyydccxvMmmmSSSSSCBmmMbvxcccdyyyyyyddyq9qycq900090yxMbMMmSSSSFFFSAMNxzxMSFFN9$$6qcxMNcw87$%...%%....X    XX.,%.$>$55-#-$&%%...........&.............%@%%%%@@@@%@&&%@%%@%%@$52%............o=111rrrigVKIPTTTKKTR/))EWWWRRWWWWUUPIKKgggKKKKKggpppirriir1===++&X                                                                                       ",
"                                                                                                                                     X%%&%>68885,6000qqqwydddccccyycllxxbMmmmmCSSSBBCCCmMvvcdyyyydccdyq9qywq99900qyxbbvvMCSSSSSSGMMxccxMSFFSj5$3ewxMMcw885#&...%..&.X    XX.6$%$##65$$-$&%%...........%O...........&@#@%@####%%@...@$@@@@@#>$@&.&%%.......o==11rrriggKLPUULHKWE)))EREERRWWWWTTUPKKKgHKKKKKHggppirrrir111==++oX                                                                                      ",
"                                                                                                                                    O%#+&%58878669000qwudclllccccdydcccllxMmmMmGSSCCCSSBmMvxllcddcccdywwyyq99990qwdlxxllxmSSSSSSmmMxcjxMSSFFNq538wcMMcwe86$%......&X     XXO5$%>##5,$$$$&%%..........%%&...........$5$@@#33$##@%...@#@@@@%###@%&&.&&.......o==11rripggKPULHHPWR/)//)))EERRRWWTTPKKKgKKKKKHKHggpptirrrrr1:==++X                                                                                      ",
"                                                                                                                                  X%##;@+;69689900000qyclvllcccddywyddccclMmMMMmSSSSSBBBmMvvvvvllcccyycccyw9990qqwycccdclbmSCBmmmMNzjyxmSSSFAc858wcMMcwq08$@.......X     XX.%.%>##5-$$$#.%%..&.......%@%...........$85@@$575$#@..&.%#@%@$$@@@%&&&.&&.......oo*11rrripgKLPKHKTWRRE/)`_`)/ERRRWTTPIKKKKKLLKKKKHHggppirrrrr11;;=oX                                                                                     ",
"                                                                                                                                X&60068<;<90990qqquuyydclccccccdduwwydclclbMMMMmSSSSSSSBMMvvMMMvvccyyclvlcyqqqqqwwyywwqycxMmBmMNMvxjwjxmSGSDFMw77wcMMxwq08$%&...%OX      XXOOO%5>#5-$$$#.%@..%.......%@%..........X%77#@$784#@@.%7#%%#@$##@@%%%%..%%.......ooo=1rrrrrpHKLKKUTWWRR/)___`/ERRRRWWTIIKKKKIIILKKKKKHgggiiiirrrr1=+X                                                                                     ",
"                                                                                                                              XO,0dzw0e8890uyywwddlvvlccddddcccdywqwydcxllbMMMMmGCBCSSSmMMMmmmmMvxlcdlvMvcywq9qqwwwwwqqwlxMmBMxxxxcwwjMmmMSFFBxq7qzMMxwq95$%&..$$.X      XX&&&$5>$,-$$$#&%@&%%.......%#%..........@5774%@$54#$@.@c7%@##75#%@%%&&..&&.......ooo*1rrrrrtgHLLUTTWWRRE)___`)ERRRRERWPPIKKKIPILKKHHKKKggggpiiiiir;=oX                                                                                    ",
"                                                                                                                            X%>0szNNzwwwwwwdlldcxMmCBmbxccddcccdwwqwydzllxbMMMMmBBBBCCmMMMMmBBBmMvxxvvMMMcywq99wyywwqqqylxMmmMxxxlcwwjMmMMmSSSMw8qzMMxwq95#$%..%%XX       X&O.$5#,,,$$-$%@#%@&...&...%#%........@7wl8#55$#$5$#@&%w8%%##55%%@%&.&..%%.......oooo=rrrrrrgHKLUTTTWRRR)`__`)EEEEEERWTTPIKIIIIKKKKKKLLKggggiiiiir1=+oX                                                                                   ",
"                                                                                                                         X&>>6esNmMMMNxzlddvvxclbmBCCSCmbxldyddywwqwydcllxvMMvvMmmCCCCBmmMMmBCSSBMbvvMmmMxdyq99wyyywwwdlxvMmmmvlzzywwjMmMMmBSSMhqqzMMlwq8-%@.....X        X%%.$5@,,,--,$%@#@#&.......%@%......%5wccq5#7ww7555$#%%5$.&@#$$@@%%.....%%.......oooo=1rrrrrpHKLUUUTWRRRE)__`))//)/ERWWTPIKIIIIKKKKKKLLKHHggiiiiiir1=+XX                                                                                  ",
"                                                                                                                       X&>,6668wNmAAAACmblvMMvxvmCBmCSSSCmMlddywwwwwyydclllvxlxMMMmBCSSCmMMmmCSSSmMvMMmBBbcywqwyccyyylvvvMmBBmNzcjwqwcmmMxMMmAMzwqcMMzwe7$@@....XX        X%%&25%555--5$@#$##&..&.&&%@#%...%##5wwq5555ezz84$55$@.%%.&@@@#@%%%....&&%..XX....ooo*1rrrrrtgHKLUUTWRWWR)`__`)////ERWWTPIIIIIIKKKKKHKKKHgggpiiiiirr1=+X                                                                                  ",
"                                                                                                                      X%%,66>,6esNASSSSmbMmBmMbMmSmMSSSSSSSmvlcdywwwyyddcccllzlxvvbMmCSSSCmmmBCSCmMbMMmSSBvjyydclclllMMMMMmBSBMzwwwqqzBmxxxMMmMxwwzMxcw85@%..%.XX         .>%%25@555,55-#$$##&..&.@#@%@%...#-57e5#@-8878q7$#$$$%.....@@@@@%%&.....&%%XXX....Xooo:riitttpgHKPUTWWTWR/`___`)))/ERWWTTPIIKKKKKgggggHHHgggpppppirr11=oX                                                                                 ",
"                                                                                                                    XX++>>>$$$>,6smFDDFSCSSSmMMMBBMMSSSCSSSSBmbxlcccccccddcllccllllvMmSFFSSSCCCCBmMMMmBSFSMcclxvvvMbbbbbbMmBSSMcwqqqqxSMxzxxMMMxwwzxxcq72&...%.X         X.%.&24@555,55-#$$#$%..%&#$%&%%..%$$5$@%%@#575$55$#%@#@.....@@@@@%&&....&%%%........XXo*riipttrpHKLUTWTUTRE)`__`)))//RWWWTTTPKKVVVgggggggHHHHgggpiirrrr1=o                                                                                 ",
"                                                                                                                   X.+%#>>#%##,,6wbSDQDFSSFSmMmBSCMBFFSCSSSSSSCMbxxlxxlllclxxlllxxlvMSSSSSSSSSCCCSBMmBBSFFBvxvMMbMMmMxlclbMmBSmcqqqqwMSMzcccxnnzccxxzhe4$...%.X          X&O.&24@555-55$#-$$$%..%.%&&.@$@%#-,,#%%@#$$$$%%$$%%%%@%....@@%@@%%%%&.&%%##..........o*1iipttrrgJLUTTTUTRE/)__```))/RWWWWWWTIIKKKKKKKHHHKHHKKHgppirrirr;=X                                                                                ",
"                                                                                                                   .&%#;<>#>,,8e0wcmFDDFSSSSBBBSSSCSFFSSSSSSSSSBmmMMbvMbxlxvvxxvMMbMmSSSSCSFFSSSSSSBBBBMSFSMvvNMMMvMMxdwdvMmmGmcqqeqjGSMzkhhczzcccxzzw72%..%%XX          X%%..22#5,$$55$#-$$$%..%.....$86#,55$@%@$$$###%%%$%%&%@%.XX.%%%%@@@@@%&%%%##.........ooo:riptrrrpHLLUUTUTWRR/)___``)/RRRWWWWWPPPPPPIILKKKKKHKLLKggpiriirr1+X                                                                               ",
"                                                                                                                  O&O%##><<,800wwdcvmCFFFFDDDFFFFFSFFSSFSFSSSSSSCmmmmMMMMxvMMvvMmmMMmSSSCBSDDFFSSFFBBSBMmSSMvcxMMMMMMxcwylMmmmmcqe8qlSSNzhhwhkhjczxzkw4$%&%%.X           X%%..%%#53$$56$#,-$$%..&..&%&505$5785@%#$##%%%%%%%%@%&%&XXX.&%%%@@@%@%%%%@$#.........ooo*1iittrrtHKLLUUUTWRRE)``__`)/RRRWTTWWTTUTUPIIILLKKKKKLLKKggpiiirr1;X                                                                               ",
"                                                                                                                 .%%%#%#,<<80qwwdcxvvbmCSFDY^QQYYDDDDFFFSFSSSSSSBBBCCBmmMMmmMMbMmmmmmmSSCCSDDDDDDFDSSGmBSSSmvccvMMMMvxllccvmmmMcq88qxSSnzhwwwhhhjzxchq4%&$@.X            X%@.%$&$5$$$55#@,$$$@.......%88--899,@@###$@@@%%%%%%%&.......%%%@@@@@@@%%@$#.........ooo*:ritttttHHKLUUUWWWWRE)`__`)/RREWTTTWWTTTTUPPPPLKKKKKLLLKKggpiiir11+X                                                                              ",
"                                                                                                                X&%%#>#>680qqqwwdlxvlllvbBSDYDQ^QQQYDDDDFSSSSSSBmmmCSCCCBBBmmMMMmmmmmmCSSSSDYYDDDDDFSBBSSSmmMvxvMMmMxlxvlcxbMmmxq98qnSmxzwqewwwwjlxcwe4.&$.X             X$$%$$%$53$$55##,$$-#.......@98,,676$@@@@%%@@%%%%@%%%&.......&%%%%@@@%%%%@$#.........oo**:artpgppgHHKUUUUTUTWR))`_`)ERRRWTTWRRWTTTTPPUPIKKKKKLLLKKHgggiiir1;+X                                                                             ",
"                                                                                                               X+++%%>>59000000wdcxxlccclMBSSSFDDDDDDYYDDFFSSSBmMMMmmmBSSSCmmmmmmmSSmmBSSSSDDDDDDDFFBMSFSMbMMMbvvMMMvxxvlcclvMmMweewMSmxcweeewwwjlxwq7#..%.X             X$$O>>%-554555##,-$55--,$@%@5q898665$#@%@@@@%%@%%%%%%..........&%%%%%%&.%@$#..........o=*::aipggttpHKLUUUPPPTWE))```/RWWWWWWEEWTTTTTTUUPLKKKKLLLLKKHgggpiir1=o                                                                             ",
"                                                                                                              X%%%%+##,888888880wcllcdddlbMMmmBSFDDDDDDDDDFFSSmMMMMMMMMMmmMMmMMMmmmBGBBGSSSFDDDDFSSmMMMmmMvvvMMMMMvvvxllcdddxMmMcqqcmSMncweeewwwcxxw8$%.&.X              XO.O,,%-655555#$,60ybMMMvbbMmmmBMlw8$@@@@@@%%%%%%%%%%.............&&.....%$#..........o=*::artggpttgHLUPPPILPTRE/)``)ERWWWWREERWTPPTTTUPPLLKKKLLLLLKHgggpiir1=X                                                                            ",
"                                                                                                              .&O%#<;;<66666<,68qyclcdddcvMMMMMCSSSFDDFFFFSFFSBmMMMbbvvvvbbbbxxxvMMMmGSSSSSFDDDDFSMMvvxxNNvllvbMmMvxvxlcwwwylvMMcqqcmAMncweeeqwwkzzq5%.@&XX              X..%5,%-555555#$8yMmSFDDD^^^^^^^^^DMcq86-#@%%%%%%%%%%%&........XX........%$#..........o=*:::atggptrtHJKLLLPLPUWWR))`))RWWWWREERRWTTPTTTUPPLKKKLLLLLKKHggggiir1+                                                                            ",
"                                                                                                            X.%&%$,<<<<8886<--569wdllccccxvbvvMmSSSFDFSSSSSSFFFSBmMbvxvvvvxxlcccllxNmSSSSSSSSFFDDFBMbNxjccxcclvMmMxlxxldwwwdcxMMcqqzGGmMcq88eqqwhcw6@.%$.X               X&.%,-+$555555$8cMmCSDD^^^^^^^((^((^^DSxw8$@%%%@@@%%%%%........XXXX....X.%##.X........oo=:::artgpptrpHHHHLPPPPUTTWE))`)RWWWREEEERWTTTTTTUPPLKKKKKKKKKKHKggggir=o                                                                           ",
"                                                                                                           X%%%%$5689<<88665556669wdcccccllvvbMBSSSFDFSSSSBGSFFSCmMMbbMbxxxxlccccczxMmCSSSGGGGSFDDSmMMxjjjcjclvMMMxllllzywwyclNMzqqxSSMMcq8788qqww8@%@$%X                .%.%>#%$,555758yMmmSFD^^^^^^^^^^^^^^^^^^DAzq5$$%@@%%%@%..........X.......%#@.X........oo=::::atpggtrtHHHgHUUUPPPUUW!)``)RWWWREEEEWWTTTPTUUPPLLLLKKKLLLLLKggggi1=X                                                                          ",
"                                                                                                          X%>>>>58888666666<666<680wyydclcclvbMmCSSDDDDFSSSSSSSCmmMMMMmMxxxlllccczclxMmBSSSSmMGFDDFSmMNxzzcjwcxxvvxllllldwqwycvMlqqxSSmMhe777888884#76%X                 O%.%4##$--559qcxMMmSDDDDDDDDDDFFDDDFFFDY^YFMjq7$#%%%%%@..................&#@..........Xo*1:::artgHgttgHHtgLUUUPPUUTR)`_`/RWWRRE//EWWTTTTTUPPPIIILKKKLLLLKHgggir1+X                                                                         ",
"                                                                                                         X%6e877ew0888866666<6<6669quyycccclvbMMmCSFFFDDFSSSSSCmmMMMMMMMxlccyyydcccclvMmmSSSSmGSFDDSAMMNNnxcydclllllllcdwqqqwyxMlqezSSmMw857777744666%.                  O$O%4%%$5-55qdvNMMMSDDDDDDFSCmmmmmMbbvbmSFDDBxq753$$%%@%...............XX.%@...........o*:1aaaarpHHgpgHHggHLUUUPUUTR)`__)ERWWRE///RWTTTTTPPPPPIKKKHHHKKKHHgggtir;o                                                                         ",
"                                                                                                        X&>ewwwwkww0909999866668889qqwuycclvbMMMmSSSSSFDFSSSGmmmMMMbbbbxlccdywwwycccclbmmmmSFSSSFDDFSmMMMMNxzddddccclcwwqq99qwxMvwecSFSnw855775$%$$%&.X                  X..$4%%$5$,5qcxxxbmSSSSSSSCmMMNNNxlzcccxMmSDDFMq8887$%@%..................@@...........oo*1raaartgHHggggHHHLUUUPPUWRE)``)/RWWWE/ER/WWTTTTPPPPPIKKKHHHHHHHHggggpir=o                                                                        ",
"                                                                                                       X&,8qsssznzdwwwywwqq099990qqqqqwydclvMmMMMmCCSSSFSSSSGmMMbbxxxxxlccccdyyydccdddlbMMMSFSSFFDDDSmmmMMMNxcwwqwydcwwqqq889wxMvwqcSDSzq75776#%%%%.XX                   ...$5%%$5$,5qddlxxMMmBSCBmMMbxxlccdddddclxMmSDSbqqqq73$%%&................@%...........oo*:aaaaattgHggppHHHLUUULLUTWR))`)/EWWW//RW//WWTWTTPPTPILKKKHHHHHHHHHHgggir=X                                                                       ",
"                                                                                                     X.%>80szxMMMMvxxxvlccjyywwyyyyuwwwydclvbbbbbMmmBSSSSSSSSmNxlllcczccdddddczcccyyddcxvMMmSSSSSFFDSGSSmMNxxcwq0qwwwwqqqq989qcNNyqjSDSce77652%%$%.X                     O..$$&%$5$58qwwcclxxbMmMMxlllccdywwwwwwwwczxMSSSbywwwe75#%................%&...........oo**:aaaarttgggptgHHKLLULLUTTTE))))/RRR/EWWWWWWTTTTPPTPPILPLLKKKLLLJHKHHggi1+X                                                                      ",
"                                                                                                   X.%,60szbMBSSSGBBmBBBMbvlcddcllcyyuydcllvvvvbbmBBBBBmmSSSmMvllccddywwwwwwwydyywwyccclxNNMmmGSSSSFFSSSmNxxxzjq080qqqqwwq980qjvMcqwmDSke8762$%$>%X                     XO..$%.@$,$50qqqddycclvbxlcdyyywwwwqqwqwwwwwcxMmSSSMxwwwq5$@...............%............ooo*::aaarrtpgggppHHJKLLLLPUUUR)))EEE//WQTTTTTTTTTTPPPPPPPUUPLLLLLLLLLLKHggi;o                                                                      ",
"                                                                                                  X.%48wzMmCSSSSSFSSSSSSBBBmbvvvvvcdyycllvvvlllvMmBmBmMMMmmMMMvxlzccdwwqqqqqqqqqwwwcxxlxMmMMMMmSSSGSFFFFSMxlxxlcw08880qqqq989qwxMzqwmFScqe74$$>>%.X                     XX.%,%O#$--5q080wwwyydllcdywwwqqqqqqqqqqqwwwwclMmSFDSMcjwwq5@..............%............Xo***:aaarrttpggppHHHJKLLLLUUUWE!EERE/WTTTTTTTTTTTTTTUPPPPUUPLLLLLLLLLLLKHggr;o                                                                     ",
"                                                                                                  XO%>0cMmSFFSSSSSSBmmBBBmMbvllvvxlccclxvvvxlllxvMmmmMxlxxxvvMbvxlllcywqqqqq989qqqwcxxlxMmmNnNmSFFAmFDFSSmNllxxxcq888889qq999eqxMxqwMFSzwe7$&$,%OX                      XX.%>%&##$$59988qqqwwwywwwwwqq0qqqqqq9qqqqqqqwylxMmSFFBxcwwq8-...........................o***:aaarrrttggptgHHHKLKHHLPUWREEERRRWWWWWWWTTTTWWTTTTTPPPUPPPPLLLLLLLLKKHggr=X                                                                    ",
"                                                                                                XXX+#6wzMGSFDFSSSSBmMMMbvlcdywdccccyyyclllzcddclxvbMMvlclxllxxxxxxlllcwqqqq8888eeqqwjyyjzvMnxxMmSFAmSDFSGGMxxxxvxw976688899888qzMxwwnSGzw85$$>%OX                       %..#%&&@##$58855880wwwwqqwwwq99999999999990qqqqwdlxMmSFSmdwwwq#..........................o***::aaaartpggptpHHHKKJggHLUTRREEEEEEE////RTTTTWWTTTWTTUPPPUUUPLLLLLLLLKHHgpr=X                                                                   ",
"                                                                                                XXO%<8wzMGSFFFFSSSCBMMvlcdywwwdccyywqwwwwwqqwwdclllllxxlllcdclclxvvxxldwqqq8778888qqwwwwjxMMMxxMGSmmSFFFSSmMxxxxxwq86555688558wxMMkwzGAzw5%$5%O.X                       $OO$%O%%##$58555,-8qqqq87qww0888988888888899990qwwdlxMBFFBxdddq,%........................o**:::araaarpgggtpHHHKKJHpgLUTWWR/EEE////ERRWWTTTWWWWWWTTUPPUUUULLLLLLLLLKHHgpr=X                                                                  ",
"                                                                                               X.X&%>,0wzmASFFFSSGmMNvlcdywwwydcdyyqqqqe989qqqwyccddcxMvxlzclcddcxxvxxlcwqq86788788qqwwwjzvMMNNMMmAASSFFFSSmMxzzcywq8865565,,8cMmMzwcmAzq4%$$..X                       X%.%$%&%#$$-555,,$#59qq9858qq086888886666668888890qwwclNmSFSMcywq5%.......................oo*=::aaaaartpgggpgHHKKLJgHLPUWWRE//////ERWRRRWTTWWWWWWWTTUPUUUUPLLLLLLLLKKKHgpr=X                                                                 ",
"                                                                                               X.%%,,,0wxmSFFFSSmmMMvlcyuwwwyyyywwwqqe877789qqqwydyydcvvxxcccccdcclxxxxlcwwq778877888qqwwwczxNMMMmSSSGSDDFSSmMxccywq9886555,5qxMSmzwhMMk8>%%O.XX                       X%.$$%%@#$$,55--,$#$89086569q08668888666666666688880qwwcxMSFSmlwwq5#%.....................Xoo*:::aaaarttgHgggHHJKLLJHLUUTWRE//))/EWTWR//ERWWWWRWWWTTTPPPUPPPLLLLLLLJJHHggir=X                                                                ",
"                                                                                              XX&%,<<<0dbCFDDFSGmMMvlldwwqwyddyywwwwq8755788889qqwwwydclxxcwwwyccyycllxxlcww878e888888qqwwwwxxxxxMmSSASDDDSSmMNxcwwqq887655550cMCmxwwzcw76$O.XX                        .%&>$&%$$$-575$$,-#$599875568988568866666666666666678eqwwcMBFFmlwqq8-%....................Xoo*::::arrrrtpHHggHHHJLULLUUUUUWR/))))ETTWREEEEWWWWRWWWWTTUPPPPPUUPLLLLJJHHHHggi1=X                                                               ",
"                                                                                             XO&$,68e0wvmSFDDFSSmMNxlzccdywyywwwyywwq85557888889qqqwwdddlxldwwcxlcyycclxxcwqe8qqe88e88qqwwqwzxxzznnMSASDDDFSSmMxcwqqqq87553558wxmMnhwkwe76%.XX                         OO%4$&@$$-,585$$6,#@-8888655689965666666666<6666666677eqqwyxmSSmlwq96$%....................oo*:::1arrtttpgHHHHHHJLUUUUUUPLIWE))))ETTWRRRRERWWRRWWTTWTTPPPPPUUPPLLLLLKKKHHggi1=X                                                              ",
"                                                                                            X%%,,680wddbCFDDDFSSBMMxxxbbbxlcdwwwyywq9877778888880qqwdcdyclldwwclzcdywwcxxzwwqqqqe88888qwwwqqwcchcxxNMmSFDDDSSAmvxwqqqq87535558qcMMMkqqe85$OXX                          O.$6$%$55-,585$-85$##588866655898,<666665<,,5<666556677899qwdxMmMc086,$&...................ooo*:11arrtttpgHHHHHHHLULUUULLgKWRE!)!EWWWRWWRRRWWWRWWTWWTTTPPPUUPPPPLLLLLKKHHHggi1=o                                                             ",
"                                                                                           X&#<<800wddbCFFFFFSSBmMMMMMmmMMbbxcdyyywqqeqq989qq999qqqwycdwyccdczlcwwwwwqwczzkwwwwq888888qwwccwwcchczzxMMmSD~DFSmMxxcwqqq87555555edMMMce78q>OXX                           %O$4$#565,,,55$585$$$$5556885,688,,<<66,,,,6<,65555666668999qwcxMlw655-#&..................ooo*=:1:aritttggHHHHHHHLLUULLLgHUWREE!ERWRWWWRRRWTTWRWWWTTTTTPUUUPPPPLLLLLJHHHHgggi1=o                                                            ",
"                                                                                          X&#<88000wdlbCSSSSCBBBmMMMMmmmMMMMMbxcywwwwwwwwqqqqq00qqqqqwwwwyycxvvlywwwwqqwsccwwwwq888qqqqwcxxcwccccjhhzMmGFDDFSMnxNxhqqqe87555558wnmMz8580$.X                           X%%$$%$675,,-5,-885$$$$-556865-,886,,56<5,-,,,,5555<65666688889qwcxc06,-$@..................Xooo*::::arttttpggHHHHHJLUULLJgHUWWWREERWRRWWWRRWTTWWRRWTTTTTTTTUPPPPLLLLKJHHHHggggir;+X                                                          ",
"                                                                                         X&,,<800qqwdcbBBBmmmMmmMxxxbMMMMbvbMMvlcddddclxldwqqqq0qqwqq99qwwqwcxxldwqqqq00qydywwwwqq0qqwwwcxxxccwcccwwhxMGSDDFSMxxNxcwwwqq8755357wMmmx7$86&XX                           X&%2$%$555,,,5,5885$$$$$,55665,-,8885,,,,,,,,<65,<,<,5566666668990dcy9,$##%.................Xoooo*::::aittrtgggHHHHHLULLLHgHLUUWWRERRRRRWWRRWWWWRRRWWTTTTTTTUPPPPLLLLLLKKHHHggggir1+X                                                         ",
"                                                                                         &,,,88800qudcvbbbbMMMMMMxcclbMbvxcllxlcdcccclxxxcwqq00999qq998qwqqqwclxcqqqqqqqqwwyydywwwwwwwwwwzxnxcwwcwwwhcnMSD~DSmMNnxlzccwqq875$-7wnmmx8$6>.X                            X.%4%%$255,,555,8q5$-$$$-,,5,55,,5885,-,,,,,-,,5,<<,,,55,,<66666880wyq,$@@%.................Xooooo***:aritrtpgggHHHHJLLLLHgHLLUUWRRRRRRRRRRRWWWWRRRWWTTTTTTUUPPPPLLLLLLLLLKHHggggfi1+X                                                        ",
"                                                                                        .>6,<6eeqquyyccvvvxxvvbMbxlllxxccccclxlcddllxxxlcwwwqqq099999889q9qqqqwcyq0qqqqqqqwydccdskwwcwwwwclnxzwccwwhhjcnmFDDSmMMNxxxxzcwwq85-$5wxmmM8$4$.X                            &.$4%%%255--675,80555-$$--,5,,566,,685,,,,,,--,,,,,,,,---,,,,,566689qq8,#@%&.................ooooo**:::artttpgggHHHHHJLLLJHHJLLUTWRRREERRRRWWWWRRRRWWTTTPPPUUUPPPILLLLLLLLLJHgggggfi1=X                                                       ",
"                                                                                       X%>,,,ewwquuyyyycccllcclxlllccccyyyydlxxcclxxlvxlywycdwwqq999988878qwwqqqqqqwqqqqqqqwwcllzzccccwwczzxxcwwwwwwwwwcMFDDSAmmMNxxxxcywqe6-$5qzMmMq#$%XX                           X%O$4%%2555,-885578577--,$-,,,5588,-,886,,,,66--,,----,--,,,,,,,,,6889096-%&&&.................oooo***:::atpttpgggHHHHHLULLHJLLLUUTWREEEERRWRWWWRRWRRRWTTPPPTTTUUUPLLLLLLLLLLHHgggggfir=oX                                                     ",
"                                                                                      X%%&>6esd0quuwwwyydclcywyyyccdyyyyyyyyydccclxllxlcwwdllcywqqqq099880qwwqqqqqwwwqwqqwwwwdllxxxzccjcczzxxcwqwwwwwqwhnSDDSSAAmMxxnxljwq87-$28cMmMq$$OX                             O.$5%%267752575577587$,,$#$,,556655-,886--,686----,----,5,,--,--,<668996,@&&&.................Xoo*o**:::arttttgggHHHHHJLUULLLLLLUUWRRE!!ERRRWWWRRWR/EEWWPPPTTTUUUUPLLLLLLLLLLHHgggggfir;oX                                                    ",
"                                                                                     XO%%%6wssq00q00qwydddyywwwwwclcyywwwwwwwwwdlxvxlzcwwwycczcywwwwq0900qqqqqqwqqwwwwwwwwwwqwczxMMxzczzzzzxxkqqqqqqqqqwxADDFSSSmMNNNNxjwq975$$7wMmMq$%.X                             X.>6$$257e5255$7e7787$,,$@#$,,,55685-5896,-,865----,,--,-,,--,---,,668865$%&..................Xooooo**:::arpttpgHHHHHHHJLUUUULLLPUTWR!!))ERRWRRRRRR//ERWTPPPTTUUTTUPLLLLLLLLLJHHgggggiir;+XX                                                  ",
"                                                                                    XXO%>ewwsw0999900qwyyywwwwwwwcdyywqqqqqqq0wdlbbxljwwwdyydccdyyywq980qqqq0qwwqqwwwwcwwwwwwwdczNMMxllllzzxzwqqqqqeqqqwcMDDFSSSmMNNNNxjwqq85$$5wMmMq%OX                             XO%55%%557e7555$8q77q8$-5$@%#-,,,5686,-5985,,5665---,,-,-,,-,,,---,,,5666,-#%&.................ooooo***:::arpptpgHHHJJHHHHLUUULLLLUUTWR!)))ERRRRRRRREEEERWTPPPUUUTTUUPLLLLLLLLLJHHgggggfir1+oX                                                 ",
"                                                                                  XOO&&>6wdww0099990qqqwwwwqqqqqyywwqqqqqqqq90qydcccywwwycdyddccyywwq09qqqqqqqwwqqwwwwcdywwdzzcscxNxxxxxxlzzjwwwqqqqqqqwhnFDDFSSAMNxxNljwwq855$6wNMxq#OX                             X&$64%%55587555$8w87q7$$-$@%%$,5555665,,68665-56665,,,<555,,-----,,,,,,,,,,$@%.................ooooo***::::atpttpgHHJJHHHHJLUUULUUUUUWRR!)))ERRRRRRRRREEERWTPPPUTTTUUUPLLLLLUULLJHggggggiir;=oX                                                ",
"                                                                                XO%,>%%>500ww09988900qqqqqqqqqqqyyq0qqq00qq988qwyywwwwcccccwwyyyyyywqqqwwwqqqqqqqqqqqqwyyyycxxcwcxxxxxxvvxxcwwhwqq88qqqqwzSDDFSSAMnxxnxcchwq75-6wxMxw5OX                             XO$4$%$55577775$8w57q8$$-$@%&$-,55,5555,,,566,-,66666,--,,,-,,,,,,,,-,,,,,,-#@.................Xooooo**::::aipgttpgHHJHHHHHJLUUUUUUUUTWR!!)))RRRRRRRWWREEERWTPIPTTTTUUUPLLKLLULLLJHggggfiiir;=o                                                ",
"                                                                              XO%%>,>>>$>,0wq008889900qqqq999q00qwqqwwq9999888eqqqqwwwczzzcywwwycjywwwwjjwwqqwqqqqwwwwwycccczzzccxnxxxxMMmMxchchwqe888eeqhmFDDSSGmnxxxxxxcjw85-5qcxcwe%                              XO42$%$555577e5$8q5705##$$#%%#$,,5,,,,55,-,686,-,6666,,----,-------,,,,,,,,-$#&.................Xoooo*=::::arpgprrpgHHJHHHHJJLUUUUUUUUWR!))))ERRRRRRWWWEEEEEWTIIPTTTUUUPPLKKLLLLLLHggggfiiir1;+X                                               ",
"                                                                             X%>,,>>655>>600088778999e0q099999999qqwyyq9999e9eqqqqqwyyyyjccywwwwycjjjcxxzwwwwwwq8eqwwwwywwdddzxxxMMMMvxxMmSMxcccjwq88888ewnSDDSGSmMNNvNNxchw95-59wcwqeO                              X%42$%$555557q5$7q57q5##$$$$$$#-,5,,-,,55,-,686,--,66,-------------,,,,,,,,--$@&................ooooo*=**::aartttrtpHHJHJHHHHLUUUUULLUUWR!))))//EEERWWWREEEERWTIIUTTUTUUPLKKLLLLLLJHggggiiiir1;+X                                              ",
"                                                                           X.%>,,665555>,8qe8878789999999888999899qwywqqqqqqqqeqqqwwwjcywwywwwwqwylxvNMMxwwwwwwwe88qqwcwwqwwwczxMMMMMMxxbmSmMzczchwq77888wxAFDSSSmMMNNMNzhww95-,7qwqqeO                              .$62$$255555785$7868q5#$$$$,5$%#,65,-$,,,5,--5865$$,66,--------------,,--,,,--$$##@&...........Xoooooo=***::aartttrtgHJHHJJHHJUUUUULLLUWWR!)))))/EEERWREEEEEERWTIPTTTUUUPPLLLLLLLLLHggggiiiiir1=+X                                             ",
"                                                                          .&%%%>,,,,>>>>,6875588889889888889qq9868qclyqqqqqq98888qqwwcccjwwwwwwwwjlNNMMMxccczccwqeqqqwzcwqwwwkczxMMMMMMMmmSSmnzzzchq88e88qcMFDSSSmMMNNMNcwwwe5--5908e6.                              &562$$2555537755e8780-#$$#$88-%@,66,$$$-,565$$566,$-566,------------------------$$##&&.....X...Xoo*ooo*:**::aartptrtgHHHJHHHHJLUUUUULLUUTWRR/))))/EERWRE/)///ERWTPPTTUUUUPPLLLKLLLLLHgggiiriir1;=+X                                            ",
"                                                                        XO%%%>>>>>>>>$4565,$,588889888665679qq9868qydwqqqqqqq887888qwjwwwwwwywwwwcxnNNxlzzzlzcwwqqwqqwwqqwwwwczxMMMMmmMMmmmSSMnzcccwqeee78wMSDFSSAMMnNMNcwhwq72359086%X                             X%642$225554555$7q75q8-#$#%$8e5#@-68,$$--,5685#@;,6,--,66,--------------------$$#$$$$@&.....XoXXoooo*oo**:**:aaartgtttHHHJHHHHHLUUUUULUUUUTWRE/))))//ERRE//)))//RWTTTTTTTTUUUPPLLLLLLKggggiiiirr1;=+XX                                          ",
"                                                                      XO&%>>666,>%%$$$$78,,,5888899886665688ee88889qqqqqwwqqq98888eqwywwwwwwwwwwcxnnxxzzxxxxxcwwwsckwqqeqwcwwcxMMmMmmMbbMMmSGMnzczzccwqe77wnSDFSSSMMMMMxxcjwq5225qqe6%X                             X$64$%$5555$575#7w76q7-##@%#qw7$#$895---,,,,685@&$66<--,5,---;-------;---------$@&@###%....Xoooooooo*****::*:aaaatggttgHHHJJJHHJUUUUUUUUUUTWWE/)````))EEER//))))/ERTTTTTTTTTUTUUPLLLLKKVgggffirr11<=oXX                                         ",
"                                                                     .%>%>e0w08,>%#%%%%55,55688778886886677888888889qqqqwqqqqqqqqqqqqwwwwwwcjwqwzNNxzzzxxMMnxcckcczcwwqqqwzjwcxMmmBGmMvxbMmmmMxzznzznzqeeewnSDDFFSmMMMMNxxjwq7455qe8,.X                            X&4442$35555$57$#5q57q5#@#@&%9ce5$$696,,,,,,-,56-@@$686-------;;;;;;;;---------$#&..&%@&....XXoooooooo****::::arrarpggtgHHHJLLJHHLUUUUUUUUUWWWR/)`_____`)//////))))/EWTTTTTTTTTTTUUUPPIIKKggggffii011;+oX                                        ",
"                                                                    X%,6>8wss06,%%%#%%%#-,68766556666688887766689999qqqqqqqqqqwwwqq8eqqqwwjzchwjlNNxccxxbMMxxzccczzcwwwqqqwczxxMMMGSSmbxxMmmMnxzxMzznxwwwqwnSFFFFSmMMMMMNxcwq7555755$.X                           XO$4$24$55556$57$$5q57q5##$$&.8zq53$598555,,--$$,5,#%@-5,----$#;;$-;#$$$;;;;----$#%............XXXooooo*****::::rrrrtggpggHHJLLJHHJLUUUUUWTTWWWRE)_________)////))/))//RWWTTTTTTTTTUUUUPPIKKKVgggffiir1<=+oX                                      ",
"                                                                  X&%,68eszcd0,%&&%>,$%$,688865555555566888776889999qqqqqqqqwwywwwqqeqqqqwwwjjcxMmmxcznMMMxxlzzccczzcwwwqqwcxMMMxxmSSBMMxnmAMnxznMzznxcwwwwMSSFFSSMMMMMMnxcjw8555$%#%.X                          XXO$$$2$275775577$$5757q5#$565$8we555588665,--$$$-,,$#%%#-,,-$$####;;######$------$#@&.............oooooo****::::arrrrtggggHHJLLLHHJLLUUUUWWWWWRRE)`________`////)))__)///RRWWWWTTTPPPTTUPPPIIIKVVggffirii9<@&X                                    ",
"                                                                  &>,660wczcd0<>%%#,5,$,5666555566555555888888899990qwydwqqqwhjjhwwqeeeeqqqqwjznMNnzcxxxxxxllllzcccccswwwwcczxMMxnmSSSSMnnMmMnnMMnzznnzjwwhnGSSFSSMMMMMMxxzyw855$%&$&X                           OX%4$$$%275885585456657q5#$7qqqqwq8888886655--#$$$$---$@%@@$--$$$$;--;$$$---,,,5,565,$&............Xooooo*****::::arrrigggggHHJLLLLJHLUUUUWWWWWRE)))________`))))))_____)////RRRRWWWTTTTPPPPPPPIKKKVggggfffi0<;+X                                  ",
"                                                                 O,86860wwq008<<<<885,,,555,--55686555,56888989q980qwdlldqqqwwyhwwwqeqeeee8ewwcxxzccxMMxxxxxllxxxzczccczxxzccczxMmmSSSSmMnMMMMMmMnzznnxcwwjxmSSFSSMMMMMMxxzywe5-@.%$.X                          XOO$42%$%5758757q745765885#58wqqwyyqqqq965555,-;##-#---,$#%&%#--;----5555666888888886,$%o............ooooo**=**::::arrrrpggggHHJJJLLJHHLUUUWWWWWRE!))____________________)////RRRRRWWTTTTPPPPPPPPIIIKIKKKZVVgffi1;oX                                ",
"                                                                .,ee8888e85>>,<<9008,$,5565-$-,555555555678ee990980qwdcdwwwqqwwwwwqeeqqqee88qwcxMxzxmAmMMMbxxxxxxxxxzzxMMnxzzxxxmSmMmSSSmMnnMMmmMnxznMMzhczzMSSSSGMMMMmmMxzjw85$%.O%.X                          .O%22$%%%578e557853685588$$8wwq9wcyqqqq06,555,-##$#$;-----$@%%%@@###$$--,,<,55,-$$$$#%%&&............ooo****=*o*::::arrrigggggHHJJLULHHHLUUTWWWTWWE!)`____________________))//RWRRRWTTTTTPPIIIIPIKIKIKKKIIPIKVgggi1=oX                              ",
"                                                               X%00866666>>>,,6e0wwq855555$$$$,,55555555588qqe89990qqqwyccjwwwhwwwqeqqqqee88qwhzzccxMMMMMMxxxxxxMMMxxxMMMxzlxnnMSSmMMASSmMnMmASmMnxznMMzkczzMSSSSSmMMMmSmvlcw85#&.%.X                          X.%>42$%%#777e55785$5855e7$5wwq77qwwq89q96--,5,-##$$$$$-$----$#%&&&&&&&&&&%%%%%%%%%%@###;$$#@@&&o....oooo********::a::arrrtgHgggHHHJLLHgHJLUUWWWUUWWE!)____________________////RRRRRWTTTTTPIIKIIIKKVVVVVKKIIIKKKggggi1+X                             ",
"                                                              X%eww74454>,,680qwwccyw0855,$#$--,,,,,558889q009890qqqqwwyclcjjhhhwwqeqqqee88qwwwwwczNMMnMMmMMMxxxMMmMmSmmMxxxxMmSSmMMMmSSmnnMAGGAMnnznmMzczxxMSSSSSmMMmSSGMldq85@..%.X                         .O.$44$$%%$e7885675$$5855q7$ecq758qqq8788e7-#$--$$$$$###$--$--$$$@###@@%@@@%@@##$$-$$-,5565666,-;+ooooooooo********:a:::arrtgHggpgHHHLLHgHHLUUTWWUUUWR!)____________________////RRRRRWWTTTTPKKKIIIKgggggggVKKKKKKKKHggi1=XX                           ",
"                                                              O6qwe4>>>,,8wwdddudcccdw985,$$$-,,----,69qq99999880qqwwwwyclxlzzchwwwqqqqe888qwwwqwcxMMxxMMSSmMxxxMMmmSFSmMMMxxMSDSmMMMMmSMnxMAAAAmMnnMAmnxnnnMSSSSSmMmSSSSMxdq85@.&$.X                        X%.O>52$$#%5e7875575$$5854q75ww8558986555788-#@$$$$$$#$#$--$$$-$$$$-;;;-------,,,,55,555556566666,@oooo=ooooo******::::::aiiitgHgpgHHJJLHHHHJUUUTWWUUWWR!`___________________)))///ERRRRWTTTPKKKKIKKgggggggggggKKKKKHHggfr=oX                          ",
"                                                             .>qwe64>468qdlvvluqqwwydwq86,$$-$------580qq99988880qqwwjccxxxxzccjhhwwqqe8888qwwqwhcxxxzznMmSmMxzxMmGFDFSmmMMxxMSDSmmMMnnmMxznmSGAmMnnAFSAAmMMmSSSSSmMmSSSmMxcq95%.%%.X                        X%.&$$222$$qq7855585$477$5q7qzw6557755555555,##$$$$$####-$$$$-----;-$$-----,,,,,555555555665668886;+oo+==*ooo*****:::::::artttggggpgHHJLJHHHJLUUTWWWWWWRR!```_______________`___`/////RRRTTTTIKKKKKKggggggpppggggHKKKHHggfi;oX                         ",
"                                                            .%8ww8666ewdvvvvld089990q09865,$$$-----,,580099988889qqwwycxxxxxxzccjhwwqqe8778qqwwwzxxxzznmSSSSmMxnMMSDDSSSSSmMMSDDDSSSmxnMMnzznmmAAMMMAFFFFSAmSSGSSSmmmmBmmmvcwq5%.%OXX                       X.%.%$$222$5we7855785$,87$6q7qxq5578753333--,--$###$-####$$$$$$-$$$-;-------,,,,,,,,,555556688990q08;+o=;;==oo*****:::::a:aritttpHHgggHJLKJJJJLUUUUWWWWWWWE)`)`____`______________)////ERRWTTTTIKKKKKVgggggggggggggHKKKHHggfr;+X                        ",
"                                                          XX>ewssscxNNbxxlcdy088886555566875-$$--,,,,,68999988889qqqwwcxxxxxxzcjwwwwwqq8888eqqqhnMnxzxMSFSSmmMMMMMmSFSBmmSSAGSY^DFFFBvnnNnzznMMmAmMMMAFDDSASSSmmCSmMMmmmmmvcq05..%.XX                      X.O>&%,$2222eq75875872$5e7$7q88w8-37e6533--$$$$--#@##;$#%#$$$$$$$$$;$$$---------,,-,,,5666688889qqwuq9;+=;;;=oo***o*:::::aaaaittrtpHHggHJLLJKKJLUUUTWWWWWUWR!!))`___``______________)////ERWTTTTTIIKKKVVggKKKKKKHggggHHKKHHggir;+X                       ",
"                                                         XO%8sdlbmSDFmNzlcyq086665,$$-555898,$$---,-,,5888999889qqwycycxxxxxcjwwqqqwwwqeqq8888qwzzxzznMmSAMMMnxxxMMSSSmMmGSFFFD^DDDDSMMNnxnnnMMmAmMMMAF~DmAFFSmMmSmMMMmmmmxwq8#..&.X                       X.&,&%,$22$5e7$7e7577$$7e5-8q88q7$$785$$$$$$$$$-,,#%##-#@%#$$$$$$$#;$$$$$#$-$$$-------,555555568899009-+=;;;=ooo*****:::::aaaaittrrgHgggHJLJKLHJLUUUUWWWWWWWE!))``___`_____________`)/////RRRWWTTTPIKKKVgKKKIKKKKHgppgHKHHHHHprr;+XX                     ",
"                                                       XO>,8wccdwcmFSbllxldq8655,$#@#---,588655,-----,6889999880qwyccwjzzzxxcjwwqqwwwwqqwqq99eqhccznmSAMmmmMMMzzxxMmSSSmmGSSFFFDDDDDFGMnxxnnnMMmAmMMMSD~DSSSFAMMmSAmMMmmmmxhq3&.&.XX                       X.&,%%$242$88#$qq5575#$782$qw6885$$55$$$$$$$$$$--,$%%##$###$$$$-$$$$$$$$##$#$$$---$------5,,,----,,<66;@++====oo*****:::::araarttrrpHHgggHHJKLJJLLUUUWWWWWUWRE!))``_____```__________)////EREEWTTTPPIIKKVKKPPIKKKKHgggHHHHHJJggir1=oX                    ",
"                                                    XX&%80sddwe66qxmmMMMvxcq855,$#@@#$$$$,888885------5888888880qwccjwjczxxxxzjwwwqwwqwwcwwqqwwccznmSSSmmAmMmMxxxxMMmmmASSSSSFDDDDFDFSmnxzxxxnMmmMMMAFDFFDFSSmMMmSSmMMmmmMxh8%.&&.X                        X.&,&%$4422e5%6we5775#$77$$qq5875##55$$$$$#####$$-$@%%#$$$##$$$$$$$#$$$$#$$$$$$#$$$$$------$$$$$$$;---;+oo====o*****:::::::raaarttrtgHHgpgHHJLKJJLLUUWWWWWUWREE!))```___```__________))////EEERRWTTTTIKKKKKPPIKKKKKHggHHHHHLLLHgir1;+XX                  ",
"                                                  X.%,8qdNld0<,>6wzMmCSSBMcq855,$$$$$$###$5688875,----,6888878qwwjccwyjczxxxxxcwwwqqwwwccwwqwwhkcxMAAmmmAmMMMMxxxxNMMMmSSSSSSFDDDDFFSSmxzznnxnMMMMMMSFFSAFFSGmMMmAGmMmmmmmnw8@.%.XX                        XXO%&+%4227e2#qw7577>#$75$5qq$552##$$$$$$$#######-$$%%%#$$$$$$$$$####$$$$$##$$##$$$$$$----$-$$--$$;--;=+o+=====**o*::::::::rraaarttrtHHHppgHJJJHJJLLUUWWWWUWRRR!!)````__````_________`)////////ERWTTTPIKKKLPPIKKKKKKHHKKKJJJLLJgtiir;+oX                 ",
"                                                 X&%6wdNblw<>#$,0dzxbBFFBMcq8888866555$#@@%36888875-#$,688888qwwjjwhjjjcczxnxzhwwwqwwwwwwwwwwwhcnMmmmmAFFSAmMMMMMMMMMmSSSSSFFDDDDDFSSmMzzzxnnnMMMMMASFFAMSFSmmMmmmmmMmAmAmxw7$%%.X                          X.%#%%$$4q8%$w85575$#575$5q7#57$##$$$$$$########$$-$%%%#$$#$#$#######$$$########$$$$$--$$$$$$;$#;;;;;@++oo+o==*oo***:::::::rraarttrtpHHgpgHJJJHHJLLUUWWWWUWWRRR!!)```__`````_________``)///////EWTTTTIKgKKPPPLKKKKHHKKLLLJJJLJHggir1<=oX                ",
"                                                X%>%<sllde>%%%,0wclvMBmMlyqq099999865553$@%-5888998,##-67880qwwjjhwjcjjccxxxzcwwwwwwwwwwwwwwwhznMmmmASFFDFSmMMmmmmmmmSSSSSFDDDDDDSSSAMxzzxnnnMMMMMASSFSAmSFSmMMmmmmmMmAmmMzq4%%%.X                          X.%6##&%eh7%8w6$565$#55$$5q5#57#%#$$$$$########@#$$-$%&%#$$#$#######$$$#@@@@@#$---$$$$$$;;;;;;;;#;-;#+++++ooo==ooo***::::::araaarptrtgHHgpHHJJJHHJLLUTWWWUUWRRRR!)``````)))`_________``))//////EEWTTTPKVKKPPPILLKKKHKKLUULJJJHHHHgfr1;=+XX              ",
"                      XXXX XXXXXOOOOOOXXXXXXXXXX%>>>60w08,,,,6wcllxvvbcywqqqqq09887655575$$568888765,,55880qwwwwhhjjhhcczxxxcjwwwwwwwwwwwwwwwcnMMMmASFFFFSGmMMMmmmMmGSSSSSFDDDDDFSSSmnzzzxnnMMMMMmSSFFSSGSSAmmmmmmmmmmGmMnh8$$%OXX                          X.%6<%O$kh24wq4$575$$55$#7q3#55###$$$$$###########$$$@&%%###########$##@@%@$-55,-$$$-$-#---------;-;;@@+ooooo==ooo****::::::araartttrtgHHggHHJLJHJLLUUWWWUUWWRWR!!)`````))))`_________``)///////EWTTTTIKKKPPPPPPKKKHKKLLUULJHHHggggir1;;+oX             ",
"             XXXXOOOOO&&&OOOO&%>>6,,,>>>>>>%%%%>6888e00880wssdxbvvvvcywqqqqqqq988787776776668887688999888qqwwwhwhhhhhcczxxxzchwwwhwwjchwwwwwkznMMmASSFFFSAGSAmmmmMmmSSSSSFDDDDDFSSSmMxzxxnnMMMMMmASSFFSSSGmMmmmmmmmmAAAmMzw5#%%.X                           X.%6>$&7xw4ew735555$555#$77$$53####$$$#########@#$$$$#@%%%####@####@##@##$$-,,,-$$$;---------------;;;=+ooooo==*oo*****:::::arraartttrtgHHHHHJLLHHLLUUWWWWUUWRWWR!!)```))))))``________`))/E/////RWTTTIKKKKPUUUPLKKHKKKLPUULJHHHgggirr1;;=+X            ",
"   XXXXXXXXOO&%%%%%%>>55>>>>,668e00ee86666888800wssswwwddcczNMbbvlcyywwwwwwwq98888888887788887889qqqqq00qqwwwwwhhhhhcczzxxzcchwwhhcccccckwwhcxMMMASSFFFSSSSSSmmMMmmBSSSSFDDDDDDFSSSMnxxxnnnMMMmmmASFFSSSSAMmmmmmmAAGSAmMnhe5$%&X                             XO>>$$wc8ewq5555555552$575#25$###$$$######$$##@#$$$$###%%%###@####@@#$-,,,--------------------------;=@+oooo+==*o*****:::::aarraarttttpHHHHHHKLJHJLLUUWWWUUWWWWWR!!```)))))))``________`)///////ERWTTIKKKKIUUUPLKKHHKKKLPULLJHHggggir11;;=+XX          ",
"XXO%%%%%%%%%>>>>5666eeeeeeee0qwsssw000000000wsddddddlNNbbbbbMMbvcyywyydcdywq998889999888888889qqwwwqq0qqqwwwwwhhhhhccczxxxzcjhjccccczzzchwwkznMmmSSSFSSSSSSSmmMMMMmASSSSFDDDDDFSSSmMxxnnnMMMMMAAASSFSSSSGmmmmmmmAAGSGmmMzw72$$.X                             XO$>$7hweq95556555555$565$$55$###$$#######$$#@###$$$$###@%%%####@@#$-55,----------------------,,---;;;@+oooo++=********:::::arraartttttgHHHHHJLLHHKLUUWWWUUTWWWWWR!)``)))))))``________`))//////ERWWTPIKKKIUUUUIKKHHKKKLPUULLHHHgggiir11;;=+XX         ",
"%%>>>>>>>,>6668eqeqwwwwsswwwsdccdswwwwwwwssddcllllNNbbMMmMbbvlcdyyydcccdywq099999qqqq9988899qqwwwwqqqqqqqwwwwwhwhhccczzxxxzcccccczzzzzzcwwhcxnMmGSSFSSSSSSSmmMMMMMMmmSSFDDDDDDFSSmMxnnnMMMMMMmAAGSFSSSSGAmmmmmmAAGSGmmMxkq7$%&X                              XO$>6wwqqq855555554255555$$5$####$$#####$$$$#####$$$$$$###@@###@@#-555-----------------------,<,,---;;@+oooo++==*o*****::::::arrartttttpgHHHHHKLJHJLUUTWWUUUWWWWWR!)``))))))))``________`)//EE///RWWTPIKKKKPUUUIKKHggKKKLPUULKHHggggiir11;;=+oX        ",
"66666666668eewssksssccccssddzzzzdssssddczzllllNNNNbbMMmmbbvccccdddclccdywwqq990qqqqqq99890qqwwwwwqqqqqqqwwwwwwwhhjccczxxxxzzzzcczxxxxzchwwkzxMmASSSSSSSSSAmMMMMMxxMMmSSFDDDDDDSSmMnnnnnMMMMMmAGSSSSSSSGmmmmmmmmAGSSGmmMxw85$%.X                              X%44ewqqq75565555455555522$5$####$######$$$$######$$$$$$######@#$,555--------,------------,,,<<<<<---;;+++oo+++=*o******:::::aaarrrtttttgHHHHHJLLHHJLUUWWTUUTWWWWW!)))))))))))``________`))//EE//RRWTPIIKKKPUUUPLKHggKKKLPUUULJHHgggpiir1;;;;+oX       ",
"q0q000eeeeqwsczzzczzNNNxzzzzNNNzzzzzzzzzNlNNNNNNbbMmmmmbvllcllllllxccdywwqqqqqqqqwwqqqqqqqwwywwwwwqqqqwwwwwwwwhwjccczxxxxxxxxxzzxxxxxzchhccxMMASSSSSSSSSmmMMMMMxxxnMmSSFDDDDDFSmMnnnnnMMMMMMAASSSSSSSSAmmmmmmmGSSSSSAMNcq75$%X                               .8wwkwqqq88776555465665555552$$$$$$$$$$$-53$#####$$$$$$$######$-555688885,,,,,,----------,,<6666666,-;;;;=@@++===*o******:::::arrrrtppppgHHHHHJKLJHJLUUTTWUUTWWWWWR))````))))))``_______``)///E//RRWTPIIKKIITTTUIKKgggKKLIPUUULKHHggggiir11;;;+X       "
};
