/* XPM */
static char *shoot0[] = {
/* columns rows colors chars-per-pixel */
"500 456 92 1 ",
"  c black",
". c #0C0B0B",
"X c #080805",
"o c #140C0A",
"O c #16130D",
"+ c #171719",
"@ c #191817",
"# c #0E110E",
"$ c #240902",
"% c #290C04",
"& c #320C04",
"* c #381408",
"= c #231B18",
"- c #2D1610",
"; c #1D221B",
": c #26221D",
"> c #362614",
", c #1C1E21",
"< c #282726",
"1 c #322D2A",
"2 c #383737",
"3 c #32312F",
"4 c #1F2121",
"5 c #471406",
"6 c #561906",
"7 c #571907",
"8 c #481C12",
"9 c #611E08",
"0 c #522912",
"q c #66260C",
"w c #6B350E",
"e c #723A12",
"r c #693215",
"t c #423D3A",
"y c #513627",
"u c #6C3B24",
"i c #3D413B",
"p c #744813",
"a c #714D14",
"s c #45413D",
"d c #574532",
"f c #744A2F",
"g c #776130",
"h c #3E3E41",
"j c #413F41",
"k c #484746",
"l c #585756",
"z c #524F4D",
"x c #665C55",
"c c #6B6357",
"v c #676666",
"b c #757373",
"n c #5F5F61",
"m c #3E4142",
"M c #AA320F",
"N c #8E351C",
"B c #B24512",
"V c #B55516",
"C c #8C5334",
"Z c #A55F2F",
"A c #CA4513",
"S c #CE5315",
"D c #D9591B",
"F c #D5661A",
"G c #E26C1E",
"H c #E57B23",
"J c #E26B21",
"K c #D2712B",
"L c #8E5C48",
"P c #976850",
"I c #AA6F50",
"U c #A67B67",
"Y c #947365",
"T c #D17444",
"R c #C23B0F",
"E c #EA8923",
"W c #EE9A27",
"Q c #F2AE2B",
"! c #D4922B",
"~ c #F5C12F",
"^ c #B28A74",
"/ c #9D8367",
"( c #E7AA5C",
") c #F5CE5B",
"_ c #B6862D",
"` c #B79786",
"' c #918E8C",
"] c #CCA993",
"[ c #C39C86",
"{ c #F4D989",
"} c #D7D0CB",
"| c #7F7E80",
/* pixels */
"                                                                                                                                                                                                                                                                                                                                                                                                                                                                                                                    ",
"                                                                                                                                                                                                                                                                                                                                                                                                                                                                                                                    ",
"                                                                                                                                                                                                                                                                                                                                                                                                                                                                                                                    ",
"                                                                                                                                                                                                                                                                                                                                                                                                                                                                                                                    ",
"                                                                                                                                                                                                                                                                                                                                                                                                                                                                                                                    ",
"                                                                                                                                                                                                                                                                                                                                                                                                                                                                                                                    ",
"                                                                                                                                                                                                                                                                                                                                                                                                                                                                                                                    ",
"                                                                                                                                                                                                                                                                                                                                                                                                                                                                                                                    ",
"                                                                                                                                                                                                                                                                                                                                                                                                                                                                                                                    ",
"                                                                                                                                                                                                                                                                                                                                                                                                                                                                                                                    ",
"                                                                                                                                                                                                                                                                                                                                                                                                                                                                                                                    ",
"                                                                                                                                                                                                                                                                                                                                                                                                                                                                                                                    ",
"                                                                                                                                                                                                                                                                                                                                                                                                                                                                                                                    ",
"                                                                                                                                                                                                                                                                                                                                                                                                                                                                                                                    ",
"                                                                                                                                                                                                                                                                                                                                                                                                                                                                                                                    ",
"                                                                                                                                                                                                                                                                                                                                                                                                                                                                                                                    ",
"                                                                                                                                                                                                                                                                                                                                                                                                                                                                                                                    ",
"                                                                                                                                                                                                                                                                                                                                                                                                                                                                                                                    ",
"                                                                                                                                                                                                                                                                                                                                                                                                                                                                                                                    ",
"                                                                                                                                                                                                                                                                                                                                                                                                                                                                                                                    ",
"                                                                                                                                                                                                                                                                                                                                                                                                                                                                                                                    ",
"                                                                                                                                                                                                                                                                                                                                                                                                                                                                                                                    ",
"                                                                                                                                                                                                                                                                                                                                                                                                                                                                                                                    ",
"                                                                                                                                                                                                                                                                                                                                                                                                                                                                                                                    ",
"                                                                                                                                                                                                                                                                                                                                                                                                                                                                                                                    ",
"                                                                                                                                                                                                                                                                                                                                                                                                                                                                                                                    ",
"                                                                                                                                                                                                                                                                                                                                                                                                                                                                                                                    ",
"                                                                                                                                                                                                                                                                                                                                                                                                                                                                                                                    ",
"                                                                                                                                                                                                                                                                                                                                                                                                                                                                                                                    ",
"                                                                                                                                                                                                                                                                                                                                                                                                                                                                                                                    ",
"                                                                                                                                                                                                                                                                                                                                                                                                                                                                                                                    ",
"                                                                                                                                                                                                                                                                                                                                                                                                                                                                                                                    ",
"                                                                                                                                                                                                                                                                                                                                                                                                                                                                                                                    ",
"                                                                                                                                                                                                                                                                                                                                                                                                                                                                                                                    ",
"                                                                                                                                                                                                                                                                                                                                                                                                                                                                                                                    ",
"                                                                                                                                                                                                                                                                                                                                                                                                                                                                                                                    ",
"                                                                                                                                                                                                                                                                                                                                                                                                                                                                                                                    ",
"                                                                                                                                                                                                                                                                                                                                                                                                                                                                                                                    ",
"                                                                                                                                                                                                                                                                                                                                                                                                                                                                                                                    ",
"                                                                                                                                                                                                                                                                                                                                                                                                                                                                                                                    ",
"                                                                                                                                                                                                                                                                                                                                                                                                                                                                                                                    ",
"                                                                                                                                                                                                                                                                                                                                                                                                                                                                                                                    ",
"                                                                                                                                                                                                                                                                                                                                                                                                                                                                                                                    ",
"                                                                                                                                                                                                                                                                                                                                                                                                                                                                                                                    ",
"                                                                                                                                                                                                                                                                                                                                                                                                                                                                                                                    ",
"                                                                                                                                                                                                                                                                                                                                                                                                                                                                                                                    ",
"                                                                                                                                                                                                                                                                                                                                                                                                                                                                                                                    ",
"                                                                                                                                                                                                                                                                                                                                                                                                                                                                                                                    ",
"                                                                                                                                                                                                                                                                                                                                                                                                                                                                                                                    ",
"                                                                                                                                                                                                                                                                                                                                                                                                                                                                                                                    ",
"                                                                                                                                                                                                                                                                                                                                                                                                                                                                                                                    ",
"                                                                                                                                                                                                                                                                                                                                                                                                                                                                                                                    ",
"                                                                                                                                                                                                                                                                                                                                                                                                                                                                                                                    ",
"                                                                                                                                                                                                                                                                                                                                                                                                                                                                                                                    ",
"                                                                                                                                                                                                                                                                                                                                                                                                                                                                                                                    ",
"                                                                                                                                                                                                                                                                                                                                                                                                                                                                                                                    ",
"                                                                                                                                                                                                                                                                                                                                                                                                                                                                                                                    ",
"                                                                                                                                                                                                                                                                                                                                                                                                                                                                                                                    ",
"                                                                                                                                                                                                                                                                                                                                                                                                                                                                                                                    ",
"                                                                                                                                                                                                                                                                                                                                                                                                                                                                                                                    ",
"                                                                                                                                                                                                                                                                                                                                                                                                                                                                                                                    ",
"                                                                                                                                                                                                                                                                                                                                                                                                                                                                                                                    ",
"                                                                                                                                                                                                                                                                                                                                                                                                                                                                                                                    ",
"                                                                                                                                                                                                                                                                                                                                                                                                                                                                                                                    ",
"                                                                                                                                                                                                                                                                                                                                                                                                                                                                                                                    ",
"                                                                                                                                                                                                                                                                                                                                                                                                                                                                                                                    ",
"                                                                                                                                                                                                                                                                                                                                                                                                                                                                                                                    ",
"                                                                                                                                                                                                                                                                                                                                                                                                                                                                                                                    ",
"                                                                                                                                                                                                                                                                                                                                                                                                                                                                                                                    ",
"                                                                                                                                                                                                                                                                                                                                                                                                                                                                                                                    ",
"                                                                                                                                                                                                                                                                                                                                                                                                                                                                                                                    ",
"                                                                                                                                                                                                                                                                                                                                                                                                                                                                                                                    ",
"                                                                                                                                                                                                                                                                                                                                                                                                                                                                                                                    ",
"                                                                                                                                                                                                                                                                                                                                                                                                                                                                                                                    ",
"                                                                                                                                                                                                                                                                                                                                                                                                                                                                                                                    ",
"                                                                                                                                                                                                                                                                                                                                                                                                                                                                                                                    ",
"                                                                                                                                                                                                                                                                                                                                                                                                                                                                                                                    ",
"                                                                                                                                                                                                                                                                                                                                                                                                                                                                                                                    ",
"                                                                                                                                                                                                                                                                                                                                                                                                                                                                                                                    ",
"                                                                                                                                                                                                                                                                                                                                                                                                                                                                                                                    ",
"                                                                                                                                                                                                                                                                                                                                                                                                                                                                                                                    ",
"                                                                                                                                                                                                                                                                                                                                                                                                                                                                                                                    ",
"                                                                                                                                                                                                                                                                                                                                                                                                                                                                                                                    ",
"                                                                                                                                                                                                                                                                                                                                                                                                                                                                                                                    ",
"                                                                                                                                                                                                                                                                                                                                                                                                                                                                                                                    ",
"                                                                                                                                                                                                                                                                                                                                                                                                                                                                                                                    ",
"                                                                                                                                                                                                                                                                                                                                                                                                                                                                                                                    ",
"                                                                                                                                                                                                                                                                                                                                                                                                                                                                                                                    ",
"                                                                                                                                                                                                                                                                                                                                                                                                                                                                                                                    ",
"                                                                                                                                                                                                                                                                                                                                                                                                                                                                                                                    ",
"                                                                                                                                                                                                                                                                                                                                                                                                                                                                                                                    ",
"                                                                                                                                                                                                                                                                                                                                                                                                                                                                                                                    ",
"                                                                                                                                                                                                                                                                                                                                                                                                                                                                                                                    ",
"                                                                                                                                                                                                                                                                                                                                                                                                                                                                                                                    ",
"                                                                                                                                                                                                                                                                                                                                                                                                                                                                                                                    ",
"                                                                                                                                                                                                                                                                                                                                                                                                                                                                                                                    ",
"                                                                                                                                                                                                                                                                                                            XX                                                                                                                                                                                                      ",
"                                                                                                                    X                                                                                                                                                                                   Xo$$$#                                                                                                                                                                                                      ",
"                                                                                                        X          .-&%$#                                                                                                                                                                            Xo$$$$$$O                                                                                                                                                                                                      ",
"                                                                                                        ==@@       #-&&*=                                                                                                                                                                            o$$$$$$$-X                                                                                                                                                                                                     ",
"                                                                                                       X&&&-       O*&&*@                                                                                                                                                                            X$$$$%-%OX                                                                                                                                                                                                     ",
"                                                                                                       o&&&-X      @--*-@                                                                                                                                                                            #$$$$=O                                                                                                                                                                                                        ",
"                                                                                                       o&&&=        @O@1==@.                                                                                                                                                                      X.#=$$$$O                                                                                                                                                                                                         ",
"                                                                                                       $&&&3.X.X    XX.-&&*-                                                                                                                                                                     X=%$$$$$$o.                                                                                                                                                                                                        ",
"                                                                                                       &&&&*--<.    .XO-&&%o                                                                                                                                                                     X=$$$$$$$-O                                                                                                                                                                                                        ",
"                                                                                                      X&&&%&&&-#      @*&&%X                                                                                                                                                                      @%$$$%-==.X                                                                                                                                                                                                       ",
"                                                                                                      o&%&&&&&-X      X:>--X                                                                                                                                                                      .--==#.         XX                                                                                                                                                                                                ",
"                                                                                                      Xoo-&&&%-         X.<---=X                                                                                                                                                                X#o=O.          #O--                                                                                                                                                                                                ",
"                                                                                                         O-&&&=         XX=&%%-                                                                                                                                                          . XXXoo$$$oX          .=$$$                                                                                                                                                                                                ",
"                                                                                                         #*%&*@          X-&&&-                                                                                                                                                          X @%$$$$$$$X          .=$$$o                                                                                                                                                                                               ",
"                                                                                                         @&&&-O          #-&&&=                                                                                                                                                            #$$$$$$$%#        XXXO$$$o                                                                                                                                                                                               ",
"                                                                                                         =*&&-@X         @*&&*#                                                                                                                                                           .#%$$$$%o@#         X.@==@#                                                                                                                                                                                               ",
"                                                                                                         #::=1@.XX       =&&&-.                                                                                                                                                           XX-$$$=.           #=o-@X                                                                                                                                                                                                 ",
"                                                                                                            X-&&-:       =&&&-. .                                                                                                                                                      XX#O-%$$$-.          X=$$$O                                                                                                                                                                                                  ",
"                                                                                                            X%%&&=      X1*&&-+XX .                                                                                                                                                  O@--%$$$$$$$@           =$$$-X                                                                                                                                                                                                 ",
"                                                                                                            X%%&&#       O@=>1@.OX                                                                                                                                                  @-$$$$$$$$$$$=           @%$$%.                                                                                                                                                                                                 ",
"                                                                                                            o%%%-.          #-&*-@X                                                                                                                                                 #%$$$$$$$$-=@#         X.@-oX                                                                                                                                                                                                   ",
"                                                                                                            O&&&*>==@       #*&&*=X                                                                                                                                             XX   o$$$$$$$-#X        X#@=-%o                                                                                                                                                                                                     ",
"                                                                                                            %&&&&&&&=X      O&&&-O                                                                                                                                                  .=$$$$$$$%X       @==%$$$$o                                                                                                                                                                                                     ",
"                                                                                                           X-%&&&&&&=X      -&&&>.                                                                                                                                               X@Oo-$$$$$$$$O       @$$$$$$$%X                                                                                                                                                                                                    ",
"                                                                                                           .-*&%%&&*=       -&&&1                                                                                                                                                .=$$$$$$$$$$$O       @%$$$$$%-O                                                                                                                                                                                                    ",
"                                                                                                             ##=&%&*=      X-&&&1                                                                                                                   X                            .-$$$$$$$$%oX        #-$$%=O#X                                                                                                                                                                                                     ",
"                                                                                                          .  ..=&&&&--=O   #*%&*:                                                                                                                                                X=$$$$$$$-#          #==@X                                                                                                                                                                                                         ",
"                                                                                                              X-&&%&&&%%   @--*-=X                                                                                                               XX#O@.                          X@$$$$$$$$@      X#o%%-O.                                                                                                                                                                                                          ",
"                                                                                                              X-&&&&&&&%   X XO11=OO                                                                                                             #=%$%@                      X.@==%$$$$$$$$=X  OO%%$$$$%X X                                                                                                                                                                                                         ",
"                                                                                                              .-&&&&&&%o      @>&&&=X                                                                                                           X#-$$$=X                   O@=-%$$$$$$$$$$$=.  #%$$$$$$$@ X                                                                                                                                                                                                         ",
"                                                                                                              #*&&&&&&&=@O. X.<-&&&=                                                                                                            X.=$$$=X                  X=$$$$$$$$$$$%=O#X X X-$$$$$$-@ XX                                                                                                                                                                                                        ",
"                                                                                                             X=&&&&&&&&&*->#  @-%&&@                                                                                                             .@--=@.                   @$$$$$$$$--#X     XX =$$-==@#X                                                                                                                                                                                                           ",
"                                                                                                             X=&&&&&&&&&&%-.  =*&&*<O.X                                                                                                        XXo=@.X                     O$$$$$$$$=        .@@===OX   X                                                                                                                                                                                                           ",
"                                                                                                              ==%-&&&&&&&&-. X=&&&&---:.                                                                                                      .=$$$#                       #%$$$$$$$=X  XXOO@==%-O                                                                                                                                                                                                                  ",
"                                                                                                               XX@-&&&&&&&=  O>&&&&&&&-+                                                                                                      X=$$$O                   X.oo%$$$$$$$$-.. #==-$$$$$#                                                                                                                                                                                                                  ",
"                                                                                                                 .-&&&&&&&=  .-%&&&&&&1@                                                                                                       =$$$%X               #Oo%$$$$$$$$$$$$=OX O%$$$$$$$O                                                                                                                                                                                                                  ",
"                                                                                                                 =&&&&&&&*# X.<=--&&&&1.                                                                                                       @$$$%#               @$$$$$$$$$$$$==@#X  X-$$$$$%%@X                                                                                                                                                                                                                 ",
"                                                                                                              X. <-&&&&&&*X    XO<*&&&=#.X                                                             #O.X                                 #@==$$$$O               #%$$$$$$$$$$$@   X  .:$$$%=#XX                                                                                                                                                                                                                  ",
"                                                                                                               X .@==-&&&-XXX.   @*&&&&*-=X                                                           .>*->==O.X                           X=$$$$$$$O               X%$$$$$$$$$$$=     X#=$$$%@                                                                                                                                                                                                                     ",
"                                                                                                                    .>&&&-1=:@   O&&&&&&&-X                                                   XX      O-&&&&**--==@.X                       =$$$$$$$-.            X.@-$$$$$$$$$$$-.X.#O%%$$$$$@X                                                                                                                                                                                                                    ",
"                                                                                                                    #-&&&&&&*:X.X=&&&&&&&-                                               Xy#  ==OoX X =*&&&&&&&&&&*--==@#X                  @$$$$%-O#X        X.#@==-$$$$$$$$$$$%-=-%$$$$$$$$$=.                                                                                                                                                                                                                    ",
"                                                                                                                    @*&&&&&&&:  X-&&&&&&&-                                               7NC:X=&&***-=>&&&&&&&&&&&&&&&&*--===#.             @%$$$@X          X@=-%$$$$$$$$$$%%O##Xo$$$$$$$$$%==.                                                                                                                                                                                                                    ",
"                                                                                                                    =&&&&&&&*=  #*&&&&&&&O              X                               $NNN@O-%&88&&&&&&&&&&&&&&&&&&&&&&&&&**-.        X#OO=$$$$=XX         #%$$$$$$$$$$$-@#X    o$$$$$$$%==@.                                                                                                                                                                                                                     ",
"                                                                                                                    =&&&&&&&-@  O*&&&&&&*-.             X                               NMZc=1-&*NN9&&&&&&&&&&&&&&&&&&&&&&&&&&-#        X=$$$$$$$=.X         X%$$$$$$$$$$$=O      X$$$$$$$$#                                                                                                                                                                                                                        ",
"                                                                                                                   X-&&&&&&&&--=1*%&&&555-@              .X                            5NMNNy-*&0MMNy&&&&&&&&&&&&&&&&&&&&&&&&&-X         O$$$$$$$-#           o$$$$$$$$$$$%#      X$$$$--%%O                                                                                                                                                                                                                        ",
"                                                                                                                   .-&&&&&&&&&&&=Xoo%&558$=X  .        .@=oX        X                X -eNMNM8&&*uNN*&&&&&&&&&&&&&&&&&&&&&&&&&=X         #%$$$-o@@X         XXo$$$$$$$$$$$$@. XXoo$$$$$-088-.                                                                                                                                                                                                                       ",
"                                                                                                                   .=-*&&&&&&&&&O   o&5588y1=@=.       .=*&%%$oXXX  X               X@##1ZNNC&&&8-uN8&**&&&&&&&&&&&&&&&&&&&&&&-=OXX    XXO%$$$=.X         #@o%$$$$$$$$$$$%==oo$$$$$$$$$-555-X                                                                                                                                                                                                                       ",
"                                                                                                                    X.@=&&&&&&&&#   $&&55558y$%#O#X   X@=&&&&&&&%%$%=X              .-**fMNM5&&&&yNMN7555*****&&&&&&&&&&&&&&&&&&%*--===@=-$$$$=.          @%$$$$$$$$$$$-=<#=$$$$$$$$$%--*&&o                                                                                                                                                                                                                        ",
"                                                                                                                       O%&&&&&%*.   %&&555550$$=-*--=@#.>%&&&&&&&&&%-.    XXXO      O-&0MMNu&&&&&yMM9&5*555555*****&&&&&&&&&&&&&&&%&&-y%$$$$$$-.          @=$$$$$$$$$$$%.  O$$$$$$$$=X#-&&%o                                                                                                                                                                                                                        ",
"                                                                                                                       -%&&&&&%*X  X%%&55555-$$1-%&&&&*-*&&&&&&&&&&&-X    XX@-oXX   =*&&uNC8&*5***rZ5***55555555555*****&&&&&&&&&&&&&-1$$$$$$$-# X        O=$$$$$$$$$$$$X X.-$$$$$$$= X@=-=X                                                                                                                                                                                                                        ",
"                                                                                                                       -&&&&&&%-X  X&&&*5558-$$>*&&&&&&&&&&&&&&&&&&&=XX    X=&&&%%$o=&&&&0N7**55*50ZNr5555555555555555555****&&&&&&&&-1-$$$%O##X         XO=$$$$$$$$$$$$OX.=-$$$$$$$-X   X.                                                                                                                                                                                                                         ",
"                                                                                                                      X-&&&&&&&=X  o&&&&555585-y*&&&&&&&&&&&&&&&&&&&>@#X   X-&&&&&&&&5580NMNu*555*CMMZ05555555555555555555555&&&&&&&&>t3-%%=@ X        XXo%$$%%$$$$$$$$$-=%$$$$$$$$$%.                                                                                                                                                                                                                              ",
"                                                                                                                      X*&&&&&&&1=O@%%&&&555555555&&&&&&&&&&&&&&&&&&&&**--=@@-&&&&&&*8097NMMN8*55*uMMMu5555555555555555555555*&&&&&&*8500000>+@X ..XXXoo$$$$$$>0-*--$$$$$$$$$$$$$$$%-=#                                                                                                                                                                                                                              ",
"                                                                                                                      #&&&&&&&&&*-->-*&&555555555&&&&&&&&&&&&&&&&&&&&&&&&&&*&&&&5885667qMMMN55555CMMC55555555555555555555555*&&&&&&855555558-<  Xoo$$$$$$$$$%05550*$$$$$$$$$$$$$$=@X                                                                                                                                                                                                                                ",
"                                                                                                                      =&&&&&&&&&&%-@#O1*555555555*&&&&&&&&&&&&&&&&&&&&&&&&&&58855555677CMMMMC0750ZMMr55*5555555555***5555555*&&&&&&555555555&#  -$$$$$$$$$$$-05555%$$$$$$$$$$$$$$o                                                                                                                                                                                                                                  ",
"                                                                                                                      @==-*&&&&&&&-< X=&8555855555&&&&&&&&&&&&&&&&&&&&&&*885555555556q97NMMMMu7550CZu05*555555555555******55555****5555555555#  X$$$$$$$$$$$-05555$$$$$$$$$$$$$$$%.  XX                                                                                                                                                                                                                             ",
"                                                                                                                        X@-&&&&&%%1O  =&&&&&&55555&&&&&&&&&&&&&&&&&&*8855555555555566677rMMMCq7555eMNu855555555555**555*******555558755555550=  #%$$$$$%%$$$-8555*$$$$$$$$$$$$$$$$@O@=@                                                                                                                                                                                                                             ",
"                                                                                                                         O-&&&&&&&-=oO-&&&&&&55558&&&&&&%&&&&&&&*88855555555555555566667CMMMCqq00rMMMC5****5555555*588855555****8777655555558y==:-%%%%%%%$$$-8558*$$$$$$$$$$$$$$$$%%$$=                                                                                                                                                                                                                             ",
"                                                                                                                         @*&&&&&&&&&***&&&&&&5888**&&&&&&&&***8855555555555555566666666uMMMMMZqqrCMMZ085555*****5**58888888555550666555555555777y*%%%%%%%$$%05557*$$$$$$$$$$$$$$$$$$$$-X                                                                                                                                                                                                                            ",
"                                                                                                                        X=&&&&&&&&&&&&&&&&&&&&&&&&&&&&&&&&&***066666555555555556666666eZMMMMMMqqNMMZC8888885555555*588888888888800765555555556570&%%%%%%%%%*07668*$$$$$$$$$$$$$$$$$$$$$#                                                                                                                                                                                                                            ",
"                                                                                                                        X=&&&&&&&&&&&&&&&&&&&&&&&&&&&&&&&&*555876666666655555556666666CBMMMMMqqqCMMZr0000888888855558888888888888rq96665555666670%%*%%%%%%%*00870*$$$$$$$$$$$$$$$$$$$$$@                                                                                                                                                                                                                            ",
"                                                                                                                        .-&&&&&&&&&&&&&&&&&&&&&&&&*****&&&*555576666666666555566666777qeZMMMMZuqqNICqqqqr888888888888888888888880rq7666655566667y&*>*%%%%%%&&**-*&%%%%%$$$$$$$$$$$$$$$$= X X  X                                                                                                                                                                                                                     ",
"                                                                                                                        O-%&&&&&&&&&&&&&&&&&&&&&&&*5555*5*5555876666666666555566777977qqZMMMMMZqeIZZCqqqq0880888888888888888800rqqq7666655556666758y**%%%%%%%%%%%%%%%%%$$$$$$$$$$$$$$$$%..XO.                                                                                                                                                                                                                       ",
"                                                                                                                        #-*&&&&&&&&&&&&&&&&&&&&&&&*5555*55509666666666666655566977779rrCMMMMMMCqeZMMZqqqqr0rq08888888888800rr9q667766665555666666558>**%%%%%%%%%%%%%%%%$$$$$$$$$$$$$$$$$===-@.                                                                                                                                                                                                                      ",
"                                                                                                      X @:@OX            XoO-&&&&&&&&&&&&&&&&*****5555*****07666666667q997666677777777qCZMMMMZqeCMMZeqqqqqqqq0888888888880r9qqq666666676666666666665&%&%%%%%%%%%%%%%%%%%%%%%$$$$$$$$$$$$$$$$o                                                                                                                                                                                                                       ",
"                                                                                                       .-*--=X              O&&&&&&&&&&&&&&&&**555**555555556666666669wwwq666677777777qquZMMZeqCZMMZCrq9qqqqqq088008888888r9qq766666777777666666665*&%%%%%%%%%%%%%%%%%%%%%%%$$$$$$$$$$$$$$$$o                                                                                                                                                                                                                       ",
"                                                                                                       #-&%*:              X=&&&&&&&&&&&&&&&&55555**55888858976666666qwwwq77777979q97qqqNZMMCqqCZMMMZCrqqqqq9qr0rq088888880qqq9666679797776666666670**&%%%%%%&&&%%%%%%%%%%%%$$$$$$$$$$$$$$$$$X                                                                                                                                                                                                                      ",
"                                                                                     .                 @&&&*@              .-&&&&&&&&&&&&*50855555**58888000rq9q77666qwwwq7797777qqqqqqqZMMMZCuqCIMMMIqqqqqqq9qqqq088888880qqq9997779777776666666667700*%%%%&***%%%%%%%%%%%%%$$$$$$$$$$$$$$$$X                                                                                                                                                                                                                      ",
"                                                                                     X                X=-*&-#              O>-*&&&&&&&&*8767755555**58880rrq99qqqqqqqwwwwq7777777qqqqqqCMMBMMZCqeZMMIuqqqqqqqqqqqqr088899qqqqqqqqqqqqq97776666666655670>*%%%&***&%%%%%%%&%%%%$$$$$$$$$$$$$$$$o                                                                                                                                                                                                                      ",
"                                                                                  X.#O=X               .@@=1=@O.X           #<11*&&*555576669555555*58880r9999qqqqqqqwwwwwwqqq979qqqqqeZMMBBBIeeCMMMZNqqqqqqqqqqqqqr099qqqqqqqqqqqqqqq9777666666667799y>*%%%%****%%&&****%%%%$$$$$$$$$$$$$$$$o                                                                                                                                                                                                                      ",
"                                                                                  @=%$-#                XX#-&&&*-==O         X.15555555566667887085*58880rqqqqqqqqqqqwwwwwwwwwwwqqqqqqeZMBBBVCeCZMMMMMCqqqqqqq9q999qq9qqqqqq99qqqqqqqq7777666666779999y>>%%%%************&%%%$$%%$$$$$$$$$$$$$X                                                                                                                                                                                                                     ",
"                                                                                 X@%$$$@  X.            XX *%%&%&&&=       XoO%-5555555566667977708558880rwwwwwqqqqqwwwwwwwwwweeeqqqqewqCBBBBZCZMMMMMBqqqqqqqq9qqq999q9qqqqqqqqqqqqqqq9776677666799999y08***>>>>>********&%%%%**&%$$$$$$$$$$$$X                                                                                                                                                                                                                     ",
"                                                                                  Xo$$$=#O-=X             X&&&&&&&&@   X#o-$$$$&5555555666666666708588888ywwwwwwwwwwwwwwwwwwwweewqqqweeeZBBBBBZZBMMMMNqqqqqqqepewwqqqqqqqqqqqqq9qqqqqq77799976667999999900y0000>>*********&%%*00000-*%$$$$$$$$o                                                                                                                                                                                                                     ",
"                                                                                   =%-@=%$$%X             #>--&&&&*#@=O%$$$$$$$*5555555676666667qry0yr088yrwwwwwwwwwwwwwwwwwwweewqqqeeeCBBBBBVCeNMMMCqqqqqqqqpppppppewwqqqqqq999qqqqqq777qq997666799999999999y0>>*********&%%*0666558808-*%$$$$#.                                                                                                                                                                                                                   ",
"                                                                                   .@.XO%$$%.  .X          XX#>&&&-@=-%$$$$$$$%55556666677666667qqrqwwy88yrwwwwwwwwwwwwwwwwewwwepewweepZBBBBBZpeNBBBeqqqqqqqqppppppppppppwqqqqqqqqqqq9779qqqqqqq9999999999999y0>>>>>>>****0*%-856655555558800--@                                                                                                                                                                                                                    ",
"                                                                                       .=$$$@@=-=X           X>&&&&*>yy%$$$$$$%55567777777666767qq9qwwr880repppppeeewwwwwwwweeeeaaaapaZBBBBBZpeeBBBVCqqqepeeeppppppppppppwwwqqqqqqqqq7779qqqqqqqq999999999999y>>>>>>>>***0y8*0766655555555555*---==#X                                                                                                                                                                                                               ",
"                                                                                       X=$$$$$$$-.           .-&&&&&&8y%$$$$$$&55567779977777776799wwwryyyrppppppppewwwweeeeeeepaaaaaaZZVVBB/ppCBBBBMZqqpppppaapppppppppewwwwqqqqqqqqqqq99qqqqqqq999999999wq9y00>>>>>>>*-y666766666555555558&&&&&&&*--=                                                                                                                                                                                                             ",
"                                                                                        @$$$$$$$%O  X#.      #-&&&&*580%$$%$$$&55567777777777776669epeerwwwppppppppewwweeeeppeepaaaaaaaZZVVVVZZVBBBBMCqeapppaaapppppeeepwwwwqqqqqqqqqqqqqqqqqqqqq99777999wwwwwyyyyy00>>-00755666666555555555&&&&&&&&&*=                                                                                                                                                                                                             ",
"                                                                                        O%$$$$$$$=O-%=.X     X==--88770%-$-$$%555567777777777976669ppppppppppppppppewwweepCIZaapaaaaaaaIVVVVVV/ZVVVVZpeZZZppaZZpppppewwwqqqqqqqqqqqqqqqqqqqq7679997666799wwww9999900yyyyy0766566666555555555*&&&&&&&&-#                                                                                                                                                                                                             ",
"                                                                                        .=$$$$$$$$$$$o          X:8567y>-*$$--55666777797777799777wppppppppppppepppeewwwepZVZZaaaaaaaaZZVVVVV(CZTVVVVZZVVVZaZZVCapppewwwqqqqqqqqqqqqqqqqqqqq77999qqq76799wwww99999997999077766566665555555555&&&&&&&&>.                                                                                                                                                                                                             ",
"                                                                                        X==@#o$$$$$$$%X          =56665580*%**8656777777977777wwwqeppppppppppppwwewwwwwepZVVZZaaaaaaaaIBBBBVVZaZZVVVVVVVVVVZIVVVBCppwwwwqqqqqqqqqqqqqqqqqqqq99999qqq7669999q999999999997666666666666555555555&&&&&&&&-=XX                                                                                                                                                                                                           ",
"                                                                                         X   X$$$$$$$$#         X-*7555558**&*058977777799777qppppppppppppppppeeeewwwepaaCIZZaaaaaaaaZVBBBBBBBZZVVVVVVVVVVVVVVVBBBCeewwqqqqqqqqqqqqqqqqeeewq9999qqqq76679999999999999999766666666666555555555&&&&&&&%&&%*%%oo@X                                                                                                                                                                                                     ",
"                                                                XX                           X%$$$$$$$o         Oy8555555-%%%%%%&077979999777qppppppppppppppppeeeewweepaaagZZCappaaaaCZBBBBBBBBVVVVVVVVVVVVVVVVBBBBMCwqqqqqqwqqqqqqqqqqeeeewqqqqqqqq666799999999999999997667656675665555555555&555&&&&&&&&&%*:X                                                                                                                                                                                                     ",
"                                                             X@@=O                            o$$$$$$$%X    X.#O----055550-$%%%%%077979997777qppppppppppppeweeeeeewwwepaaaCVVZZpppppaaaZBBBBBBBVVVVVVVVBBBBVVVVBBBBMCwwqqqqeaaapwwqqqqqweeewqqqqqqqq6666999999999999qqqqq7777777755555555555555555&&&&&&&&&&*@                                                                                                                                                                                                      ",
"                                                             X%$$%                            X$$$$$$$$@@.#o%%$$$$$$-855508&&&***079997777777qeeppppppppppeeewwwwewwwepaaaZVVVBZCpppppCZBBBBBBBVVVVVVVVBBBBBBBBBBBBZeewqeqeaaaaapppwqqCqeeeewwwqqqq97767qq9999999999qqqqqqqqqqq9966665555555555555&&&&&&&&&&*@X                                                                                                                                                                                                     ",
"                                                              $$$%X  ..                       X%$$$$$$$=-%$$$$$$$$$$055555557800yq79997777777qwwweeeppppapeeeewwwwwwweaaaaaZZVBBCppppaIBBBBBBBBBVVVVVVBBBBBBBBBBBBBZCeeepCpaaaaapa/CeCZZCeeeCCwwqqq97779qqqqqqq99999qqqqqqqqqqqqqq7666555555555555&&&&&&&&&&-:..XO                                                                                                                                                                                                  ",
"                                                              $$$%@@O==                       X%$%-%$$$$$$$$$$$$$$$%0555555555566779777777779wwwwweeewqwwweeeewwwweeepaaaaaaZVBZppppppZ/VBBBBBBBBBVVVVSBBBBBBBBBBBMMMZpeCMCaaaZZaaZBIIMMMCpCMMCeqqq9999qqqqqqqqqqqqqqqqqqqqqqqqqqq6666666665555555&&&&&&&&&&&*--=.                                                                                                                                                                                                  ",
"                                                              o-===$$$=X   X..#.               #O#.=$$$$$$$$$$$$$$$%0085555555556777777777779wweeeeeewqqqqqqwewwwweeepaaaaaIVBBZCppppppCZBBBBBBBBBSVVFSSBBBASBBBBBMMMMZCZMBVCaZVZZBMMMMMMMZBMMMZCqqq999qqqqqqqqqqqqqqqqqqqqqqqq97766666666666666555&&&&&&&&&&&%&-.X                                                                                                                                                                                                 ",
"                                                              XX .@$$$-.  X@==-=        XX..       =$$$$$$$$$$$$$$$$%>yy855555556777777777779qwweeeeeqqqqqqqqwewwweeepaaaaaZZBBBZZpppppCBBBBBBSABSFFFFSSSABSSSAMBBMMMMMMMMBVVZVVVVBMMMMMMMMMMMMMMCeqqqqqqqqqqqqqqqqqqqqqqqqqqq977766666667666666555&&&&&&&&&&&&&o                                                                                                                                                                                                   ",
"                                                                  =%$$%#  X=$$$=X    XX#O-%-#      .-$%=-$$$$$$$$$$$$$--85555555677777777777qqqqweeeewwqqqqqweewwweeepaaappaZZBBZCpppppBBBBBBASSSSFFFFSSSSSSSSAAMMMMMMMMMMBVVFFVVVBBBBMMMMMMMMMMMMZCqqqqqqqqqqqqqqqqqqqqqqqqqqq7777666777776666655555885&&&&&&&&X                                                                                                                                                                                                   ",
"                                                                 X.O==@.   @$$$-..##o%%$$$$$@      #=@@+=$$$$$$$$$$$$$%875555555556676777779qqqqweeeeeeeewwwweewwweepaaaaeeeCBBBZappppCBBBBBBSSSSSSSSSFFSSSSSSAAARMMMMMMMMVVSFFFSVBSSAMMMMMMMMMMMMMMZeqqqqqqqqqqqqqqqqqqqqqqqqq7777777999976666655555555&&&&&&&*X                                                                                                                                                                                                   ",
"                                                                   XX      #$$$==-%%$$$$$$$$#  XXoo$=O  #$$$$$$$$$$$$%&y75555555555567779799qqqqeeeeeeeeeeeeeeeeeeeepaaapeefZBBBZZaaaCBBBSABSSSSSSSSSFHHHFSSSSAAAAAMMMMMMMVVFFFFFFSSSSMMMRRMMMMMMMMMMZCqqqqqqqqqwwwwwwwwwqqqqqq7777799999977667666655555&&&5*&&%                                                                                                                                                                                                    ",
"                                                                           .=O#@-$$$$$$$$$$$-oo$$$$$%O...%$$$$$$$$$$$$%000885555555566779779wwwweeeeeeeeeeeeeeeeeeeepaaaaeepCZBBBZZaZVVVSSSSSSSSSSSSSHHHHHHFFSSSAAAAMMMMAAVSFFFFFSAAAARRRRRRRMMMMMMMMMMZfqqqwwwwwwwwwwwwwwwqqqqq99999777777777797776555585558&&-.                                                                                                                                                                                                   ",
"                                                                            X  Xo$$$$$$$$$$$$$$$$$$$$=.#@%$$$$$$$$$$$$%&*--8665555556677777qwweeqwwweeeeeeeeeeeeeeeepaaaappppZVBBZCaZVVVFFFFSSSSSFFSFHHEHHHHGFFFFFAAMMMMASFFFFFFFSRRRRRRRRRRRRMMMMMMMMMMMCwwwwwwwwewweeewwqqqqqq79999977777999777776555555558*&=.                                                                                                                                                                                                   ",
"                                                                               .@$$%-$$$$$$$$$$$$$$$$--$$$$$$$$$$$$$$%%%%%-5665555566777777qwwewqqqweeeepppeeeeeeeepaaaaaaaaaIBBZIaaZZVFFFFFSSSSDGGGHHEWWEHHHHFFEEGAMMMAASSSFFFFHDRRRRRRRRAAAARRMMMMMMMMMZwwwweeeeeeeeeewwqqqqqq799977777777997777665555555555*11=.XX                                                                                                                                                                                               ",
"                                                                                @=@OO%$$$$$$$$$$$$$$$$$$$$$$$$$$$$$%%%%%%%-8665555677777777qwwwwqqqweeepaaaaapppppppaaaaaaaaZZVVVVCaaa!FFFFFSSSSSFGEEEEEWWWEHHHHWHHAMMAAAAAASFDFHDSARRRRRRAAAAAAAAMMMMMMMfwwwweeeeeeeeeeqwqqqqqq9qqq977777779977776655555555588588-O                                                                                                                                                                                                ",
"                                                                                 XX X-$$$$$$%-$$$$$$$$$$$$$$$$$$$$$%%%%%%%077655666777777779qqqqqqqweeepaaaaaaapppppaaaaaaaaa//VVVVZZZFFFFFFSSSSSSEEEEEEEWWWEHHWWHSAAAAAAAAADDDDDSSSSARRRRAAAAAAAAAAMMMMZCwqwweeeeeeeeeeeeeeqqqqqqqq977779999777777665555555555555-.                                  X                                                                                                                                                             ",
"                                                                                     @$$%ooX #%$$$$$$$$$$$$$$$$$$$$%%%%%%%*0yy06666777777777777qqqqepppaaaaaaaappppaaaaaaaaaaaZVVVVVZKFFFFFFFSHFSFQWWEEEQWWWWEEWWWESAAAAAAASDDDDDSSSSJDSASSAAAAAAAAAAMMMMMCeeeeeeeeeeeeeeeeewqqqqqqq99999qqq9777777776655555555555-                                   XXXO                                                                                                                                                          ",
"                                                                                     #oX     .-$$$$$$$$$$$$$$$$$$$$%%%%%%%%%%&06666666777777779qqqqpaaaaaaaaaaapeppaaaaaaaaaaZZVVVVVSFFFFFFFFFQQWQQQQWEWQQQWWWWWWWWWFAASDSSDDDDDSSSSSJJFDFFFSSSSAAAAAARMMMMBCeeeeeeeeeeeeeeeeqqqqqqqqqqqqqqqq977997777666555555555-                                   X=-=o                                                                                                                                                         ",
"                                                                                             X=$-=-$$$$$$$$$$$$$$$$%%%%%%%%%%&06666666677777779qqqwaaaaaaaappppppppaaaaaaaaaaZZVVVVVKFFFFFFFFW~~~~~QQQQQQQQQQWWWWWWWEFSDDDDDSDSDSSSSDJJJJGFFFFFFSSSSAAMMMMMMZCeeewwweeeeeeeeeqqwwqqqqqqqqqqqq999997977666555555555>                                   .*&&&                                                                                                                                                         ",
"                                                                                              #@.XX$$$$$$$$$$$$$%%%%%%%%%%%%%*0666666667777779qqqqeaaaaaaapeeepppppaaaaaaaaaaaZZVVVZTKKKFFFFHWQQ~~~QQQQQQQQQQWWWWWWWHHFDDDDDDSSSDFFDFJJJHHHFFFFGFSSSSSBMMMMMCeeweeeeeeeeeeeeewwwwqqqqqqqqqqqqqqqq97776666655555555-                           ==@#X  X#&&&$                                                                                                                                                         ",
"                                                                                                  X%$$$$$$$$$$$$%%%%%%%%%%%%%*766666666777779qqqqqqeppaaaapeeppppppaaaaaaaaaaaaZVVVZITTFFFFFWWWWQ~~QQQQQQWQQQWWWWWWWEGDDJFDFFFSSJJJJHHHHHHHHHFFHHFSSSSABMMMZIeeweeeeweeeeeeeeewewqqqqqqqqqqqqqqqqq9776666655555558-#.@=.                   XX =&*---==:&&&o                                                                                                                                                         ",
"                                                                                                   o%oo=$$$$$$$$%%%%%%%%%%%%%07666666699999979qqqqqqqqeaaapeepppppaaaaaaaaagggIVVVVZZTKFFFFGEWWEEWQQQEWQEEEWWWWWWWWWQQHGHHGGGFFFGGJJHHHHHHHHHHHHHJJDSSSSBMMMZCCewwweweeeeeeeeewewqqqqqqqqqqqqqqqqq9776566655555550%=-%$@             X..   ..X-&&&&&&*>===o                                                                                                                                                         ",
"                                                                                                   ..  @$$$$$$$$%%%%%%%%%%%%%06656666667777779qqqqqqqqepppeeeeppppaaaaaaaaagggP^IZZZTTKFFFFHHEWEEGGWWEEWEEEWWWWWQQQWQ~QWHHHHHHGHEGJJHHHHHHHHHHHHHHHHFSSSARMMMMZCpeweweeeeeeeeeeewqqqqqqqqqqqqqqqqq9776666655555550$$$$$=             #--=O#.XO-%&&&&&&=.OX                                                                                                                                                          ",
"                                                                                                       #%$$$$$$$$%%%%%%%%%%%&05556666666767779qqqqqqqqppppeeepppppaaaaaaaagxggxc^IIITTTKKKEEHWWEHGGGGEEWWWWWWQQWQ~~Q~~~QWHHHHHHEEHHHHHHHHHHHHHHHHHHHHHFSSAMMMMMZCwwweweeeeeeeeeewqqqqqqqqqqqqqqqqqq776666665555558$$$$$-#==@O.X      X%&&&**->--*&&&&*@                                                                                                                                                             ",
"                                                                                                       X=$$$$$$$$%%%%%%%%%%%*y07756666666699qqqqqqqqqwppppppppppppaaaagggaggggxPIZZTTTTTT(WWEWWEEHGGGGEWWWWWQ~~Q~~~~~~QQWWEHHHHEHHHHHHHHHHHHHHHHHHHHHHHHSBBBMMMCeewwweeeeeeeeeeqwqqqqqqqqqqqqqqqqqq76666666666655-$$$$$%@-*-->1:=O.X o%&&&&&&-..O@=-*-#                                                                                                                                                             ",
"                                                                                                        =$$$$$$$$%%%%%%%%%%%%*-80765666667qqqqqqqqqqqqeeepppppppppaaaaccggcgggc/IIIZTTTTT(WWHEEWWWEHGHEWWWWQQ~~~~~Q~~~QQWWWWEHHEWEHHHHHHHHHHHHHHHHHHHHHHSABBBBZCeeweweeweqeeeeewwwwqqqqqqqqqqqqqqqq96666665666658-%$$$$$=-%%%&&*---==-&&&&&&&-X    X.#X                                                                                                                                                             ",
"                                                                                                        @$$$$$$$$%%%%%%%%%%%%%%%*867666669qqqqqqqqqqqqwwwweeeppppaaaagcccgcggxYIIIIIITTTTTHEHHEWWWWWEWWWWWWQ~~~~~QWQQ~QWWWWWWEEWWEHHHHHEHHHHHHHHHHHHFFHFSSABBBBZCeweqeweeeCpeeeeewwwqqqqqqqqqqqqqqq96566666666655888-*-%1*%%&&&&&%%&*311--**&=                                                                                                                                                                      ",
"                                                                                                        .-$$$$$$$$%%%%%%%%%%%%%%*56666776qqqqqqqqqqqqwwwwwwwwepaaaaaagcccccggPUIIIIZTTTTTKFHHEWWWQWWWWWWWWWQQQQ~QWWWWQQEHEWWWWQQWEHEEHHQQEHHHHHHHHHFSSSSSSBBBBBMZewwweeweCZZCppewwewqqqqqqqqqqqqqqq965566566666555555580y*&&&&&&&&&&*=.X.@=:1@                                                                                                                                                                      ",
"                                                                                                        X=$$$$$$$$%%%%%%%%%%%%%%556666776qqqqqqqqewwwewwwwwweppaaaaaagcccccccc^IIIIITTTTTKHHHQQWQ~QQWWWWWWQQQQQQWEWWWWWHHHHEWWQ~QEHQ~QWQQQWEHHHHHHHJDSSSSSBBBBBZCwewweeeeZMMZaapwewwqqqqqqqrCqqqqqq96656565666665555555555&&&&&&&&&&-@X     .X                                                                                                                                                                      ",
"                                                                                                         =$$$$$$$$%%%%%%%%%%%%%%556666767qqqqqqqwaaaaappewwwwpppaaaaagcccccccccYIIIIITTTTKGHW~QQ~~~QQWWWWQQQWEQQEEEEEEEEEHHHWWQ~~QW~~~QQQQQQEHHHHHHGGFSSSSABBBBZCppwwweeCMMBCaapwewqqqqqqqqeMZeqqqq96666666666665555555558&&&&&%>==-1#                                                                                                                                                                              ",
"                                                                                                         @%$$$$$$$%%%%%%%%%%%%%&8666666679qqqqqqeaaaaaaaappeepppaaaaaccccccccccIIIIIITTTTKFFW~~~~~~~~QEEQQQQEEEEEEEEEEEEEEEWQQQ~~~~~~~QQQQQQQEGGHHHJJGGDSSSBBBBBBIpwwweCZMMCaaapeeqqqqqqqqeMMMNqqqq76666666666666555555558&&&&&%=X...                                                                                                                                                                               ",
"                                                                                                         .-$$%$$$$$%%%%%%%%**&%&566666666677qqqqpaaaaaaaapppppppaaaagcccccccccPIIIIIZTTTTKFFFEQ~~QQQQWEEQQQQQEEEEEEEEEEEEEEWQQQQQQQQQQQQQQQQQQEHJGJJJJGFSSSBBBBBBZCeeweCZMZppppeewqqqqqqqqrCMNqqqqq76666666666666555555555&&&&&*#                                                                                                                                                                                   ",
"                                                                                                          =-O#O$$$$%%%%%%%%08880765766666666qqqqpaaaaaaaapppppppaaaagccPcc//PPIIIIIITTTTTKKKKFWQQQWQQEEWQQ~~~QWEEQQEEEEEEEEEWQQQQWQQQQQQQQWWQWEEHGJJJGHFFFBBBBBBZpeeewwepZCeeeeeewwqqqqqqqqqNeqqqqqq97666666666665555555555*----X                                                                                                                                                                                   ",
"                                                                                                              #$$$$%%%%%%%%05777656666677666qqqqaaaaaaaappppppppCaaZgc/^^PIZI^IIIIIITTTTTTTTKEWWQWWWWEWQQQ~~~QQQQQQQWEEEEEEEEQQQWEEQQQWEQQWWEEEEJGGJGGFFFSBBBBBBZCewwweweeeeeeeeeeqwqqqqqqqqqqqqqqqqq9777766666665555555555-O.#O                                                                                                                                                                                    ",
"                                                                                                              X%$$$$%%%&%**06666566666666667qqqqaaaaaaaaeweepaaZZZZZ//^II^ZZZZIIIIITTTTTTTTTHWWWWWWWWEWQQQ~~~QQQQQQQQWEHHHHEWWQWEEEEWQEEEHWWEHEEHHHJGFFFFVBBBBBBBBCewwweweeeeeeeewqqqqqqqqqqqqqqqqqqq9777776666665555555558y@X                                                                                                                                                                                      ",
"                                                                                                               -$$$$%%-000086666665665669q7qqqqeaaaaaaaaeeqpZaCZZ/ZVZIIIIIIIIIIIIIIIITTT!((TEHEWWWWWEEQQWWQQQQQQQQQQW!!EHHHH!!!!EEEEEEEEHHHEHHHHHHHHHFFFFFBBBBBBBZeweeqweeeeeeeeewqqqqqqqqqqqqqqqqqqqq977766666666555555558t.X                                                                                                                                                                                      ",
"                                                                                                               O$$$$%%0777876666655665667qqweeepaaaaaaaaICeCVZZVVVVVZIIIIIIIZIIIIIIIZTTTQ~~QEHHHEWWWWWWWWWWWWWWWWWWW!ZZ!HHHKZZZZKHHHHHEHGHHHHHHHHHHHHHHFFSSSBBBBBZwwweqeweeeeeaaaeqwqqqqqqqqqqqqqqqqqq977766666666555555555y-@OX                                                                                                                                                                                    ",
"                                                                                                    X.@@X      X%$$$%&056656666665666667797wweepaaaaaaaZMMIBVVVVVVVVIIITTTIIIITIZTTITTT(~~~~QEHHHWWWWQQWWW((WWWWW!WW!ZZZFHFZZfdgZKHHGHHFDJJHHWQEHHHHHHHFFSSSSBBBBBNeqeeeeeeeeepaaaeeeeewwqqqqqqqqqqqqq9777766666665555555555&&-@                                                                                                                                                                                    ",
"                                                                                                X.O@==%-.      X=---*005556666666666666777qwweeaaaaaaaZZBBMBVVVVVVVZTTTTTTTIITTKKKK!(T()~~~~~QEHEWWQQQ()(Q({((WW(((!!ZaaCZCCg0=dZZFFDDJDDJJJHQQWEHHHHHFFFSSSABBBBMMMNeeeeeeeepaaaappaapeeeeewqqqqqqqqqq777777776666555555555&&-.                                                                                                                                                                                    ",
"                                                                                               O==-%$$$$#   .#O@--858885566666666667777777qwwepaaaaaaaZBBBBVVVVVFFSKTTTTTTTTTTTKFFFWWW()Q~~~QWWWWWQQQQ){{(({(((((((!!ZfgZZgggd@>fZZFDDDDDJGJQQQQQQEHHHFFSBBBBBBBBMMMMCpeeeeeepaaaaaaaapeeeeeeeewwqqqqqq777777777776555555555*&-                                                                                                                                                                                     ",
"                                                                                               @-$$$$$$$O..#@=-%$*855555566666666667777777qeweepppaaaZVBBBBVVVVSFFFFFKKTTTTTTTTKFFEWWQ~QQQQQEWWWWWQQQ({{{{({((((((!W!Zfggfffcx=@dCZ_HDDDFJJEQQQQQQHHHGJFABBASBBBBMMMBCeeeeeeeeeppaaaaaaeeppeeeeeewqqqqq9799977777765555555558&=                                                                                                                                                                                     ",
"                                                                                                o$$$$$$$-=-%--*--*555555556666766677777777qwwweeeeepCZBBBBBVVVVFFFFFFFFKTTTTTTTHFFWWWQ~QQQQEJGWEWQQQQ{{{{{{{((((((!W!Zfgf>>gcx=#ygZZKDDDDDJWQQQQQWHHHJGFSABSSAMMMAAAZeewweeweqeeeaaaaaaaaaapeeeeewqqqqqqqqq997777665555555558&O                                                                                                                                                                                     ",
"                                                                                               X@$$%-$$$$$$$-08000555555556666777777779999wwwweeeeeeZBVVVVVFFSFFFFFFFFFTTTT(TT(HHWWWWQQQQQWGGHQQWQQQ){{{{{{(((((((((!Zffd>3ccy##0fZZVDDDDDEQQQQQQEHHHGFSSSSSSMMMBSSAZZCeeewqwqeppaaaaaaaaaapeeeeewqqqqqqqqqq97777766555555555*#                                                                                                                                                                                     ",
"                                                                                                O=#XO-$$$$$$-0555555555556666677777779qqqqwwwweeeeeCVBVVVVSFFFFFFFFFFFK((T((((EHEWWEEEEWQQEEHWQQQQQ({{{{{{{{((((((((!Zpdz3ycd@O1dfCZVDDDDJWQQQQQEEEGGJSSSSSSAMMMMBABBBZZppepCeeCZCaaaaaaaaaaeeeeewqqqqqqqqqq97777777655555555-X                                                                                                                                                                                     ",
"                                                                                                 XX #=$$$$$%1y555555566666666666666779qqqqwwwwwwwwpZBBVVVVFFFFFFFFFHHFHW((((((EHWWWEEEEEEWEEWQQQQQQ){{{{{{{{{{{{(((W!Zp>1:1s:#1ggpCZ!EFDDDHWQQQEEEFSDFSSFFSSBMMMMBBBBBBBZCpZZCCBMBZaaaaaaaaaeeeeeqqqqqqqqqqq9777777976555555&-@.X                                                                                                                                                                                   ",
"                                                                                                    X=$%>y0-1055555556666666666666777qqqqwwwwwwwweIVVBVVVFFFFFFFFFGHHHHHHHEWW(EHEWEEEEWEWQQWQQQQQQ){{{{{{{{{{{{{{(WW!Zf=O::=#=xPgaZ_!HGJDDDFWQESSGSSSSSSFFFSVVSSBBBBBBBBBZ/ZMMBMMMMZCppaaaaapeeeeqqqqqqqqqqq97777779755555&&&&-->@.                                                                                                                                                                                 ",
"                                                                                                   X #=O-&&&&&55555557966666666667qqqqqqqwwwwwwwwCVVVVVVSFSSFFFFFFHHHHHHHHHEWEHHHWWEEQQWQQQQQQQ~~){{{{{{{{{{{{{({(WW!ZC>#@:=#>cCaaZ!EGFFDDDDDJSSSSSSSSSSFFFFSVFFFSVVVBBBBBBBMMMMMMMMMZpepaaapeeewqqqqqqqqqqqq7777776655555&&&&%&&=X                                                                                                                                                                                 ",
"                                                                                                    .X  =&&&&&85575555066666666669qqqqqqqqqqwwwweZVVVVVVFSSSSSHHFHHHHHHHHHEWWWWEEQQQQQQQQQQQQQQ~~~)){{{{{{{{{{{{{(WW!_Z>##<@#:ffaZ!QQEGDDDSDDSASSSSFFSSSFFFFFFFFFFFVVVVFVVBBMMMMMMMMMMZCpaaapqwwwqqqqqqqqqqqq9779766665555&&&&&%*=                                                                                                                                                                                  ",
"                                                                                                   .>>:<-&&&&&58555**587666666666qqqqqqqqqqqqeppZVVVVVVFFSSSSFHHHHHHHHEEHHWWWWWWQQQQQQQQQQQQQQQ~~~~){{{{{{{{{{{{{{(W!ZZ0=##..=dfZ_QQQQEFDSAASAASHSSGHHFFFFFFFFFFFFFFSVSFFSVVBBBMMMMMMMMMZCaaewqqqqqqqqqqqqqqq9779766666665*&&&&&*@                                                                                                                                                                                  ",
"                                                                                                   @*&&*&&&&&&&&*5555589770779777qqqqqqqqqqqqppZZVVVVVSFFSSSSHHHHHHHHHWWEEWWWWWW~QQQQQWQQWWQQQ~~~~){{{{{{))){{{)){)Q!_Z01#...@dg_!Q~~QHJFSAAJDAHEEEHHHHGFFFKTKKKKFFFFFFFFFFVBBBMMMMMMMMMBZZaewqqqqqqqqqqqqqqq97797666666655&&&&&-.                                                                                                                                                                                  ",
"                                                                                                   =&&&&&&&&&&&&*555555885579qqqqqqqqqqqqqqqwpaZVVVVVBSSSSSSGHHHHHHHHEWWWWWWWWWQ~QQQQWEEWEWW~~~~~~)}}{{{)~~~){)~~)QQ!_Zy3O...#yZ!Q~~QEHJFSVVZZK!EEQQWHHHHFFKTTTTTTHKKKFFFFFSABBMMMMMMMMMMMBZCeqqqqqqqqqqqqqqqq9777666666555&&&&&-X                                                                                                                                                                                  ",
"                                                                                                   =&&&&&&&&&&&&*555555555589qqqqqqqqwwwqqqqepZVVVVVVBBASSSSFJHHHHHHHWWWWWWWWWQ~~QQQQWEEEWWQ~~~~~~)){}}}))~~~))~~QQQW!Zd3@...#>Z!WQ~WHKKZZZZZCZZZ!!QQQEHHHHTTTTTTTTTTTKFFFFSSSBMMMMMMMMMMMMMMCqqqqqqqqqqqqqqqq9799766666555*&&&%=                                                                                                                                                                                   ",
"                                                                                                  X-&&&&&&&&&&&&*555555555580qqqreqqqwwwwwwwepZZVVVVBBBBSSSSSSJJHHHHEWWWWWWWWWQ~~)QQQQQEEWWQQ~~~~)))))}))))))(((~QQQW!Zdy=....>Z!WQQEKZZCgggggggZZ__!QQEHHE(TTTTTTTT((HFFFFFFFSAMMMMMMMMMMMMMCqqqqqqqqqqqqqqqqq7997666665585&&&&=                                                                                                                                                                                   ",
"                                                                                                  .-&&&&&&&&&&&&*5555*5588880rrqCZNqwwwwwwwwpppaZVVVVBBSSSSSSFJJHHHEWWWWWWWWWQ~~){)(QQQQWWWWQQ~~~)))))))))(()(((((QQW!Zdy=....>C_!WW!ZffggccggffgggZ__!!!KH((TTT((((((!HFFFFFFFAAMMMMMMMMMMMCqqqqqqqqqqqqqqqqqq7777666675&&&&&&*@                                                                                                                                                                                   ",
"                                                                                                  @*&&&&&&&***&**555555588880MZCZMMZewwwwwwwpppaZVVVVVSFFSSSSGJJHHHWWWWWWWWWQ~~~){{{)QQQQQWWQ~~~~))))))))((((((((WWQW!Z01=....1gZ__ZZgyyydfgggfdffgggZZZZZZZZZZITTTT((!HFFFFFFSAAAAMMMMMMMMMMeqqqqqqqqqqqqqqqqq9777666688&&&&&&-#                                                                                                                                                                                   ",
"                                                                                                  =&&&&&&&&*5**5555555558888eMMBMMMMZCwwwwwwppaIVVVVVVFFFFFFFJJJHHEWWWWWWWWWQ~~~Q({{{))QQWWWQ~~~~)))))))(((((((((WEEW!Z01=....1xgfgCcxdty0dffgccPPcggggggfffffffCCCCZZZCCBBVVSSAAAAAMMMMMMMMMMNqqqqqqqqqqqqqqq97666666675&&&&&&-X                                                                                                                                                                                   ",
"                                                                                                  =&&&&&&&&*55555*5555558888NMMMMMMMBBZpwwwwpppZZVVVVSFFFFFFJJJJJGEEEWWWWWWQ~~~~Q({{{{{)QWWWQQ~~~)))))))(((((((((WEEEKZ0y:#..#1xyyfxzzdt>0fgCCPPYYPPPPPPgddy3>>00000yyyyyyweeCNNMMMMBBMMMMMMMMMNCrqqqqqqqqq99977666666655&&&&&&=                                                                                                                                                                                    ",
"                                                                                                 X-&&&&&&&&*5555**5*55580000rqMMMMMBBBBZfwwepppfP/ZZZVVFFFFFFJJJGHEEEEEEEEWQQ~~~Q){{{{{)~QQWWWQQ)))))))((((((((((QWE!!Zyd>#..#1d>yzzsssy08yfCCZCLPPLPYYYYczy::::::===:::>>>>0800rqeeNMMNMMMMMMMMCqqqqqqqqqq77777666666658&&&&&&=                                                                                                                                                                                    ",
"                                                                                                 .-&&&&&&&&55555****5*588rqqqqqNBBMZIVBZwwwppppg^IIIIZZKKKFSSFGJGJHEEEEEEEEEQQQQQ){{{{)~~~QQWWWQQ~~))))(((((())((QQQ!!Zyd>#...@:=tzt1>yddyrfffCCCPIZPIUU^/bd13333<<<::::::::::==>>080rqqeNNMMMMZqqqqqqqqqqq77977666666658&&&&&*@                                                                                                                                                                                    ",
"                                                                                                 O*&&&&&&&*55555**5555588yq99qqweCBCrCIewwwppppc^IZIZITTTTTKFHHHJGGHEEEEEEEEEEQQQQ(){{{))~~~QQWWWQQ~))(((((())))QQQW!!Zfy=.....##3s1::ydggffCCCCCCZZCIII^^Yxsss2<:@@+@@=:@@O@@@@O==--*>88qqNNMMZCqqqqqqqqqq77777666666655*&&&&*#                                                                                                                                                                                    ",
"                                                                                                 =*&&&&&&&*55555**5888888yr9qqqwwpCrwwwwwwwppppfP^IZIZTTTTKFHHHHHHHHHEEEEEEEEEWQQQQQ){{{)~~~~QQWWWWQ)(((((((~)))QQ(QW!/py=......#<1::>>yfCffCCCCCCCCCCCIIU^Yzzs<@O.....@:O..#######OO-----879NMMBCeqqqqqqq9977666666665558&&&&-.                                                                                                                                                                                    ",
"                                                                                                 =&&&&&&&&*55555**88888880rqqqqwwwwwwwwwwwepppppaaP^IIIITTKFFHHHHHHHEWWWWEEEEEWQQQQQ~)))~~~~~~~QQWWW(((())()~~~~Q){)Q(/fy=.......OO@=>0yufffCCCCCCCCCCCCLPYYzt3<@#.....@<#.....#######OOO--*8qNMMueqqqqqqq9976666666665558&&&&=                                                                                                                                                                                     ",
"                                                                                                X>&&&&&&&&*55555*5888888880qqqqwwwwwwwwwwwppppppapfP^IITTTKFFFHHHHHHEWWWWWWEEEQWQQQQ~~~~~~~~~~~~QWWQ((()))))~~~~){{{)(/gd:....@@...#O=yyyyfCCCCCCCCCCCCCffccdt31@...#..#@........##########o*7NMeqqqqqqqqq9776666666675&&&&&&&=                                                                                                                                                                                     ",
"                                                                                                .-&&&&&&&&555555*5888888880qqqwwwwwwwwwwweapaZaaZZgPIIITTTTKKHHHHHHHEEWWWWWEEEEEWWWQQQQ~~~~~QQQQQWWWWWQ~))))~~~~){{{((/gd:#...O+.....#>yuyeCCCCCCCCCCICCfufxd11<#.......@...........########o59eqqqqqqqqqq777766665667*&&&&&&*=                                                                                                                                                                                     ",
"                                                                                                O*&&&&&&&*555555*5888888880r9qwwwwwwwwwweZaaZZ//VVITIZTTTTTTT(EHHHHHHHEWWWWEEEEGHEWWWWWQQQQQQWWQWWEFEWQ~~~~~~~~){{{)(/gfd:.....O#....#:yyrefCZCCZZCCCICCfuyd3@==........O...............####o5Nuqq99qqqqqq777666665555&&&&&&%*O                                                                                                                                                                                     ",
"                                                                                                =*&&&&&&&*555555*5888888880rqqwwwwwwwwwwCZZIZVVZVVSKKKTTTTTTTTKHHHEEHHHHEWEEGHHGFFHEWHHQQEEWWWWWWWFFFHQQ~~~~~~~)){{)(Pffd:....#<<O....=0yruCCCZCZZZCCCCffyyt1O=@........O.................###*NCqq777979976666666655555&&&&&%-.                                                                                                                                                                                     ",
"                                                                                                =&&&&&&&&*5555**5588888000rq9qwwwwwwwwwwZBVVVVVVVVFFFFFKH!(TTKKHHEWWWEJJGHEHGGFFFFSFEFHEEEEWWWWWWEFKKFFEQ~~~~~~~~))(/Pgxz:....O32<O###=>00eCCCZZZZZZCfryyyyy1==<@.........................###*NMZq777766666666666555585&&&&&%:X                                                                                                                                                                                     ",
"                                                                                                =&&&&&&&&*5555**588800qqqqq9qqwwwwwwwwwCBBVVVVVVVFFFFFFFHHHHHKHHHWWWWWHGGJGGGFSSDSSSSFHEEEWWWEFEWFKTTHKWQQ~~~~~~)))(Zcccd=OO..O3sz2<<==>00ufCCCZZZZCCCry000y3<=<<<+O.....................O@O#*NMe9777766666666666558*&&&&&&&&=                                                                                                                                                                                      ",
"                                                                                               .-&&&&&&&&555555509777999qqqqqwwwwwwwwweZBBBBBSSSSFFFFFFHHHHHHHHHEWWWWWEEHGGJGGSSSSSSSSGEEEWWWFFFFFKTTT(((())))~~))(/gfcz1=<<@<12tzls2ty>-0ufppCCZCCCCCuu0>>33<@<323<O..................++O@@#*NZqqqq777666666666655&&&&&&&&&&<                                                                                                                                                                                      ",
"                                                                                               #-&&&&&&&&****5*566667qqqqqqqqwwwwwwwwwZBBBSABSSSSFFFFFHHHHHHHHHHWWEEEEEEEHGJHEFSSSSSSSFGHEWWHFFFFFKTTT((())))))~~(((Cdd3:12332223knzkzzt10yurepCCCZCCfufy=:321:<1331=@@O................##@:@*Cqqqqqq77666666666655*&&&&&&&&&-=O@X                                                                                                                                                                                  ",
"                                                                                               @*&&&&&&&&&&&**5566667qqqqqqqqwwwwwwwwCBBBSSSSSSSSFFFFFHHHHHHHHHHHEEEEWWEEHGFHHFFSSSSSSJGHEWEFFFFFFHEH((()))))))~QQ((Ly>:<32222233knlzzlzzdyurrfppCZCCfrfy:1tt2<<<<111331@O................#@@8uqqqqq9776666666666558**&&&&&%&&&&-O                                                                                                                                                                                  ",
"                                                                                               =&&&&&&&&&&&&*55586667qqqqqqqqwwwwwwweZBBASSSSSSSSFFFFHHHHHHHHHHHHHEEEQQQEHGGFFFFFFDDSDJGEEWFFFHHHHHHHE(())))))))~Q((Z0-=<332k222tzllkkzzzzyyyupppCCCCfrdy1znk23<<<<132kk3<@@@+O.............#>qqqqqq9776666666666758&&&&&&&&&&&&-.                                                                                                                                                                                  ",
"                                                                                               =&&&&&&&&&&&&*5589666qqqqqqqqqwwwwwwwZBBBSSSSSSSSSFFFGHHHHHHHHJJGHEEEWQQQQEGGFFFFFHHGDDDFHEHFFFHHEWEHHE()))))){{{)(!(Iy-#@<<2kktsskzzsskkkzzyyufppfCCCfudy3vbz2231<<<12kk21<@@@#.............#-qqqqqq9976666666677555*&&&&&&&&&&&-                                                                                                                                                                                   ",
"                                                                                              X-&&&&&&&&&**500977666qqqqqq99qqwwwwwCBBBBASSSSSSSSSSFHHHHHHHHHGGGGEEEEEQQQWEHGGFFFHHGDDDDDHFFFHHHWWWEHE()))))){}}}{((/g-..#+3kkkkkkzkstt2tszdyyfffffffuyyy1znktkk311<<<223<@@+O..............#=9qqrCqqqq96666666785**&&&&&&&&&&&&1#.                                                                                                                                                                                 ",
"                                                                                              .-&&&%&&&&*88776666667qqqqqqqqqqqqqqeZBBBBBASSSSSSSSSSFGGHHHHHHJGGGGHEEEQQWWWWHGGGGHHDDDDDDHHGHHHEWWWWWW)))))))))}}{)((Iy#..O3kkkzkkkktt2232ssdyyufpfffr0yy:1st2kk11<:=<13<@+<+...............#*CequZZCqq766666666755*&&&&&&&&&&%&---=.                                                                                                                                                                               ",
"                                                                                              @-&&&&&&&&&55666666667qqqqqqq9qqqqqqCMBBBBBSSSSSSSSSSSSFGGDASFFJGHGGHEEWQQWWWEHHHHHEHJDDDDFHHEWEEWWWWWWWQ))))))))}}{{)((L=..#1kkkkkskkt222232tyyyyrrrrer001=@<1133<<1:@<<1<OO@@...............#*NZCZMMZLr767r7666695**&&&&&&&&&&&***&-#                                                                                                                                                                               ",
"                                                                                              .=:>-&&&&&&556666666666679qqqqqqqqqeMMBBBBASSSSSSSSSSSSSSFAAASDDGHHGEEEWQQWWWHGHHHEEEEHJFFFHHWWWWWWWWWWWWWQ))))){}}{{{((/>...1lkkkktsst22222333y00yyy0ry0y1@#@:@@<=<<@@=<<<..OO...............#-9MMMMMMMZN67MNq7u9L05***8&&&&**58858&-.                                                                                                                                                                               ",
"                                                                                                  =&%&&&&&566666666666699qqqqqqqqBMMBBBBSSSSSSSSASSSSSSSAASDDFHHHHHHEEEWWWEFHHHHHEEEGGJJGJEEEWWWWWWQQQWWQ()))~)){{{{(!/0#..1lzkkk2tt222222231>0080888000>=#@=@..O@@@O@<<4..#O................o7MMMMMMMMZCNMMMu0rMZN558Nu**58855555&-X                                                                                                                                                                               ",
"                                                                                                  -%&&&&&556666666666669qqqqqqqqCZMMBBBSSSSSSSSSAAAAAAAAAASDDHHHHHHHEEEEHEGGHHHHHGHHJJJJGHEEEEEEEEWQ~~QWW(())~~~){{{{)!g:#O3kktkk2tt233313331:>-****-00>:@.O@@...O#..+@<@..#O.OO@@#..........#*NMMMMMMMMZIMMMMCZMMMZuNMN7555555555&-@.X                                                                                                                                                                             ",
"                                                                                                 X-&&&58555555566666666qqqqqqqqqqqIMMMMBASSSSSSAMMAAAAAAASDDFHHHHHHHEEEEGGGGHHHHGGJJGJJGGEEEEEEEEEWQQQWWW((()~~){{{{{)!Zd@O2k22kk2tt233111133:--****->>-=O.#OO.......@+@+..O@@+@<<<<:@@#......%9NMMMMZZMIuCZMMZuMMMMZCMN&*555555558***-=                                                                                                                                                                            ",
"                                                                                                 O1**&855555556666666667qqqqqqqqqqZAMMMMMMAAMMAMMMMAAAAAADDDDHHHHHHHEEEEFFGFHHHFGJJJJJGGHEEEEEEQWEQQQQWWQQQQ~~~){)~)))!/g:@2232kktkk233111133>=-$$$$---==O.#@#.......OO@O..++@+@<332231<@O..#..-7CCZCqrCeqquZZr58NMMNuN7&&555555*&*&&&&<O                                                                                                                                                                           ",
"                                                                                                 XO@#=855555556666666666667qqqqqqCSAAMMMMMMMMMMMMMAAAAAAASDDDDJHHJDGHHEHFFFDDGJFJJJJJJGHWWWEEEQQQWQQQQQQ~~QQ~~~~))Q~~~!/Py3k212kkkkks222111131--oooo%-===#.###.......O##O..+@@+,<322st221<O#@#..@-0urqqqqqqqrC85*5rC8*5**5855*&&&&&&&&-@X .                                                                                                                                                                         ",
"                                                                                                     =-5555555666666666666qqqqqqqqBAMMMMMMMMMMMMMAASSSSAAASDDDDDJDDDHHHJDDJDFFDJJJJJJGGEWWWWEEQQQWWQ~~~Q~~~~~~~QQQQQQQ!//xzk21szzzzzkstt231<11==oo..o--=@#..#....#...O..#.@1<@@@<13222tt22<@@@#..#-599qqqqqqqq85*5555*5555**&&&&&&&&&&-OX                                                                                                                                                                           ",
"                                                                                                    X=*5555555556666666667qqqqqqqqwCBMMMMMMMMMMMMAASSSSFSSFFFDDDDDDFHHHDDDDJGGJJJJJJGGHWWWWEEEEQQWWWQQ~~~~~~~~~QQQQQQ!_/Ybxs32zlzlllzzzkjt2<::==o....oo@@............#..#O2lk1:@=<<1322tss2<@#.#.##O*8qqqqqqq975555555555*&&&&&&&&&&&&-1==#                                                                                                                                                                         ",
"                                                                            @=.X                    .-&5555555555566666679qqqqqqqqpZBBBBBBAMMAAMAAASSSFGFFGJJJFDDDDGHHDDDDDJJGGGJJJJGGGEWWWEEEEQQQWWWQQ~~~~~~~~QQQWEE!ZZPbztszllllllzllzkkk1::==#......##...............#<lYbl2<==<<<122sss23:@#..#.#-*9qqqqq978555555555*&&&&&&&&&&&&&&&-1                                                                                                                                                                         ",
"                                                                            =**--=@#X               .<-08555555556666666699qqqqqqqZBBBBBBSSSSSSSSASSSSFGGJJJJJJDDDDDFJDDDDDJJJJJGJJJGGGHWWWWEEWQ~~QQWWWQ~~~~~~~QQQEEKZZgcPxslvnlllllzllzkzz2<1:O........#...............O3b''bvk3<:=<<122tsks23<O..#..#-*9qq0885555555555*&&&&&&&&&&&&&&&&@                                                                                                                                                                         ",
"                                                                            =&&&&&&*--==@.           X.=>-00855556666666679urqqqqNVBBBBBBSSSSSSSSSSSSSSDGJJJJJJDDDDDDDDDDDFGJJSSFJJJJJGEWWWWWWQ~~~~QQWWQ~~~~~QQQQWEKZZggcYczlvvbbvnllllkkkz21y1-o.......................O2b''''bls1::<<1322sskk2<O###...#-*88555555555555*&&&&&&&&&&&&&&&*O                                                                                                                                                                         ",
"                                                                        #@.O-&%&&&&&&&&&-.          .O#=%$%-08555666666q99eZqqqqqZBBBBBBBBASSSSSSSSSSSSDJJJJJJFDDDDDDDDDDDFJJFSSSGGJJGHWWWWWWQ~~~~~QWWQQ~~QQ~QWWQEKZZgfcYYxzlnvbYbvvlllkkkkt3st>-oX.....................O2v'''''Yvzt333<<132tskkt3:@#..#..#--&*5555555555&&&&&&&&&&&&&&&&-.                                                                                                                                                                         ",
"                                                                        --->-&&&&&&&&&%&>X          @%%$$$$$*555566urquZCeMMMNqeCBBBBBBBBBSSSSSSSSSSSSSGGJJJJJJJFDDDDDDDDDFGJSSSFGHHHHEWWWWWWQQ~~~QQWWWQ~QWWQWWEEZZZxfdxbblzzlllvvvbvvlkkkkstddy>*%oX...........#@O.....Otnb'''''Ybvnzs2111322tsst23<@##....#o&**5555555*&&&&&&&&&&&&&&&&-X                                                                                                                                                                         ",
"                                                                        &&%&&&&&&&&&&&&&:           =$$$-*$$*509u6rZMuZMMZMMMMZZMBBBBBBBBSFFFFFFSSSSSSSFGGJGFJGFSDDDDDSDDSSFDSSSFGHHHEEEEEEWWWQQ~~QWWWWWQWWEEEEEKZggxdslcnzkzzzzzlnvbbvlkkkktddy008*$oX#X......#@=@@#...@2lvbY/'''/'''vzs2113322tttt23<@#.#..#o%***55555*&&&&&&&&&&&&&&&&=                                                                                                                                                                          ",
"                                                                       X&&&&&&&&&&&*1=--:           O%$*0008057NNCCMMMMMMMMMMMMMMMBBBBBBBVSFFFFFFFFFFSSSSFGFSSFSSSASDSASSASSSSSSSFHHHHHEEEEEEEEEQQQWWWWWWWEEEEEKZgffzzszxzkkkzkkkkzllvvvllkktdfyyuu0*%$ooX....#=@@=:=O.O1kzlnvbY//'`]]`/vz21111322ttt221:O..####o%**5555*&&&&&&&&&&&&&&&&=                                                                                                                                                                          ",
"                                                                       o*&&&&&&&&&&-O.X#.           O=$*855566uMMMZMMMMMMMMMMMMMMBBMMBBBBVVFFFFFFFFFFSSSSSDSSSSSSAAASAAAAASSSSSSSFHHHHGJHEEEEEEEEEWWWWWWWWEHEEEZafxdzzszzkkkkkkkkkkkkzllvvnzttdyuffu05&%$oX...#1<@@:<==2zllzzlcbbb']}}}]'vzs3<<11322tt222<@#.O@###%&**55*&&&&&&&&&&&&&&&*@                                                                                                                                                                          ",
"                                                                        Xoo%*&&&&&&-               .@3->855566uCMC7uZMMZeMMMMMZMMINZMBBBBBVSFFFFFFFFFSSSSSSSSAAASAAAAAAAASSSSSSSSJGGHHHJJHEEEEEEEEWWWWEEEEHJGEKCfdzzzzkklkkk2tssttskkkkzlvvvxdddffffu05&$ooXX.#=<<:<<<tnbbvxzzzxcvY`}}}}]/vxk211<<112222tt3<O#O@###o%**5&&&&&&&&&&&&&&&&-.                                                                                                                                                                          ",
"                                                                            XX#o%--O              X<>tyy55556677Nr66rCZNqqNMMCuCZfuCMBBBBBASSFFFFFFFFSSSSSSSSAAAAAAAAAAAASSSSSSSFJJJJHHHHHHEEEEEEWWWWWEEEHGJHEVayddszlkkzkss222222222tskklvbbvxffffffu0*%$ooXX.o=<<1<tb''bbvvxzzzzv']}}}]`'/nk23<<<<1322tkt2<@+@@O#.#o&*&&&&&&&&&&&&&&&&-X                                                                                                                                                                          ",
"                                                                                 #:.          XX  X-%855555566677766qqeqqqqeCeqeZZCZMBBBBBBASFFFFFFFSSSSSSSSSAAAAAAAAAAAASSSSSSDJJJJJHHHHHHHEEEHJHWWWEHEEJJGEKCp0dsszlkskk22333333332222kklvbbbcxffffuy0-%$oX..##@:=<l'`'YbbbbczkzxY`]}}]]]]bzkt3<:<<1132ttt231<@@@OO#o-%%&&&&&&%&&&&&&&=                                                                                                                                                                           ",
"                                                                                    X         X.  #-%*855556666666679qqqqqqqqqqNMMBMMMBBBBBBVFFFFFFFSSSSSSSSSAAAAAAAARAABBASSSSDGJJJJHHHHHHHHGHJJJGEEHJGGGJHEKCy0dssszs2ks332111111111132kklnccbPcxfddyy0*-%o####O@@<l']`'//Ybbczzzv/``]]]}}Ylzzt1::<<113tttkt223<@@@@O#o%%&&&&%&&%&&&&&=         .X                                                                                                                                                                ",
"                                                                                              @>=@<-%&85555666667667qqqqqqeeqqNMMMMMMMMMBBBBBVSFFFFFSSSSSSSSAAAAAAAAAMMMMBBSSSSSSJJJJHHHHHHHHJGJJGGGGGGGGFGEEKC0>ydysz22kk22311<<<<<<<<132tklzzxxxxddddyyy>>>>:::1<3tzY'`'''Ybbvvvccb//'`]}]bzzzk1==:<<11132222223<+@@OOO#o$%%&%&&&&&&&*@      .X#O@X                                                                                                                                                               ",
"                                                                                              =*&**&&&8555566666666qqqqqqqNZCeMMMMMMMMMMBBBBBBBVSFFFSSSSSSSSARMRAAAAMMMMMBASSSSSSJJJJHHHHHHHHJJJJJJGGGGJJFHHHFC0>3dyss23st333<<<<<<<<<<<1132lxcvbbbYYYYYccxxxzzzzlxnccbY/'``'/bbYYbbbbbb/`]]vzzzs<@=<:::<<111333333<<+##@@O#o%%%&&&&&&&-#     X=$$$=X                                                                                                                                                               ",
"                                                                                              O&&&&&&&8766666666666qqqqqqeZMMBMMMMMMMMMZVBBBBBBBBBSSSSSSSSBAAMMMMAAMMMMMMMASSSSSFJJJHHHHHHHHHJJJJJJJGGJJGGHHHFC0>>dsss3<22111<<<==<<<<<<<<<2nbbYYYY/////YYbbcccccccvvncvb'```''''''''bbvb'``ckkzt:@@<<@@=<<<<11333223<+#O@@@#o%%%&&&&&&=X      @$$$-.                                                                                                                                                               ",
"                                                                                              -&&&&&&&5966666666666qqqqqqCMMMMMMMMMCBBNwCZBBBBBBBBBASSBBABMMMMMMMMMMMMMMMMMMSSSSSJJJHHHHHHHHHJJJJJJJJGJJJGHHHKCy>>3sss2<13<<<<<<===<<<<<<<<2vYYYbbbbYYYYYYbccccxxxxxxzkzcb''```]]]```'Ybbb'/ztts2@##<<@@@=<<<<<1332223<4@@4++OO#%%%&&&&=X      #%$$%.                                                                                                                                                               ",
"                                                                                              -&&&&&&58766666666666qqqqqNMMMMMMCCZZeeCpwwpZVBBBZVBBBBBBMMMMMMMMMMMMMMMMMMMMMSSSSSSGGHHHHHHHHHJJJJJJJJEHGFDDGHECw>>>d3y3<13<<<<<====<<<<<==:3nbbbvcccxccccccxxzzzzsskst3sznbY'']]}}]]]`'/bbbbs3321@..@@##O@@=<<<<1322hh22233,,,,@#o%%&&&=       .-ooX                                                                                                                                                                ",
"                                                                                             X-&&&*8766666666666667qrqqeZMMMMMBqquewwwewwwwCZBZeCZBBBBBMMMMMMMMMMMMMMMMMMMMASSSSSFJGJJJJJHHHJJJJJJJJHEEEFDDDGHVe>>>3>>3:<3<:<<====:<<<<<==:1lnnlzzzzzzzzzzzxzzzzstttt33sklnvb'`]}}}}]]`''/Ybs<<1<#...#..#O@+@@4<<1332hkkkkm34,44@@@o%%&@        X                                                                                                                                                                   ",
"                                                                                             #*&&&*5766666666666667rZIuZMMMMMMeqqqqwwwwewwwweCCeeeCZMBBMMMMMMMMMMMMMMMMMMMMASSSSSFGJJJJJJJJJJJJJGGGHEEEEHGDDJFSC0>>>>=1:<1<=<<=@===:==::===<kzzksttszzzzzzzzxxxzzssts22kzlnbY'`]}}}}}]]``''bs<:<=.........#O@++@,<<322kkkkkmh34;4<<@#$-#                                                                                                                                                                            ",
"                                                                                             O&&&&*576666666666666qZMMZZMMCCMNqqqqqwwweewwwwweeeeepZMMMMMMMMMCZMMMMMMMMMMMASSSSSSSFGJJJJJJJJJJJJEHGHEEEEHHHFJJFCw>>11=:>:<<=::=====@@===@@@=tzkst311tzzzzzxxxxxxzzksstszxvbb'''`}}}}}}]]]`'bt1<<=............O@+@,<<32hmkkzllz2<<131@OO.                                                                                                                                                                            ",
"                                                                                             -&&&&*5766666666669667CMMCCZIq7u9qqqqwwwwwwwwwwwweeeeCMMMMMMCIZZeeCBMMMMMMMMMASSSSSSSSGJJJJJJJJJJJHEEEEHHHHHHHHHGFVa0>>3>=::<=@=:====@@@@@@@O@=3tt31:=:3zzzzzzzzzzzzzzkkskzlnvbbb/'`}}}}}}}]]'vk21<@.............#O+,<<1322hkznnnlzkk22314O.X                                                                                                                                                                          ",
"                                                                                             -%&&&5587666669769ZC777NZq7er9779qqqqwwwwwewwqqqqeeepZMMMMMBeeCeqqqeZMMMMMMMMMASSSSSSJGJJGGJJJJJJHEEEEEHHHHWEHHEEHFCy>>>3:::=@======@@@@=@=@==:<1<<:===1kzzzzzzdtsskkzzkkkkzllnnvvb/']}}}}}}]Ylks2<@...............@@,<<1332hkznvvvnnlm322<O..X                                                                                                                                                                        ",
"                                                                                            X-%&&*558766667CMqNMMZq66766667777qqqqwwwwwwwwqqqeICpZMMMMMMeqqqqqqqqZMMMMMMMMMSSSSSSSFGGJGGGGJFDFHEEEEHHHHEWWWEEEEEFa0>>3:@=@@==:==@@@@@=:::::=========1tssddddy>13tt22ssttskkzzlnnvb']}}}}}`blzk2<@...............O+@<<<3332hklvvvvvvz2<<<4@O..X                                                                                                                                                                      ",
"                                                                                            X*&&&*55576666NMMZZMMC766666666666qqqqqqwwwwwwqqqZBBZVMMIZBCqqqqqqqqCMMMMMMMMMMAAAASSSSDGGGSFFJDDJHHHHEHHHHWWWWQWEEE!Zp>>1:@:@O@:<:=@@@@@@===::==:::<<<<1tttydfdy=:<t2<12st222tsskzlnbb'`]}}]'bnlz2<@##..............O+@<<<3332mlnnnvvvlkh1@4<<@...X                                                                                                                                                                    ",
"                                                                                            O&&&&*55576666qMMCuZCq666666666667qqqqqqqqqqqqqqCZBBBBMZqqCuqqqqqqqqCZMMMMMMMMAAAAAAAAAASFDSSSFDDDJHHHHGHHWWQWQQQQEWQ!C0>>3:@@@@<<:===@@@@@==:<::<:::::::33yyffy0==:1<:::3t211132tsklnvb'`]]`/bbnz2<=@O#.............#@+@<<<332hkkkklnvvlk2<;@<1@....X                                                                                                                                                                  ",
"                                                                                            -&&&&&&&*8766666Nq7q77666666666667qqqqqqqqqqqqqqZMMBMMZNqqqqqqqqqqqqqCZMMMMMMAAAAAAAAAAAAAAAASASDDDDGHGDDHWWWQWQWWWWQWVe>>1:@@@@:<:=::=@@@@===:=======@=:13yyyyy>-O@@@@=@:131<:<<132kllvb'``Ybbbvz21:=@O#.............O@@,<<<1322232hkzllkh21<44;+@#....X                                                                                                                                                               ",
"                                                                                            -&&&&&%&&57666666666666666666666677qqqqqqqqqqqqCZMMCZBCqqqqqqqqqqqqqqqqCZMMMMRAAAAAAAAAAAAAAAAASDDDDDDDDDHEWQWWWWWWWWWFC0>::@@=@:1<:<:==@@@@@@======@@@@=::>>yy0-ooOO#@@==:<11<=:1112kzlvb/Yvnvbvzt31<=@@O............O@+@,<<<<<131332hkkkh231<<@+<4@....XX                                                                                                                                                             ",
"                                                                                           X-&&&&&&&*57666666666666666666666666669qqqqq9qqquNZZqeCqqqqqqqqqqqqqqqqqqCMMMMMMAAAAAAAAAAAAAAAADDDDDDDDDGHHHEWWWWWWQWEHVw>:::@:=<1<<<<::===@==@@==@@@@@@====-0y0-oo@@#@@@@@:<13<=:<<3ttkznvbnllnnzs231<:=@@#..........#O@@@,4<<<<<<<<332hkkkkm23<444;@@#...X                                                                                                                                                            ",
"                                                                                           X*&&&&&&&*57766666666656666666666666669qqqqqqqqqrqueqqqqqqqqqqqqqqqqqqqqeMMMMMMMAAAAAAAAAAAAAAASDDDDDDDDDFGEEEEWQWEEWEHHSN8=::@:::<:<<<<<<<:====@@=@@@@@@@@@-=>00-$o=@##O..#@@:33<@:<113tkzlnnlzlllkt223<<:@@O#........#OO@@+@,,,@,,<<<132hklvlk223<,+@4@@#..X                                                                                                                                                           ",
"                                                                                           #&&&&&&&&*58766666666555566666666666679qqqqqqqqqqqqqqqqqqqqqqqqqqqqqqqqqMMMMMMMAAAAAAAAAAAAAAASDDDDDDDDDDDDHEEEEWWEEHHHHDBw>:::@@@:<131<<<<<:==@@=@@@@@@@@@@@=>00>%o=@........#@11<::<<<32tklllzzzzzkst231<<=@@@O......#OOOO@+++++@@,,4<<332kllllzm23<4;4<<@..X                                                                                                                                                          ",
"                                                                                           -&&&&&&&&*5576666666655556666666677667qqqqqqqqqqqqqqqqqqqqqqqqqqqqqqqqqNMMMMMMMMAAAAAAAAAAAAAASDDDDDDDDDDDDGGHEEEEEEEEEGFSN8>::@O@<222<<<<<<====@@@@@@@@@@@===>00-%-=#..........@<1<<<<<<<2tkzk2tkkkskkt2231<<::+O#.....#OOOOO@@+++@@@,4<<<13kzlnnlkkk21<114+#.X                                                                                                                                                         ",
"                                                                                           -&&&&&&&&*55766775666555566666666qqqq9qqqqqqqqqqqqqqqqqqqq79qq99999qqquMMMMMMMMMMRAAAAAAAAAAAAAADDDDDDDDDDDJGGHEEEEHEEEGGFBe8=:;@3k23<,,<<<4====@@@@@@@@@@@@==>00-%-=#...........O=<<<=::<12ts2:<2kt3tkst22311<<:@O#.....#####OO@@@++++@@@4<32kkkllllk2314;@@@@O..XX                                                                                                                                                     ",
"                                                                                           -&&&&&&&&555808505555555566666666qqqqqqqqqqqqqqqqqqqqqqqqq777779779qqrZMMMMMMMMMMMMAAAAAAAAAAAAADDDDDDDDDDJJJGGGHEEGGHGGGFVCw>=:3sk1<4<<4@@@@+++@@@@@@@@@@@@@==00-%-O.............#@<1<:<<<<121@@<23<<3tt223331<<:@@#..........#.OOOOO++++,<13332klllk23331;@+<<+...X                                                                                                                                                    ",
"                                                                                          X*&&&&&&&&***555585555555566666666qqqqqqqqqqqqqqqqqqqqqqqq9777777777qqNMMMMMMMMMMMMMAAAAAAAAAAAASDDDDDDDDDDJJJJJGGHHGGFFFFFVBC8=<ii2<<<1<<@+OOOOOOO##OOO@@@@@@---0-$%O...............@13<<<<:<1<@#@===:<12s233331<<:@@#...............O@@@@+@<<<<1222mkkmi233<+,44+#...X                                                                                                                                                  ",
"                                                                                          #*&&&&&&&&&&&&&***85555556666666667799qqq9qqqqqqqq779qqqqq97777777779qqNMMMMMMMMMMMAAAAAAAAAAAAASDDDDDDDDDDJGGJJJGGHHHHHHHFV_Zy=<3<2kkh231<<@@@#.......#O@@@@@O-->-%-O...............#@131<<<<<:#.#.##@=:122222331<<:@@O#...............##.O@++@@<<1332kkkkk23<@OO++;O...X                                                                                                                                                ",
"                                                                                          =&&&%&&&&&&&&&&&&&85555556666666666667qqqqqqqqqqqq799qqq7777777777779qqqCMMMMMMMMMAAAAAAAAAAAAAAAASDDDDFFDFJGGGGJGGHHHHHWW!!!_0@;;1kllkk2231<<<=@.........#O@@@=->-%-o..........##....O@<11<<<<@.......O@:132223311<<<=@@#..................#O@@+@<<<332hkkkkh234+##@;@@..X                                                                                                                                               ",
"                                                                                          ==--*&&&&&&&&&&&&&85566666666666666667qqqqqqqqqqqq779qqq9777777777667qqCMMMMMMMMMMAAAAAAAAAAAAAAAAAADDFJGGGGJGJGGSFHHHHEWWWW!C>;;<2kkks222333111<=@........O@@O==-*%%o..........#O....#.O@<<::<@.........@<<132233311<<<@@O...................#O@+@<<<1332hmkkm23<4@+4114@#.X                                                                                                                                             ",
"                                                                                            X+>**&&&&&&&&&&&5556666666666666666qqqqqqqq97797779qqq979q9777766667qZMMMMMMMMMMAAAAAAAAAAAAAAAAAAASFJGJFGGDSFFSSFHHHHEEW!C0:<32ii22222233311111<=@O......#OO====-%o............#OO##...@:::=@..........+:<<33222311<<<=@O##.................O@@+@<<<<1322kzkmh22344333<4#.X                                                                                                                                            ",
"                                                                                             O>*5*&&&&&&&&&&&876796666666666666qqqqqqqq77777779qqqqqqqq97796557rCMMMMMMMMMMMMAAAAAAAAAAAAAAAAAAASFGFSSFSSSSSSFFFHHHHFC0::<32i22222233111<<<111<=@##...#O@==--%%o..............OO.....@=:@#...........@:<<12222311<<<@+@#.................#O@+@@,<<<<32mkzzzzzkkkzkm234O#.X                                                                                                                                          ",
"                                                                                             @8*5*&&&&&&&&&**885576666666666666677qqqqq97777779qqqqqqq976776676eZMMMMMMMMMMMMAAAAAAAAAAAAAAAAAAASSDSSSSSSSSSSFFFHHKVp>:;;412ms222223111<<<<<<<1<@##OOOO@@-=-%o%o...............OO.....#@=@............O@<<<3222331<<<<@+O.................OO++@@,,,<<3kznvbbvvvbbnkm244@#.                                                                                                                                          ",
"                                                                                             #****&&&&&&&&****5555766666666666666669999777797799qqqqqq966666669qqNMMMMMMMMMMRAAAAAAAAAAAAAAAAAAASSSSSSSSSSSSFFFHFVp0::@O@;12222233311<<<<<<<<<<11=#.OO#@@=-Oo#oO...............OO#.....#@@@............#@<<<3222311<<<<<@@#................OO@+@@@@@<3knvvnlzzllkk234++4+..                                                                                                                                         ",
"                                                                                              X#o-&&&&&&&&****5555766666666666666667977777777779qqq99976666666666rMMMMMMMMMMMAAAAAAAAAAAAAAAAAMMBSSSSSSSAAAASSSVp0=@;@##O;<11111<<<<<<<<<<<<<<<<11<#...O@@@O#.O@...............O@@O......@=@@............+<<<1322311<<<<<@+#.................O@+@@@@<3zllk222223<<4,+.#@@@.X                                                                                                                                        ",
"                                                                                                 -&&&&&&&&****555506666666666666666777777777777799777766666666666NMMMMMMMMMMMMMAAAAAAAAAAAAAAAMMBSSSSSSSAASDSBe8-@@@#..O,4;;<::<<:<<<<<<<<<<<<<=:13<O....O##...#...............O@@@O......@<<@............+@@4<322311<<<<<4+.................#O@@@@412kk2311333<4,@@@#...OO.X                                                                                                                                       ",
"                                                                                                X-&&&&&&&&&&&*55558766666666666666679977777777777777776666666666rNMMMMMMMMMMMMMMAAAAAAAAAAAAAMMMBASSSSSFSSDFVq*o#@@#.#++<<@@<:===::::::<<<<<<<<=@:11=@.........#................O@@@#.....#<23@#...........O+@@<132331<<<<4,+O.................O@+@<3ms31<<131<4@@++@O.....O.X                                                                                                                                      ",
"                                                                                                .-&&&&&&&&&&&**555576666666666666666777779797777777777666666666669CMMMMMMMMMMMMMAAAAAAAAAAAAMMMMMAAAAADDDDSVw%X#@#.#@;@@+@<322<:====@@==<<<<<<<:===:<<@#.......#....................##.....@1k2<OO#.........O++@,<32331<<<<4,@+O...............#O@+<3231<<<<1<4@+++OOO........                                                                                                                                      ",
"                                                                                                #*&&&&&&&&&&&*55555070006666666666667766777777777777776565666666667NZMMMMMMMMMMMAAAAAAAARAAAMMMMMMAAAAASDSBq%X#@#X.@<<@#@<32kks2<<:==@@@=44<<<<<==@@<1<=O.........O@.................@......43kk1<+O.........O+++@<32331<<<<<,,+O................O+<33<<@@,<<<@+OOOOO##......@.                                                                                                                                     ",
"                                                                                                O&&&&&&&&&&&&*55555808556666666666666666799976666667776665666766669quMMMMMMMMMMMAAAAAAAMMMRMMMMMMMAAAAAAAN8o#@#..#@;<:@@1hkkkkzks21<==@@@@=<<<<<:==@=<<<<@O.......@@.............@...OO.....@<2kk2<@@#........#@++,<323331<<<<<4+@...............#+<1<<@++@<<@+OOOO####......O.X                                                                                                                                    ",
"                                                                                                =&&&&&&&&&&&&****5555558766766666666666667777655566666666666666667qqCMMMMMMMMMMMMMAAMMMMMMMMMMMMMAAAAAAMq*XX##X#@;<<<:<2klllzllllk221<<<4@@==<<<<<:=@@:111<@......@@.............O...#O.....@;12lls<@@@........O@+@<33333333<<<<<@@...............O@<<@@@@+@@+@OO##.............                                                                                                                                    ",
"                                                                                               X=&&&&&&&&&&&&&&&&*555555077896666666666666666555556666666666666677qeZMMMMMMMMMMMMMMMMMMMMMMMMMMMMMAAAAMq$XX##.#;12i222kllllnvlllllkkk23<<@@@@4<<<<<<@@@<12t1O.....@=O.................OO....O+:1skk2<<@O.......OO@+<<13333333<<<<,@@O..............O@@@O#O@+++@O#...............X                                                                                                                                   ",
"                                                                                        X      .-&&&&&&&&&&&&&&&&*5555558555776666666666655665555566555566665566767quZMMMMMMMMMMMMMMMMMMMMMMMMMMMMMAAM7oXX##.#432ksskzllllvbbvlkkkzkkk3<<<<@@@444<<<<@@@=122=#....@<+..................#....#O@:<32k23<+........#O+<<<133222333<<<,@+O.............#@@#...O@@@.................#.X                                                                                                                                  ",
"                                                                                       ..      #*&&&&&&&&&&&&&&&*5555555555587677766666665555555555555655666666666666qCZMMMMMMMMMMMMMMMMMMMMMMMMMMRAMq$XX#@#@<is2232klllllb''vlk22kkk23<<<<<,@444<<<<<=@@:<<@@@..O=<+..................#..##..O@:<12223@O........O@@<<<132222231<<<<,+@O...........#@O.....OO.....................                                                                                                                                  ",
"                                                                                       @@X    O@*&&&&&&&&&&&&&&&*555555555555790876666666555555555555556666666666666669uZMMMMMMMMMMMMMMMMMMMMMMMMMARN%XX#@;;1kk2222knvvvlnbbbvlk33333323<<<<<<4,==4<<<<<=:<=+@@..@<<@..................O........@@@@<321@O........O@<<<<13332223<<<<<<@+@#..........O#............................X                                                                                                                                 ",
"                                                                                       =*---O#@=&&&&&&&&&&&&&&&&&&****5555555555586666666555555555555556666656666666667qqCZMMMMMMMMMMMMMMMMMMMMMMMMN8XX#;<32kzkk22kvbbbbvllvvvk23<<<<331<<<31<<@@@=4<<<<<<<=+#..#<1<4#.................#........O@@@+<331@...@+#..#+@<<<<13332223<<<<<<@@@@#.......................................                                                                                                                                 ",
"                                                                                      X-&&&&&*-*&&&&&&&&&&&&&&&&&&&&&&*****5555555665555555555555555555666665666666667997qMMMMMMMMMMMMMMMMMMMMMMMMM9oX#;<32klvlzkkvbbbb'bvkklvlh3<<=@<<<@@<131<@@@@4<<<<<<<<4+...<31<@...........................#..O+@<1<+.O@<@O.O@+@<<<<<113322331<<<<<<=@O.......##..............................                                                                                                                                ",
"                                                                                  XO...*&&&&&&&&&&&1=--&&&&&&&&&&&&&&&&&&&&******578**8555555555888576556666566666667qq97NMMMMMMMMMMMMMMMMMMMMMMMMN5##;<32klvbvlllvvbb|'bvk2kllk21<@@@+@@+@<11<<@@@@44<<<<<<<<+#.O<11<+................................#@<<+@@<<@++++@,4<<<<<13322223<<<<<<:@@#.....O@..............................X                                                                                                                               ",
"                                                                                  =---=&&&&&&&&&&%*1X.#-&&&&&&&&&&&&&&&&&&&&&&&&&***&&85555555580*8008776666666666667qqq7NMMMMMMMMMMMMMMMMMMMMMMMMq-@;<2klnvb|bllvbvb||bvl2132klk23133+.#@+4<<<<<@@@=4<<<<<<<<<<+#O<1<<+.................................+<@++@@@@@@@@,,,4<<<<<33hhk231<<<<<<=+O....@@................................X                                                                                                                             ",
"                                                                                  =&%&&&&&&&&&&%&&*= .#*&&&&&&&&&&&&&&&&&%&&&&&&&&&&&&85555555580%%%&**y7566666666667qqq99eCMMMMMMMMMMMMMMMMMMMMMN8::32zvvvb|'bzlvvvb'''bvk21<322kkkk2+...@@<<<<<4@@@=4<<<<<<<<<<4O@<<<@@.................................@+@@@++@,@@@@@,4<<<<<133hhh2231<<<<<<@@#..+@#............................+...                                                                                                                             ",
"                                                                             X.X X-&&&%&&&&&&&-1>--=.O@&&&&&&&&&&&&&&&**&&&&&&&&&&&&&&&85**88558*%%%%%&8765655666666799999qqNZMMMMMMMMMMMMMMMMMMN0><32zvbvbb''vzlllv|'''''vz2<<<<32klj<O..#+<<<<<<<4@@@4<<<<<<<<33<O+<<<@....................................O.OO+@@@@@@@@4<<<<<<1332hh231<<<<<<<+OO@@.............................+O...                                                                                                                            ",
"                                                                             @-=O=-&&&&&&&&&&&=##O1--1-&&&&&&&&&&&&5558*&&&-*&&&&&&&&&&&&&&y00yy&%%%%%*055566566665566779qqqqqCMMMMZMMMMMMMMMMMNq><<3kvbbvvb|bnklzkvb''''/vz23<@4<12zkk1O..@@<:<@<<<<@@@@,<<<<<<<11<@=<1<@...................................O....+@@@++@@@@,4<<<<<132hk231<<<<1<<@@=@.....#............................X                                                                                                                           ",
"                                                                             @&%&*&&&&*&&&&&&&O   $%%&&&&&&&&&&&&&55555*&&*#X#==-**&&&&&&&&=-$-*%%%%%%*076555666666666667qqqqqquZMMCCZMMMZZMMMMq0<33slbbbvbbbvkhk22zvb'''vk313<<4<<2lvvl3O..@@@@@@<11<@@@@=<<<<<<<<<<;<<<@@..................................@....+@@++++++@@@:<<<<<132jkh33<<<<11<<<+....OO#...#......#####.........O...X                                                                                                                          ",
"                                                                             =&&&&&&&-#Xoo-**-#   $&&&&&&&&&&&->-**55558*&-X     X:&&&&&&&*O-$$$$%%%%&>00y007755566666667qqqqqqqrCZqquZMMqeCMMey323iklvbbbbbvk223<<3klb'bvk2331<<=43lbbvk<...@@@@@<13<<@@@@<<<<<,<<<<@@<<<@O..........#@OO###...............@+...#+@@+++++++@@@4<<<<1132kkm23<<<<<131@...OO@O#####....#OOOOOOOO#.....+@...                                                                                                                          ",
"                                                                       .X=1:@=&%%&&&&-X    XX#X  X%&&&&&&&&&&&#X.@:y0088&%=      X=&&&&&&%%X-$$$$%%%%%%%*--00yy7666666669qqqqqqqqqqqqqqCCqqqCNu32iimkkzlnlzkm231<@@,<2klllllkk31<@@+1lbbl2@..O+@4=4<<1<4@@@@,@@:@<<<<@@+<<<+..........<231<<<<<<=:@+O###O+@O+@@@+@@@@@@++@@@@@@@,444<1332kkkh31<<<322<@@@@+++O@OOOOOOO++++@@OOO#.....O@#..X                                                                                                                         ",
"                                                                       X.-&&-1=---*&%=           X%&&&&&&&&&&&X    @===<:>O       =&&&&&&%% O$$$$%%%$%%%%%%%%&0056666667qqqqqqqqqqqqqqqqqqqqq012kkmiimmkkk233<<<@OOO+<12kkkkkt23<@@O+2vbbl3O...+<<4@@<<<4@@@@@@@@@,<<@+@+<<@..........<2311333113223<<<<3221@<<<<@+@@@@@+@@@+++@,,,,<<<132kllk21<<3223<<@@@@++@+++++@@@@+@O#...........##..X                                                                                                                        ",
"                                                                        #-%&*=X.O@==-=           o&&&&&&&*-**-.    X             X-&&&&&&&o X$$$$$$$$%%%%%%%%%-75666666677799qqqqqqqqqqqqqqq8>izkkkkimmmkkm231<+.X...O@<3223<<131<@@+1lbbbl<#..O<1<<+@4<<4@@@@@@@@@<<<@+@+@@@.........<<@+411<<<1331<<<1133<@<<<<@+@<@@@+@@@++++@@@@,4<<<32kllkh3322s2331<4@O#......##......................X                                                                                                                       ",
"                                                                        @&&%-@     X.X       .X  o&&&&&&&-.XX#.                  .*&&&*&%&=.X%$$$$$$$$%%%%%%%&87566666666666669qqqqqqqqqqqq902kzkkkkkkzlllzk214O.XXX X#+<11<++4<1<4+@<2vbbbk,...+133<@@41<=++@@@@,@<<<@@@@+@@+........@<@@413<<<11111113113<@+<<<@@+<<@@@@@@++++++++@@,,4<32kzllzkkk22333<,+#..........#OO@@++@+@@O++O#......X                                                                                                                      ",
"                                                                        @1-*-@             X.=1=@*&&&&&&&=                       @&&&*1::1=  -$$$$$$$$%%%%%%%*87666656666666667qqqqqqqqqqqq03iiisklnvvvbbblz21@O.XX   X.@+@@@O+<<<<=@@<kvbbv3@..#@321@@+<3<+++@@,,@<<<@,@@@+@@@.......+<@@<223222kt22222hkk<+@<31@O@@@@++@@@@+++++++++@,4<132klvvvkk3111<<,O...+<,,<<<1332kkkzzk21<<<<<@#..O...X                                                                                                                    ",
"                                                                         OXX@X              #*&&&&&&&**&&=                   XX  :&&&-#  X   O$$$$$$$%%%%%%%%*85666656666666666qqqqqqqqqqq0y2222klvbbvvbbbvlk14@#..XXXXX#O@++@@+4<44=@@<kb'bl1@...@321@@+1<@+++@@@@@<<4@@@@+@4@+......<<@@<kkkkklllkkkkllll3<+=13<@OO@++@@@@@++++++++++@@<<132mlvvk2<<<<<<@#..#<22hkkkkzllvvbbbvl3<<<===@..OO...X                                                                                                                   ",
"                                                                                            =%%&&&&&*@@==O                  .:=O@1&&&>X      #%$$$%%%%%%%%%%%*75666666666666667qqqqqqqqq98>322iknvvvlllnvbbvlk3<@OO##...#O@+@@@O@@@4<<4<2nbbvl1O...=33<+O@<<+++@@@;4<<<@@++@+@<@@.....<1+@@32332klkkkkkklll3<++<<<+OOO@+++@@++++++++++++@@<<<13kll214,,4<<+....+<32kkkklllllllllk<@@OOOO#...O....X                                                                                                                  ",
"                                                                                            =&&&&&&&-   X                   O-%&*&&&&-   X.@=-%%%%%%%%%%%%%%%-76666566676666669qqqqqqqqq8>O:2zlnvnlzkkkklvvbbvl2<=@@@@OOO@+@44+@O@@@<<<<<hlbbvk<O..#@13<@@@<<@+@@@@@@<<,@@+@O+@<@+@O.#<1+O+1<@@<333333332221+#O@+++OO@@+++@@@++++++++++++@@<<<12kk3<@+@@,,+.....@,132222222223223@#.........#.....                                                                                                                  ",
"                                                                                           X=&&&&&&&-                       =-&&&&&&&=.#==-*%%%%%%%%%%%%%%%%%875666666566666669qqqqqqqq8>@;2zvvvlkstkkkkllnvvbvlk231<<=@@@@,<<4@@O@@@44@;1kvbbvk<....+13<@@<<@++@@@@@@<<@@+@..+4<<@O.#<1+O+<<+@@<<<<<<<<<<33+...OO..O@++++@@@@++@+++++++++@@,<<1223<+++@,,+.....@<33333323333113<@#...............X                                                                                                                 ",
"                                                                                           .-&&&&&&&O                       :*&&&&&&*@@%$$$%%%%%%%%%%%%%%%%%*06656666656666666qqqqqqqq8-@;3znvllk2222kkzlllvvvvvlzkkt231<<<<<<<<@@O@+@@@@<3kvbvl2+....@<<@+@<@+++@@,@,<<;@@@..O@<<<+@O<<+@+<<@@@<@++@,<<<<<<+#.......@@++++@@@@@@+++++++++++@@4<322<++++@@+.....+<<<1<<<11<1<<<<:@O#...............                                                                                                                 ",
"                                                                                           #*&&&&&&&o                      X<&&&&&&%-##$$$$%%%%%%%%%%%%%%%%%*05555666665776667qqqqqqq9-:;3zlllks22222tkkkllvvvlllllzkkk223322231<@@#O+@@@@<2lvvvk1O....+<<@+@<@+@@@@@@@<<,@+O..O@<<@+@@4@O@31@@@<@++@;<<<<<<+#........@<@@O@+@@@@++++++++++++@,<1234+O++@@+#....+@<<1111111<<<:@@@@O...............X                                                                                                                ",
"                                                                                           O&&&&&%&*X                      .-&&&-=>-:X.%$$$%%%%%%%%%%%%%%%%%-0565666666566676779qqqq95:<2zllkkt2222222222klvvvnllllzkkkkkkkkkkk23<@##@@4<@<<2lvvvk<O....+4@@+@@@@@,,@@@<<4@@@...O;<@++@@@O@33@+@<;++@,<<<=:<<@........O<<+#.O@@@@@++@@+++++++@,4121,+O+++@+#....O+@,<<<<<:::=@@@@OO#...............X                                                                                                                ",
"                                                                                           -&%&&*&&-X                      O-%&&=X..X X%$$$%%%%%%%%%%%%%%$$$*888756666666666666667qq8-:3kzzkkkk22222233322kklllllllzkkkkkkzllllzk2<+OO+@@@4<1klvvl2@....O@@+@@@@@@@@@@@@<,+++#...@+@@+@@@O+33<@<<<@@,4<<<<<<<+...#.....@<4+O.O@+@@@++@++++++++@,<3<@+O++++O#.....#O@@@@@+@@@O#.....................X                                                                                                                ",
"                                                                                          .-&&%-====                       @-&&&@X XXO-%%%%%%%%%%%%%$$$$$$$$%&&*y76666666666666669q9*:3ikzkskk223333113333332kklllkzllzkkkzllnvllk2<@OO++@@<<3klvvl1O....O@++@,,,@@@@@@@<@+++O.....#O+@@O.@13<<<<<<<<<<<<<<<<+#.........O+++#.O@+@@+@@+@++@@+++@<<<@@OOO@OO..........O..............................                                                                                                                ",
"                                                                                      XO.XO-&&&=X                          +1=-y<#O=%$$$%%%%%%%%%$$$$$$$$$$$$%%%y6666665666566676775:32imkkkk2333311113223332jkllkkklllkkkkkllvvvlk3@@@@@++@<<2klvl2+.....O++@,,@@@@@@@@<,+++@.....#@@@O..O<1<4<<<<<<<<<<<<@<=O...@.......O@+OOO@@@++++++++++++@@<<@@#.###..........................................X                                                                                                               ",
"                                                                                      @>1==-&&*:                           XXX@<-$$$$$$$%%%%%$$$$$$$$$$$$$$$$%%&y666666556666666665=<322hkkkk233311<132tt232klllkkmkkllk22kkklvvvnl21<@@#O@+@<12klnk<O....#O+@@,@@,@@@@4<@+++@.....#:31@.#O@<@@@<1<<<<<<<<4@1<@@..@O.......+<@O.O++@+++@+++@++++@:<@+...............................................X                                                                                                               ",
"                                                                                     X=&&&-=@=>+                            X X@%$$$$$$$$%$$$$$$$$$$$$$$$$$$$%%*06666666666666655*=<33322mkk2311333132kkkkkkllllkm22kzlk222kkzlvvvlk23<@OOO+@<<12kll2@.....#+@,@@@@@@@@4<@+@@@......@22<@<@+<@+@<1<<<<<<<<@+<1<<@@@+O.......+@+OOO@+++++++@+++++@@<@@................................................                                                                                                               ",
"                                                                                     .>&%&=.X##                                X-$$$$$$%$$$$$$$$$$$$$$$$$$$$$$%80666666666666655*-;;4132hmm2331333222kkkkkzllllkk2222klzk22tkkllvvvlk23<@@O@@<<<3kllk1@.....O+@@+@@@@@@@,@+@@@......#@1<<<:@<@++<<<<<4<<<<+@@3223<<<<4+O.....O@@@OO@+++++@@+++++@@<@@...........................................O....X                                                                                                              ",
"                                                                                     O-%%&=                                   X.=$$$$%%%%$$$$$$$%$$$$$$$$$$$$$%y766666666666655*=;;OO432m223311332skkkllllllllllk2233kllk222hkkllvbvlk23<@OO@@<<12kll2@.....#O++++@++@@@@@+@@@........O@OO@@@<@+@<<<4@@<<@@++2kzk222223<O.#OO#O@=+OO@O@+++@@+++@@@4@@................................................X                                                                                                              ",
"                                                                                     X@=--@                               X.O@==%$$$$%%%%$$$%%O#@=$$$$$$$$$$$$*y66666656666665*%:;##O<32233131113kkzllnvvvvllvvvks2332kkkj222tkkllvvvlk23<@O.O@<<3kllk<@......O##O++++@@@@+O@@......##.#OOOO+<@@+@44@@@@@@+++3kllzkllzk2<@@@@O.#@@@OO.#@@@@@@++++@4@O................................................X                                                                                                              ",
"                                                                                       XX.X                             O=:=-%$$$$$$$%%%*-%oXX   O$$$$$$$$$$$%-y56656655666665%O@##O;323331113332kllnvvvvbbvvb|bzs33332kkk2222tkkllvbvkk23<+..@@<12klk3@.........#@+@+@@@@+@@@.......#..O+@O#@+@@@@,@@@@@@+++<12kkkklllk1@+@@@O..@=@O#.O+@@@@++@+@<@O.................................................                                                                                                              ",
"                                                                                 X                                      @-$$$$$$$$$$$%-OXX       X$$$$$$$$$$$$%-*587655666655*=@###;123332222mkkllvbbbbbbbbbbb'bl233333kkk222222kkzlvvlkk23<O.#@4<3klz2<O.........O+++@@@@+@OO..........@@+@..@@@+@@@@@@@++@@++<<<<12kkk3=@@@@@O..@=@O#O@+@@@+++@<<4@.................................................                                                                                                              ",
"                                                                                .1-=@.X                                 O-$$$$$$$$$$$%X          X%$$$$$$$$$$$%%%%*0666665555=@###;32mmkkllllvvvbbbbbbbYY'''bbbvk231332kllkk2222tkklvbvlkk21@..#+<1kllk1@..........O++@@@++OOO..........@@@@O.O@@++@@@@@@@@@@@@@@@@@@:322:##O@@O...@@+OOOO+@@@@@@<<<@.................................................X                                                                                                             ",
"                                                                                X-%&*=.                                 Xo$$$$$$$$$$$$#           -$$$$$$$$$$$$%%%*766666555-:;@;<2kzllnvvbbbbYYY''''|Y/'''''bbvlk33333klllkj232222klvbvlkk3<O..O@<2klk2<O.........#@+++@++O#OO.........O@@@O#.#@@@@:::=@@+@@@@@@O#...@12<...O@O....O@+@OOO+@:@+@<<@O.................................................X                                                                                                             ",
"                                                                                .-&&&<                                  X=$$$$$$$$$$$$#           O$$$$$$$$$$$$%%%876665555*:<33szlnvbbbbbb/YYY''''''|bbbbbbbbbvlk233332klllk233332jklvvlzk21+..#@@1kkk23@..........O@@+++@O###..........#......O+@<<<<<:@+@@@@OOO....#@11#..#@O.....O+@OOOO+@@@@@<@..................................................X                                                                                                             ",
"                                                                            @O#X=*&%*=                               X#O--$$$$$$$$$$$%=X         X#%$$$$$$$$$$$$%%00776655&=<2sznvbbbbb|''''''''''|bbbbvvnlnvvvvllk23332klllk2333332kzlvvlkk34#..O+<32kk2<O..........#O@@+@OOOO..................O+<<<<<<=@@@OOOO#...O@O<1#...O@.......#OO@@@+@@@<<@#.................................................X                                                                                                             ",
"                                                                            =&*-1:--=.                           XOOO%$$$$$$$$$$$%-===.X        X.O%$$$$$$$$$$$$%%**80008*=:2znvbbbb''''''''''|''Ybvvnlllkzzllvvllk23132kllllj3333332klvvnlk2<+...@@<3mkk3<@...........O@+@@@@O...................O@<<<<<:@@@@OO##...@<<31O..#O@O........O+++++@@<<4O.....O.......................................O...X                                                                                                             ",
"                                                                           X>&&&-O#@.X                           .=$$$$$$$$$$$-==@.X X         @--$$$$$$$$$$$$$$$$$$%%%*-=:2zvbb//b/''''''''|bbbbbvllkkkkkkkklllllkk313kzllnlk23333332klvvlk21=#..#+<32kk23<#..........#O@@O@OO................O...O@=@@@:@@OOOO#...O@<32<=#OOO@O........O+@@+++@<<<@....@@+@O.......OOOOOOO@@+@@@@@@@@@@@OOOOO...O....                                                                                                             ",
"                                                                           .-&&&=X X                             .=$$$$$$$%==@.X               =$$$$$$$$$$$$$$$$$$$$$%$oo@3klvbbbbbb'''''''''bbbbvllzzllzlllkkllllkk233klllvlzh23233332klvvlj3<+...O@<32km21+...........OO..#O#................@#...#O..@;@O#OOO#..<2<<2312@#@@@@.........+@@@++@<<3@@OOO+<=@O...............#.......#O####............                                                                                                             ",
"                                                                           Xo$%*@                                 =$$$$-=@#X                   @$$$$$$$$$$$$$$$$$$$$$oXX@:2kznvvvvvvbb'''''''''|bbbvvvvvlnnlkkkkkzzkm22kklllllk233333332kvvlk3<<O...+<<32k23<#.........#OO.....................#@........++#..##...<lk:<11t<#O+@@..........+<<<<@<13<@+O.O@O...........................................                                                                                                             ",
"                                                                                                                 X#%$$$@                       #-$$$$$$$$$$$$$$$$$$oXXX#@;32kzlllllnvvbbbb|''''''''bbbbvvvvlkkkkkklzkkkkkllllvlk23333132klvnk23<+...O+<32k23<+.........O@@O###..................O........#@O#.###..<vv<+<321#.@@O...........+<33<<<3@@@...O#.##O##OO@@@@@@@@@#.........................X                                                                                                            ",
"                                                                                                               XO-%$$$$o                       @-$$$$$$$$$$$$$$$$ooX#@@@O@<3ikllllllnvvvbbbbbbbb''''|bbvvbbvlki2kkkkkkkkkkllnvvl23331133iklvlk3<@....O@122231@.........O@@@@OO#.............#.............O@O#.####=kl1O=1<=#..#.............O@<<<<<@O....OO@<333tttzt1>>>:::@.........#====Oo#.###.#..X                                                                                                            ",
"                                                                                                            Xoo$$$$$$$$-.                  Xoo$$$$$$$$$$$$$$$$$ooX#@;;@O#+12sklllllllnvvvvvvlllvbbYbbbbbbbbvvkk222kkkkkkkkllvvbvk3<<<<132klvvz21<O....+<22331<O........O@++@@@O#...........#O#.............O#......#<2<#@<@#....................O@@<@......#:tzzzxxxPxyy1>>1:=#........=3311>--ooo#.@O..X                                                                                                           ",
"                                                                                                           X$$$$$$$$$$$%X              X@o$$$$$$$$$$$$$o=-$$$$oXX@;;@####;32kzllllzzllllllllkkzllllllvbbbbbvvlki222kkkkkkklllvbvk3<<<<<132kvvlk3<+....O<3331<<O.........@@@@@@O#.........#OOO#......................=<@.O@........................#<<......@yzxxxccPYYPdy1111>:@#......@3yy1>1>%ooo#@OO#X                                                                                                           ",
"                                                                                                            $$$$$$$$ooXX                #%$$$$$$$$$%oXX..=$$ooX#;<<@###O@432kzzzkkkkkzzzkkkkkkkkkkkkklvbbbbbvlzkt222jkkkkkkllvvvl2<<<<<<13klvvk3<@....#@131<<<@.........O@@@@@O#.........@@@@####...................@@#............................O@.....#<zxxxcPPYUUYxdyyyyyt1=####..O1tt1>yy-%oo#OOOO#X                                                                                                          ",
"                                                                                                            o$$$ooXX                   X.-$$$$$$-oX    XX@$oo#@;<<;#X#O@;<332ttt222222tskkkkkkkkklllkllvbbb'bvlzkm222jkkkkkklnvbvk3<<<<<132kllk2<<@....@<1<<<@@..........................@:@@O#O#...................##....................................@yxccccPY^^^^Yxdyttttt1=@@@O#o=yyy0yyy>-o#OOOOO.X                                                                                                         ",
"                                                                                                            XoXX                        .=$$$-@XX        Ooo#;<<;;@##O@41333133311<1113222222skkkkzlllllnvb''bvlkkkkkkkkkkkkklvvvl2<44<<<<3klllm1<@O...O,<<<@+O........O@+#...#..........@<@@OOO#.......#.................................................<zcccPPP^^^^^^Yxyyyttty1:=@@OO=:yyyyyyy>-#OO--O#.X                                                                                                        ",
"                                                                                                                                      X#==$$$-.         X#@:<33<;<<;4133222222231111111322223332kkklllllllvb''/vlkkkkkkkkkkkklvvvvk3<44<<<12kllk3<<@....+<<;@@O........@+4;@@<<#.........#@@@OOOO...O..#O................................................O2xPPccPY^^^^^^^Pfyyydtt3>=@@OO-=:yyyyydy-O=O---O..X                                                                                                       ",
"                                                                                                                                     O=%$$$$$%@        X#@<<3iiiii222kkkkskkstt222222222323311132kkkkllzlllvb''Yvlkkkkkkkkkkkllvvvlj<4@@<<<2kllz21<<@...O@=@@O...........@@O#;<#..........@=@@@@@O##@O##O#...............................................OtbYPPPPY^^^^^``^cdyytttt3:=@OOo%=>yydddy0-=O---O#..X                                                                                                      ",
"                                                                                                                                     X%$$$$$$$O      XXO;<33ikllnnnnvvlzkkkzzzkkkkkkkst2222311132222kkkklllvvb''bnzkkkkkkkkkkzllvvvz34@+@<<3kkllk31<@....@++@O...........#@..<<#..........#@@@O@@@OO@+O#OO#..............................................OtcYPPPPY^^^^^^``Uxdytdstt1:=@Ooo-->ydffdy=-=O--OO...X                                                                                                     ",
"                                                                                                                                     XO$$$$%-=@     X#;::::<3sznvbbbbvvvnnnvvvnnllllzkkkt2222232222kkkkkllvbbvb'Yvllzkkkkkkkkllllvvl34+++<<32kllk231<@...#@@@O#..............:;..@.........O@@@@@@O.@:@O@@OOO............................................OtxPPPPPY^^^^^^`^^Yxyttstt31:=@Ooo->yyffdy0>>--OOOo...X                                                                                                    ",
"                                                                                                                                     .=%-=@#X      X@<3<::::32klvbbbbvvvbbbbbbvvvvvvnllzkksskkkkkkkkkzzkzlvbbbbbbbvvvllzkkklllllllvl2<+@+<<32kkllk313<O...O@@O#..............@#.O@#O........O@@@+@...@<@OO@@OO#..........................................#3xcccccY^^^^^^^^^^Pfdddstt31=@=@Oo->yyffdy0>=-OO-OX..XX                                                                                                   ",
"                                                                                                                                X   ##=@X         X@<3<:::=:3szlncvvvvvvbbbbvvcvvvvvvnlllzlllzzzzzkkzzzzzlnvbYbbvvvbbbbvlllnvvnlllvvk<@@+4<322kllk2333<....@OO...............@..#@#@O........##......#@@O#OO@OO#.........................................#1dxxccxPUUU^^^^^^^Ycddddstt3:===-O---yyddy0>>--O--O....X                                                                                                  ",
"                                                                                                                              XXOoo%$$$#         X#<33<:::::2szzzznnvvvvbbvvvvnnnnvvvnnnnnnnnnnlllllllllllnnvbYbvlvb|''bbvvbbbvlllvvl3@@+@<332kzlzk3321+...OO................@..#@#@O..................OO.#O@@O#.........................................#>tdxxxxPUYUU^^^^^^^Ycddddsst3:===-%-->yydfy8>>---=-O#...X                                                                                                 ",
"                                                                                                                              .=$$$$$$$@.       X.@;<<<<<<<3tskzzlnnvvvvvvvvvcnnllnnvvcnnnnnvvvvvnnlllnlzllllvbbvllvb''|bbbb'bvlllvvvj<+@+4132klllk3122<.....................@..#@#@O......#............#..OO@OOOO..................OO#.....@O.....@O.....=yydxxxPUYYU^^^^^^^^Yxfddddtt3>:==-%--0yyfdy0>>-->-OO...X                                                                                                 ",
"                                                                                                                              .-$$$$$$$=.      X.###;;:<<333tszzznvvvvvvvvvvnnnllnnnvcnnnnnnnnnxlllzzzzkkkkllnvbvllvb||||bbb'bvvvnvvvz1+@+@<32klllk3<32<#....................@..O@#@O......#................#OOOO@O.................O@OO#...<@.....++#...#=1yydxcPUYYU^^^^^^^^^Ucxfdddyyy11>=-%->yyyyyy8>>>>--O#...X                                                                                                ",
"                                                                                                                               #$$$$$%=@X     X#####@:<111<12szlxvvbbbbbbvvvvnnnlnnnnnlllllzzzzzzzkkkkkkkt2klvvnnvvvbbb|''bbbbbvvvvvvl24@@+<12kkllz23321@....................@..O@#@O.........................#OO@O#................O@@OOO..@<@....+<@....=>>0yxcPYUUU^^^^^^^^^^UPcxfddyyy31>>--0yyyyyyy00>>---Oo#..                                                                                                ",
"                                                                                                                               @%-=O#.X      X#@####@<331<:<3szlcvbvbbbbbbbvvvvvvnnnnlzzzzzzzzzzzzzzzzkkks2tznlzlnvbb''''''bbvbvvvvvvnk1+@+4132klllk2223@............@@......@..#@.OO..........................##O#................OO@@@OO..@<<....O<+...#=>>>yfLPYUUU^^^^^^^^^^^^YPccxxdytyyyyyyuuuuuuufd0>>---OoX.XX                                                                                              ",
"                                                                                                                               .@@X         X#@##O@:<1221<:<3kzlnnvvvvbbbbbbvvvvvvvvnllllllllzzzllzzzzkkkkktkllkklvbb'''''''bbbvvvvnnll2<@+@<32klllk2223<O...........+#......@..#..##..............................................O@@@@OO#.#<<.....@@...#:>--0fxPYUUUU^^^^^[^^^^^^UUUUYxfddddxxxfuuffufgfy0>---=-oXXXX                                                                                             ",
"                                                                                                                                           X#@@##;:<32231<<3tkkzlllnvvvvbbbbvvvvvvvvnllllllllzzzlllzzzkkkkkkkkkkkklbb'''''''bbbvvvvnlllk1++@<12kllllk223<@...........#.......@..#...#.......#.....................................O@@@@OOOO..@+.....@O...#=>-*0yfLYUUUUUU^^^[^^^^^^^^^^UYPPccxxLLfffuuufffy0>>-->-=OX#XX                                                                                            ",
"                                                                                                                                           .@#X#@<33333322skkskkzzzllnvvvvvvvvvvnlllllllzllzzzlllllllzzkkkkkkkkkkklvb/'''''''|bvvvnlllnlt<@+@<2kllllkk21<@..................#@..O..OO.......O........................#.........#OO@@+@OOO@@..@O.....O....#=>-*00yxPYUIIUUU^^^^^^^^^^^^^^UUYPLgLLxffffuuuffuy0>>>:>-OO##X                                                                                            ",
"                                                                                                                                          X@O##@<32332skkzkkstsskkkzlllnvvvvvvvvllllllzzzzzzzzlllllllllzkkt2tkkkkkznbbbb/'''''|bvvnllllvl3,+@<3kklllkk21<+.....#.....#......#@..@OO@O.......O........................#........#O@++@+@@OO+@O.............#=>>-00yfLYIYIUUU^^^^^^^^^^^^^^^^UPLfgLfffffuuuffuu00>>>>>=O##XX                                                                                           ",
"                                                                                                                                          #@#@;12i222kzzzksttttttskkkzllllvvvvvnllllllzzkkkkzzzzzzzkkkzzkt3322tt2tklvvbbb'''''bbbvnllllvvk<@+412klllkk21<@O...#.O...#@......@#..OO++O#O#.............................O........O@++@+++@OO+4+....O#........=>>>00yuLPYYUUUU^^^^`[[^^^^^^^^^UPLfgCCffffuuuffuyy000>>>-O###XX                                                                                          ",
"                                                                                                                                         X@@O;<22t2ssskkkstttttt22tkkzzllllvvvvvnnllzzkkkksskzzkkzzksskkkk31122222kkllvvbb//bbbbbvvllzlnvn24+@<3klllkk21<@#.....#...........@#..OO@@@O@O............................#O#......#O@++@+++@@O+<+.....#........=>>>00yuxPPYUUUU^^^^`[][`^^^^^^^UYLLCCLCffffuuffu0yyy0>>>>--O##XX                                                                                         ",
"                                                                                                                                        X##O;<32232sssssstttttsst22tkkzllllnvvnnvvllzkssssssskkkkskssskkkk21132222skklnvbbbbbbbbvvnllzzlvvz1@+<32kllkk21<@O.................@#.#@@4<@@@@............................#O#.....OO@++++++++OO+@@.....##.......O=>>000yfLPPYUUU^^^^^`[[[^^^^^^^^UPPLCLLffgfffuuu00uy000>>=--ooXXX                                                                                        ",
"                                                                                                                                       .@##@<122<<32ttttt222tskktt2tkkzzlllnvvnvvvnlzkkkkkkkststtttskst22kk2113313tkzllvvvvbbvbbvvllzkzlvbv24+@<2kllzk21<@O...OO...#.X  X...;O.O@+<<@@=@##O.........................#O#..##OO@@@@@@@++@OO@@<+....#.#......o=>>>000ufLPPIUUUUYU^^`[`^^^^^^^^^UPPLLLgffLLLCffuyuuyydy>>---O#XXX                                                                                       ",
"                                                                                                                                      .@@O@41333<<<322t2222ttkkksttskkkzllllvvvvvnnlllzzkkkksttttttsst213tk2133313tklzlllvvvvvvvvnlzkkklvbvl1@@<3kklzk21<@O...OO.....    X..:O.@;@<<=@=@#OO...........#.............O@OOOO@@@@@@O.O@++@OO@@<,O............#-=>>000yfxLPYUUYPPU^`[[^^^^^^^^^^IIPPLLgfgLLLLLffuuuy0yyy0>--OOo#X                                                                                       ",
"                                                                                                                                     X@@#@;<111<:<3332222tssskkkkttkkkkkzzllnlnvvvnnnnnllzzksttttskkst212t23111332tkzzzzlnvvvvvvnllkkkklvvbvj<@412kllk311<+#...O..#.X    X..<@O@@+<<@@=@#OO...........@#...........#@@@O@++++++@...@+@@@@@+;@@#.#OO.......#--*>000yffLPYIIPCP^^[[[^^^^^^^^^^UUIPLLLfCLLLLLCffuuyy00y0>>>-=OOoX                                                                                      ",
"                                                                                                                                   X#@@O#@<<<<<<<<33322tskkkkkkkkstskkkkkklllllnvvnnvvvnllzkkkksskkkst22tt31111332skkkkkklvvvvvvlllkkjklvvbvz3<432kllk231<@O......#.     X.#<@@;@@<:@@@@#OO..........OO#...........@<@@@+=4@++@O...@+@@@@@+++@O.#.##.......o%-*>00yufgLPIPCCP^^`[``[][^^^^^^^UUPPLLgLLLLLCLCffuuyy00000>>-=OOX                                                                                      ",
"                                                                                                                                  XO@@=@@=<1<<11333332tkkzkkkkksst2tsskkkkllllllvvvvvnnnllzkzzzkkkkkttkkkt21113332tkkkskkzlvnnllllzkjtklvvvbnk1<12kllk233<@@.......X     X..@.@;@@<=@@@@.OO..#.......O@O...........@1<@@@<<<@+@....@+@O@++@@@OO##.##.......oo%*>000yufLPPLCLU^^^^`[]]][`^^^^^^UYPPLLLLPLLLLLCCffuuy00000>>>>=oX                                                                                     ",
"                                                                                                                                X#<33<<:::13113222ttttskkkkkkkkss222tskkkkzllzllvnvvvvvnllzzlllzzkkttkkzkkt2333222tt222tkkllnllzlzkj2jklvnvbvl2112kllk233<@+#...O#.      X.###@<;@<:@@@@.O@..O.......O@O...........O<<+@+<14++@.O<+O@@@@++@@OOOO..OO.......Xoo->00y0yuCLPLLIU^^^^`[]]]]`^^^^^^^UPPPLLLPPPPLLLLLCfffyyyy0000>-OX                                                                                     ",
"                                                                                                                              X#:3sk2333<<3ttt22sskzzkkksssskkkst222tskkkkzlllllnnnnvvvlllllllllzkkkskzlzkt2313222222332kkllnlkkkkk22jllllvbbnk3<3kllk231<@+#..+@..      X.###+<;@::@@@+#O@#OO.......O@O..........@<<<4@@@<<++@.@k<O@++<<+@@OO##..##.......XoX%*00000rfCPPIUU^^^^^[]]]][^^^^^^^UYYPPLPPPPPLLCCLLLgfffuyyydy0>-oX                                                                                    ",
"                                                                                                                           XX@;3ikzkk222222skkkkkllnnlzkkksskkks2222tskkkkzlllllnnnnnnnlllllnnnllzkkkzlllkt23112tt22233tkkllllkkkkk22jlllllvvvl213kllk231<++O..@@.X       .##.+<@:::@@=@O@@O@#...#...O@O........@<2k1+<<@+@<@+@#O21OO@+<<++@O..#..OO.......XoXo*000880fCLPIUUU^^^^[]]]][^^^^^^^^UYPPPPPPPLLLLLLPPLgffuyyyyy0>-OXX                                                                                   ",
"                                                                                                                         X#@;<3izllllzkkksszzkkkzlnnnvnlzkkstsst2222tskkkkzllzzlllnnnnnlllllnnvvnlzzzllllkst3112ttt222skkzllllzkkkt22jlllllnvvlh33kllk231=+@.....#X       .O#.+<@:::==:@O@@@@#.......O@O......O<2kk3<+<22<<<<@+OO<@.#@@@@@@OO.....OO.......XoXo->00080uCLPPIIU^^^^^[]]]][``[`^^^^YYPPPPPPPLPLLLLPLCCffyyyyyy0>-OXX                                                                                  ",
"                                                                                                                       X#;:<<<32zlllnnnlzkzllzkzlnnlnvvnnllksst22222ttskkkkzkkkllllnnvvnlllllnvvnllzlllnnlkt222tkktttkzzzllnnlzkkj222klllklllllk23kllk23<@@@.....X        .@@#,<O<<<==<@@+@@@#..#.##O@@O...O@+<223<<<<3kk14@<<+@.O#.#@@@+@OOO....##O........XXX%*00y00rfCLPIII^^^^^[]]]][``[`^^^^UYPPPPPPPPLLLCLLCCfffuyyyyy00>-OX                                                                                  ",
"                                                                                                                     XX@@:<<;:<3iklvvvvlzllnllzllnllvvvnvvvlzkkst222ttsskkkkkkkkzzzllnvvvnlllnnvnllzlllvvnzkttskkkkkkllllllnvnlk22233knlkkkllllk22klkk21<@O..@..X         .;@O,<@<<<:<<=@@@@+#..#.@@OO@O...@=<<3<+@=<<<13<@+@@@@.....@@@@@@O#.....#OO.......XXXo*0yyrrrufCPPIU^^U^^[]]]]][[[`^^^^UYYPPPLLLLCfffffCCfffuuuuuy00>>-#X                                                                                 ",
"                                                                                                                    XX#O;;;@@@;<<ilbbbbvnvvvllllnnllvvvnvvvvnlzkkkkkkkkksskkkkkkkkkzllvvvvvvnnnnnlllllnvbvlkkkkzzzlzzzzzzllnnvlk23332kvlkkkklllkh2kzkk3<,#...@.X         X.@##,4@<<<:<<=+@@@@O..O#+@O#OO..O@@<@@OO@+<<<@<<@+O@+@.....@@@@@O###....OOO........XXo%0yyurrruCLPIU^UIU^^[]]]]][[`^^^^^UUYPPLxxxgffffffCCCCfffuyy0000>=X                                                                                 ",
"                                                                                                                   X.#@@;;@@@@::<2zvb/bbvvbvlllnvnlnbbvnvvvvvvnlzkkkkkkkkkkkkkkkkkkzlvvvvvvvvvnnnvnllnnvbbnzkzllzllllkkkkzllnvlk33332lvlkkkkkzzkkkkkkh34@...@..          X##.#,4@<<<=<<@@=@@@O..O.O##.@@@O+=::+OO++@@@@++@@+OO+@O....@@O@@OOOOO..OO++..........o$-yyurr90fCIIUUUIU^^`[]]]]][[`^^^^^^^UPPPLPPLLLCfCLCCLLCfuuy00y00>=X                                                                                ",
"                                                                                                                  XX#@@::;;;::<332klvbbbbvvvnnnvvvnvbvvvvvvvvvvnllllzzlzkkkzzkkzllzllvvvvnvbbvvvvvvnnnnlvvvlzzzlllzllks2szlllnlk3333jnvlkmhhkkkkkkkkk2<,+..@@.X          .@#..,,+::@@<<@@=@@@O..O.....@1<@:<<@@O@@@+++++O+@+O#O@O....OOOO@@@@@O#OOO++........XXoo*0yury99uCPIIIIIU^^^`]]]]]][`^^^^^^^^YPPPPPPPPLLLLLLLPLLffuy0yy00>OX                                                                               ",
"                                                                                                                 X###@@@;:::<332iskzlcbbbbbbbbbbbbvbbvvvvvvvvvvvnllllllllkzllzzllllllvvvnnvbbbvvvbbnnvnllvvlzkkllllllkk2tklllllk3313kvvzkhh2hmmjkkkkm24@+#O@.X           .@#..+O+<4@@<<@@:=@@O..#...O#<3<@<<1<OO+@++@+++++++@O#O#....#OOO@@@+@OOOO@@+.........ooo%*yyrr09rCLPIIIIU^^^^[]]]]][`^^^^^U^^UYIUIPPPPPPLLLLLPPPLffuyyy00>=X                                                                               ",
"                                                                                                                 .#@@@@@:::<3222skkzzzlnvbbY'//YYbbbbvvbvvvvvvvvnnnnnnlllllllzzlllllllvvnnvbbbbbbbbvvnlnvvvlzkkzllllzkkkkkzllllk3113kvvzkh222hhhjkkkh34OO@@.X            .@@.O@#@<@@@<<@@:@@@@.......O11==<11:@@++++@@@++++++O##......OOO@@@@@@@OO@@+.........ooo$*0yrrrrefCLPIIIU^^^^^[]]]][`^^^^UUU^^UUUUYPPPPPLLLLLPPPLLffuyyy0>>OX                                                                              ",
"                                                                                                                X##@@;@:<1322222skkzkkkzznvbYb/'///YbbbbbvvvvvvnlllnvnnnnnnlllllllnlllnvvvvbYYbbbbbbvnnvvvlllzkzllllzkkzkkkzlllk2113zvlkkh33222hjkkm234#.@..             .@@#@@@@<4@@<<@@:@@=@.......O1<::<<<@@@@@++@@O+++O++O#.......#OOOO@@@OOOO@@+.........Xo$$*00rufeeffCPIIIIUIU^^[]]]][^^^^^UU^^^^UUUUYPYPPLLLLLPPPLLCfffyyy0>=#X                                                                             ",
"                                                                                                               X#OO@@;;<13333332skkkkkkkklnvvvbbbbbbbbbbbbvvvvnlllllllnvvvnlllllllvvllnvvvvbbbbbbbbbnlvvvlllllzzzlllzkkzkkkkzlllt332lvlkk2333222jkk23<+..O.X             .@@#;:O=<<4<<<+@:=@<<==:@@O@<3111<<<@@@O@+@@OO@+++++O#.........#OO@OOO#.O@@+..........o%%%*0yuffereCLIIIIYPYU^^[]]]]`^^^^^^^^^^UUYUUUIYPPLLLLPPPPPLCfffuyy0>-X                                                                             ",
"                                                                                                              X@@@@@@;:<1<<<<<132kkkkssskzllllnvvbbbbbbbbbbvvvlllllllllllllllllllllnnnnnvvvvbbbbbvvlllllllzzzlllllzzzkkkksssklllk33klvlzk2333222kkk21@O....              .#.#::O=<<<<<<+@:<3tzlllzzzllllnlk2<@@@@@@@OOO++++++O.............##.....O@+..........o-%%*80rfferrfCPIPPPPPYU^^`]]][^^^^^^^^^^^UYIUUUIPPPPLLLPPPPPLCgffuyy0>=X                                                                            ",
"                                                                                                             X.##@@:==:<<<<<::<13tkkkssskzlllllnvvvbbbbvbvvbbvnllllzzzzzzzzzzkkkzllllnvvvvvvbbbbbvllzzkkzzzkkzzlllzkzkkk222tkzllk33klnlzk2333322mkk2<O.@..X              ...O<:O=<<<<<<+@<tllvbbbb'''''''''blk31<=+@OOOO++++++O#..................O@+..........o%-***8rfferrrCCPPPPPPPI^^^[]]][^^^^^^^^^^^UYIUUUIPPPLLLPPPPPLLCffffyy0>o                                                                            ",
"                                                                                                            X.@#@@:::::<<<<:==<<12skkkkkkkzzzzllvvvvbbvvvvvvvbvvnllzzkzzzzzkkkkkkkkzlvvvvvvvvvbbbvnllzkjkkkkkkzlllkkkkks222skkllk33knnllk3113332hk2<@.O+.X               .#.O:=#@<<<<<<@<kllnvbb''''````````''bvkt1@@##O@@@+++OO..................O++..........#o%***59effer9eCCCCPPPPYIUU^^]]][^^^^^^^^^^^UUUUUIIYPPLLLLLLLLLLLCgfffy0-o                                                                           ",
"                                                                                                           XO@@@@<<<1::<<<<:<<<<<12skkkkkkkzzzlnvvvbbbvvvvnnvbvvnllzzzlzkkkkkkkkkkkkllvvvvnnnnvbbbvlllkjjjkjkkzlllkkkkkkt22tkkzlk33kvvllk31<1333221@O@+OX                .@.@;@O@:<<<<<<tlllvbb''''''''''''''`'''bnk3<@@+@@+++OO..................O+@..........Xo-****80uffe9rCCCfCPIIYPPYI^^[]][^^^^^^`^^^^UUYYIIYPPPPPLLLLPPPPPLgfffy>=X                                                                          ",
"                                                                                                          X@;;;;<11<<<<<<<<:<<<:<<32ttskkkkkzzllnvvbbbbvvvvvvvvnllllllllkkkkkkkkkkkkkllnvvvvllnvbbbvllzkkkkj2kkkzzkkkkkks232tkzlk33kvvllh3<<<113114+<<@.                 #@.O4@@@==<<13kklllvbbbbbbbbbbbbbbbbbbbY'bblj3<@@+++++O..................#@@..........Xo%-***80rfCfrrfCCefPIIIPPIIU^[]]]`^^^^^^``^^^UYYUUIYPPPPPPLLLPPPPLCfffy0>OX                                                                         ",
"                                                                                                         XO<33113231<<<<<<<<<<:<<<122ttkkkkkzzlllnvbbbbbvvvvvvnlllllllllkkkktttskkkkkzlllvvvvlnvbbbvnllzzzkktskkkkkkkkks22322tklk33kvvll21<<<<1<44<<<@.                  #@#O4@@@<=<<3szzlllvbbbbbbbvnllllllzzzzlvvbbnk2<<4@@++@O..................@@...........X%**55580ufCfufCCffCPIIIPIIU^[]]][^^^^^^```^^UUUUUYPPPPPPLLCCCLLLCgfffry0>#                                                                         ",
"                                                                                                        X#;32222m223331111<<<<<<<11322ttkkkzzllllvvvvvbbvvvvvnlllllzzzzkkkkst222tkkkkkzllllvvvvvbbbbvllllllkksssskkkkk22231132klz23kvvvz21<<<<<@O+@@#.X                  ...+;OO@<@:<2kkkkzlvvvvvvvnlllzzzkkkkkkkllvbbbl3111<@+@O..................@@...........Xo%-88889rffCffffCCCPIIIPPIU^^]]][`^^^^^`^^`^^UUUUYPPYPPLLLCffCCCCCffffuy0-X                                                                        ",
"                                                                                                       X#:33iiikzks222t2222311113222222tskkzllllllnnvvvvvvvvnllllzkkkkkkkkkkstttskkssskzlllvvvvvbbbbvllllllzkk2222tsk222231112klz23kvbvk3<<<<<+@@@@.XX                   ...@<OO@<@:<3sskkklllnvnnlllzkkkkkssssskkkllvbvz2333<4@@O#................@O...........Xo$*58888refCffueCCCPPIIPPIU^^[]][`^^^^``^^``^^U^UYYYUYPPLLLCCCCCCCCCCgffy0-X                                                                       ",
"                                                                                                     X.@;33ikkllllzkkkzkkkjtt22ttttt22ttskkzzzzzzlllnvvvvvvvvllkkkkkkkkkssssskkkkkttsskkzlllvvvvvvvbvnvvllzkkk2333222222231112kzzt3jvbvk31<<<,O@@@.XX                    #..@@#O@<@<1322kkkkkzllllkkkkkkst22222222kkklvvvzt2223<<+O................O#...........Xo$%*88880rrfffurfCCLPPIPPIUUU^]][[`^^^`^^^^^^^UUUYYYYYPPPPPPLLLPPPCCLCCffy>OX                                                                      ",
"                                                                                                   X.@:<3ikzllvvvnnnlnnnlzzkksskkkkttttskkkzzzzzzlnnnnnllvvvllzkkkksst2222222tstt22tkkkkkzzllnnvvvvvvvvvlzkkkkj231332222231132jzlk32lbvm31<<,@@@;@.                     X#..@@#@@:@<3332sstkkkzzkkksttt2222222222222kkllvvvlk2223<@@...............O............Xoo$%*88800rufffeuCCCLPPPPPIII^[[[^^^``^^YUUUUUUUUUYYYYPPPYIPPPPPPPPLLLLCffy>o                                                                      ",
"                                                                                                  X.@432kllnvvvvvvvvvvvvnxnlzzzzzzksttkkkzzzkkkzzlnlnlllllllllzkkkkks22232222222222kkkkklllllllvvvnvbbbvvlzkkkkk231113322311132klk32lbvk33<4+@;;@.X                     X..O:O#@@==<3313222ttskkkst222232332222222222kkllnvbvlkj223<@..............O.............o$$%*58800rruffeeCCCCLPPPPIII^^^^^^^`^UYYUUUYYYUUUUUUYYPPIIPPPPPPPPPPPLLCgf0-X                                                                     ",
"                                                                                                 XX#@;3kllvvbvvvvvvnllnnnllzzkkzzkkkkkkkzzzkkkkkzlllllkkkkkzzlzzkkkkkt2233331113332kkkkklllzzzlvvvnlvbvvvllkkkkkk31<<1113311132klk32lvvk23<@#@:@#.                      ...@;O#@+@@<11<<322222t22222223333333133322222tkzllvbvnkk2221=...........................o$%%&588890rrfferfCCCLPLCCPPI^^^^^^^^^^^^^^^YYYU^^UUUUUYPYYPPPPPPPPPPPPLLCff0=X                                                                    ",
"                                                                                                XXXO@<2klnvbbvvvvvnllllzzkkst2skkkkttkkkkkkksskkkzzllzkkkkkkkkkkkkkkkk22333111133332jttjkzlzkkllvvnlvbbvnnlkkkkzk21<<<<<1111<13klk22zvnk21<@@;@#.                       O..+@##@++@<11<<<<322223322221111111111111332222skkllvvvls2222+..........................o$%%%*88889ruffuruCCCLLCffCPIU^^^^^^^^^````^UYYU^^UUU^UUIYPPPIIPPPPPPPPPLCCfu0=X                                                                   ",
"                                                                                               XXX#@:<2klnvvbvbvvvnnllzkkst222skktt22222222222skkkkkkkkkkkkkkkkkkzzkkks23331<<1111332222jklllkklnvllvbbvvvllkkkkk231<<<<<<<<<<2kllm2knnk2<+@<@#.X                      X+##@@#O+++@<<<<<:=122231<32231<111<<<<<<<<11113222skklnbbnksss3:O........................o$%%%*888880ufffeuCCCLPCCufPII^^^`^^^````^^^^^YYU^^U^^^UUIPPIIIPPPPPPPPPPLCCff0-X                                                                  ",
"                                                                                               XXX#@;:32klnvvbbvvnllzzkkst222tskst2233331113322tkksskklzkkkkkksskkkzkkkk2231<<11<1133222jkzllzzlllnnvvvbvvvllkkkkt231<<<<<<::1klllk2klnk34O@@...                       XO.O@O#O+@@=<<<::@@<1331<<1223<<<<<<<<<<<<<<<1<113222kkzlvbvlkt23<O.......................Xo$**&588880rufffffCCLLPCffPYI^^^^``````^^^^^^^UU^^^^^^UUUIYIIIIPPPPPPPPPLLLCfu0-X                                                                 ",
"                                                                                               X##@:::32klvvvvvvllllzkktt222tttt2222331<<<113322tsttskzzkkkkkkkkkkkkkkkkk223<<11<<11133222kkkzllllvvvnvbbvvvllkkkt2311<<<<<:<3klvlk2hllm1;@@#..X                       .#.+@OO@+@=:<<==:@@@<131<<<1331<<<<<<<<<<<<<<<<<<113322kklvbvlk223<@O.....................Xo$%*%*58889rufCfffCCCCIPCCPIIU^^^`[[[`^^U^^^`^^^^^^^^^^UUUYYYIPPPPPPPPPPCCCCgfy0-X                                                                ",
"                                                                                              XX#@::::3sznvbbvvnllzzkks2222tsstt222231<<<<1111132222tskkkkk222tkkttkkkkkkk221<13111111322222kkkkkllnvnvbbbvvllzkk223311<<<<<<3klvlk22kk2<<+...X                        .@#;@#O@@@=<1<@@:=@@<111<<<<111<<<<<<<<<<<<<<<<<<<<<13322klnbvlk223<=O....................XXo$**&*80000rffCffCCCCIIIPIIIII^^`[[[[^UY^^^^^^^^^^^^^^^UUYYPPPPIIPPPPPCCCCCCgfy>-X                                                               ",
"                                                                                             X##@::<332zlvbbbbvvllzkkkkkst2tt222tt2231<<<<11111132222ssskkks22kkkkttkkkkkk233133311311332232kkkkkzzlvnvbbbbvvllkk233331<<<4<<12kllzh2m23<<@..X                         ##@4@#@@@=:<1<@@<:@@=<11<<<<<111<<<<<<<<<<<:<<<<<<<<<<3322tklvvlk231<@O....................Xo$****80yyrrufCCCCCCCIIIIIIIPLP^^[[[[^UU^^^^^^^^^^^^^UU^UUYPPPPIIPPPPPPPLLLCCgfy>-X                                                              ",
"                                                                                            X@@;:<332sszcbbbbbvvnllzkkzzzkkks222tt2311<<<<1111113222skstkkks22kkkkst22kkkk2233333111113222332kkhkkkzllnvb|bvvnlzk223331<<4<<<<3klllm3331<@#.X                          #.@<@@@<<=:<1<@=<<@@@<<<<<<<<<11<::<<<<<<:::<:<<<<<<<<<11132sklllk3<<:@#..................XXoo%***800rrrufCCCCCCCPIIIIIPPfL^^^^[^^^^^^^^^^^^^^^^^U^^UUYYPPIIIPPPPPPPPLLCCCgfy>=X                                                             ",
"                                                                                           X#;::<332sszcbbbbbvvnllllllllllzzkksttt233333113331113222tks2tkkskkkk2222222kkkk22223111111322km22kkhkkkklllvb|bvvllzkk23331<<<<<<<3slllk3<13;#.X                           @#;4++<<<:::<<@<1<@@@@<<<<<<<:<1<::::<<::::<::<<<<<<<<<<<11122kklk2<<<=@#..................Xoo$****80yrreffCCCCCCCPIIIPPLfCI^^^^^^^^^^^^^^^^UU^^^^^UUUUYYIIIPPPPPPPPLCCCCCgffy>=X                                                            ",
"                                                                                          X#@:<33332sszcvvvvnnnnlllllllllllllzkktt22222223333333322222222ttkkzzkt2222222skk2222311133332kkkk2kkkkkhhkllnbbbvvlzkzkh23331<<<<<<12zllk1<13@..                           X@@@+O@<<<::=<:=<1<@@@@=<<<<<<=:<1<::<<:<:=::::<<<<:<<<<<<<<<1132kkk3<:=@@.................XXooo$%*&*80rrrruffCCCCCCIIIPPCfCI^^^^^^^^^^^^^^^^UU^^^^^UUUUUUUUIPPPPPPPPLCCCCCgfffy0=OX                                                          ",
"                                                                                         X#:::<33222skzxxnlllllllkkkzllllzzzllzkksssskkkks222333322231122232kkkks22223332tst222233333222kkkkkk2kkk22hklnvbbbvlkkzkk222331<<<4<12lllk<@1<#.X                           .#@,@O@<<<:::<<<11<@@@@@:<<<<<:=:<1<<:::::::::<<::::<<<<<<<<<<<113skt1:@@@O.................Xoooo$%%%*8yrr0rfffCCCCCPIPPPCfCPII^^^^^^^^^^^^^^^^^^^^^^UUUUUUUYPPPPPPPPPPLLCCCgfffy0>OX                                                         ",
"                                                                                        X#:::<33332ttkzzzzzllllllkkkkzlzzkkkkkkksskkkkkkkk2223311133111223332kkkk2333222222ttst2222222222kkzkk22k222hkzlvbbbvllzzkkkkk2231<<@=<2zllk1@<;..                            ..@4+O+,<<:=<<<<13<@=@@@=::<:<<::<<1<:=:::::=::<::::::<<:::<<<<<<132t2<@@@O.................XXooo$$%$&50yr0rufffCCCCCPPPPCfCPPII^^^^^^^^^^^^^^^^^^^^^UUUUUYIYPPPPPPPPPPPPPLCCgfffdy>OX                                                        ",
"                                                                                        .;<::<3332tttjkzzzkkzzzlzkkkkkkkkkkkkkkksskkkkkkk2222233111111113133332kt2332222232tskksim22k2222kkzkkhkk22hhjkzlbbbvlllzkkkkkk2231<=@<2klll1+4@.X                            #.@4O++,<<==<<<:11<<<=@@==:<::<<<::<<<::::::==::::::::===:::::<<<<<122<:@@O#................XXoooo$%%%*80rrrufffCCCCCCPPPCCCCPPIU^^^^^^^^^^^^^^^^^^^^UUYYYPYIYPPPPPPPPPPPPPCCggfffdy>=X                                                       ",
"                                                                                       X@;;::3222ttttttkkkkkkkkkkkkkkkkttttkkkkkkkkkkzkkt2tks22231111111112223322222322223222kkkkkkkkk22kkkkkk222222222klvbbvnlllzkkkkkt233<=@<3klll3+@@.X                            @#@4O+,<<<:@<1<<<1<<<==:@=:::<<<<:=:<1<::::<<==::====:====::::::<<<<131<=O###................XXoo$$$%&&*8yurrufffCCCCCPIIPCCPPPIIU^^^^^^^^^^^^^^^^^^^^UUYPYUUUIIYPPPPPPPPPPPCCCgfffyy0-XX                                                     ",
"                                                                                     XX@@#;<3is32tt222ttskkktttttkkstttttttttskkkkkkkkkk22skkkt222333111132222223222222222222skkkkkkkkjkkkkkkk232222232hzvbbvvnnllzkzkkj231<=@,1klll3++#.                             #.@<OO@<<1<,<<<<<<<1<@::@@@::<<<<<<=:11<==:<<<====:====:<::==:==::<<<11<:@###.................Xoo$o$$&&*80yrrufffCCCCCCIIIPPPPPPIU^^^^^^^^^^^^^^^^^``^^UYPPYUUIIIIPPPPPPPPPPPCCCgfffyy0=oX                                                    ",
"                                                                                     X#@O@<2ii33333332tssstt22222kkktt222222222skkzkkkk222tskkkt222223133332233232222222222232kkkllkkkkkkkkkkm3333333332knbbvvvvllzzzzkj231<<@@<2lll3+@.X                             ..;<++,<13<,<<@<3<<1<@::@@+@:::<<<<<=<11<:=:<<<====::=::=::==:===::<<<<<<@O#..................XXo$oo$%&**8yurrffCCCCCCCCPIIIIPPPPIU^^^^[[^^^^^^^^^^```^^UYPYIUIIUUYPPPPPPIPPPCCCggfffyy0>OXX                                                  ",
"                                                                                   XXX#@;322i2311113322ttt2222222kstt2233222232skzzkkj222sttskksttt221132233332232222tk2222222skkzllkkkkkkkkk23333333332klbbbvvvllzzzzkj2331<@@<2lll3@#.                             X#@<<++<<<3<<<<@13<<31@=<@@O@=:::<<<<:=<11<::<<<<===::=:=::=:::===:::<<<<:=@O#................XXXooo$$%***50uurufCCCCCCCCCPIIIIPPPIIU^^^[[[^^^^^^^^^^`^^^^UYPYYIUUUIIPPLPPPPPPPCCCgffffdy0>OXX                                                 ",
"                                                                                 XX####@<2s223111113332222222222tt2222233333132tskkkt222tkstsskktt2223122233322232222tkst22skkkikkzkkkkkkkkkj22233333332hzbbbvvvnlzkkzkj2231<<@<2llk3@#X                             X#@<4++<<<1<<<<@12<<3<@@=@@OO@:<<<<<<<::<<<<<=<<<<<::::<<<::=====::::::::::@@O.................XXooo$$%&***8ruueefCCCCCCCCCIIIIIIIIII^^^^[[[^^^^^^^^^^^^^^^UYPPYUUUUIYPPPPPPPIPPCCgffffdyy0>=XX                                                ",
"                                                                               XX#@:;@@;<32223111113333222333332tt23222333311132tt2222kkkkk22tttttt2233222332333322232tttttkkkk2kkkkkkkzzkkk22h2231133332kvbbbvvnlzkkzkkkh23<<=<2klk2<#X                             X#@4@O+<<<<<<1<@12<<3<+@=@@O#@=:<<:<<<<:::<<<:=:<<<<<:==:::=::::::::=::::::=@@.................XXooo$$%&&**80uferefCCCCCCCCCIIIIIIIIIU^^^^][[^^^^^^^^^^^^^^^UPPPIUUUIIYPPPLPPIIPPCCffffdyyy0>=XX                                               ",
"                                                                              X#@@;:;;;@;:322331111133323311133322322t2111111133223222kkkkkt222tkjt2222jj22322333322222tkkkkkkkkkkzkkkkzlllkkhkh233111333hlbbbvvnlzkkkkkkkj21<=<2kkk23@X                             X#4,OO+<<<<<<3<@13<<3<+@@=@OO@@::<::::<<:=:<<<:=:<<<<::====:=======::::::::=@@#.................Xoooo$%%%&*80ufu0rufCCCCCCCCPIIIIIIIII^^^[[[[^^^^^^^^^^^^^^^^UPPYUUUUIIPPPLLPPIPPPCgfffdyyy00>OX                                               ",
"                                                                             X@;::;;<<<;;<33311<11111333311111111332tt21111313333332ttttjkkt2222tkjjjkkkk22222231332222t22sskkkkkllllkkkllvlkkkkj231111132zvbbvnvllzzzzzkkh21<=<12k233#                              X@4,+O@<<<<<<3<@<3<<3<@@@@@@@@@=:<::=::<<:=:<<<:==:<<:=============::::::::==@@#................Xoooo%-%$%*580uur0ruCCCCCCCCCPIIIIIIPII^^^[[[[``^^^^^^^^^^^^^^UPPIUUIUIYPPLLPPPPPPCCgfffyyyy0>=OX                                              ",
"                                                                           X.O;::<<<<<<;:<231<<<<1111111111113111132t2233333333333222kkt22t222222tkkzzllk2222222311332k223222kkkzlllllkkllvnlkkkkh23<<1112knbbvvvlllzzlzkh221<=:<32231.                              .@<,@@,44<<<<1<@<1<13<@@@@@:<@O@:<<:=@:::<:==<<<<@@:<<:==============::==:::=@@@@@@#...........Xoooooo-%$%&*580rrr9rfCCCCCCCCCIIIIIIPPI^^^^^[[[[`^^^^^^^^^^^^^^YPPUUUIIYPPLPPPPPPPCCggffyyyyy0>=#XX                                            ",
"                                                                         X.#O@;;::::;;;;:<1<<<<<11111111<<113311<12kkt223333111113322kkkt22222222jkzzlllkkkkkkk2333332kk23222kkkklllllllllvvlzkkkkh3113113klvbvvvlllzzlzk2223<==<1313<.                             X#<<,@@,<<<<=<<<<31<13=@@@@@<1=O@:<<:@@@=:<<<@@<<<:@=<<<:========================@@@@##.....X..XXoo$$oo%%%$&*588rur0rpCCCCCCCCCIIIIIIPPIIU^^^`[[[[`^^^^^^`````^^^YYYIUIIIYPPPPPPPPPPLCgffyy0yy0>>=#X                                            ",
"                                                                       XX#@@@;;;;;;;;@4<<::@:<<1111111<<<<<13211<12ts2223233311<11132j222222jh222kkzzzkkkkkkkk223323322332222kkklllllllllllvvlzkkkk23333<12lvbvvvnllzzlzk2h23<,4<131<@.                             X@<4,@,,<<<4<<<@<3<<31=@@@O@13<+@=<1:@@==:<<<<@@=:<:==:<<:====================@@@@@@@@#.....XXXXXooo$oo$%%%%*5880ufrrrCCCCCCCCCIIIIIIIIIIIU^^^[[]][``^^^```[[[``^^UUYUUUUUYYYYPPPPPPPLggffyyyy00>>=#XX                                          ",
"                                                                      X##@;;<<<:;@@@@@@<<:::<<111111<<<<<<11331<<11322222222311111332t2222222222jkzzkkkkkkkkkk222ikm233332k22kklllllllzzlllvnlzkkkkkk2331<2zvbbvvvlllllzkkj23<4,<333<@.                             .@<4@+@<<<<@<<<+<2<<2<=@+@O@32<@+@<1<===::::<<<@#@<<:==:<:=====================@@O@@@@O....XXooXXooo$$$$%%%%*8888rffrrfCCCCCCCCCIIIIIIIIIIU^^^`[]]]]][^^^^``[[[[`^^UUUUUUUUUIUIIPPPPPPLxgffddy00>>:=oXX                                         ",
"                                                                     .@;@;33233:;@@@@@O<<:<<<<<<<1<<<<<<<<1111<<111132222223332333333222222kj232kzzkkkkkkllzkkkmkkkk223332kjmkklllnnllzkzlllllkkkzkkzk33332zvbbbvvlllllzkkj23<<<<331:#.                           XX#444,@4<<<<@<<@+<2<<3<+@+@#O1k3<@@<1<::::::=:<<=@@@<<<==========@=============@@#..#O@#....XXooXXXooo$%$$%%&&8008yfffrfCCCCPPCCCIIIIIIIIII^^^^`]]]]]]]][``````][[[`^^UUUUUUUUUUUIIIYYPPLLxgfffdyy3>>=OXXX                                       ",
"                                                                   XXO;<;32ii3<;@@@@@@O+=:<<<<<<<<<<<<<<<1<<<<<111113222222322222333333322jkkh2jkzzkkkkzlllkkkkkkkkk2223332kkkklllnvvlzkkllllzkkklkkzk22232zvbbbvvllllllzkkh3<<<<<<<@.X                           X#+4,,4@<<<<<@<<@@<3<<3<+@@@#.1k3<4@<1<<<<::==@@:<:@O@=<:====@@==@==@@@@========@@O............XXXXoooo$%$$%&***0000rffrffCCCPPCCCCIIIIII^^U^^^^^]]]]]]]]]][````]]`]]``^^^UUUUUUUUUIIUIYPPPPLcgffddyy0>:=O#X                                      ",
"                                                                  X#@:<33ikks3:@##@;:@@@:<11<<<<<<<<<<<<111<<<<111113222223322t2223333333222jjkklllkkkzlllkkkkkkkkkkk222332kklllkklvvnllkllnlzkkzlkkzkkh222lvvvvvvllllllzkkj21<<<@O+@.X                          XX#@++,@,<<<<<<<<@@<<<<3<+@<<<@123<<<<1<<<<:==@@@=::@@OO@=::=@@@@@@==@@@@@=@======@@@#............XXoooo$$%%%%***80090rffffCCCPPPCCCPIIIII^^^^^^^^[]]]]]]]]]]````[]]]]]```^^^^^^UUYYYYUUUYPPPPPLcxgfddy0yy3:@#X                                    ",
"                                                                 X#;:<<32kkks3:;@@@:<:@:<<<<<<<<<<<<<<<<<1111111111322ts22332hjjh223333333332jkzlzzkkkkkkkkkkkkkkkkkki2222mkkkllkzlvvvvlzzlllzzllzkkkzkj22hzvvvvvvllllllkkkt21<<@O#@#.                          X#XO4@+@+,<<11<<1<4<<<<<3<+@<333323111<1<<<<<:=@@@@@===@@O@@@==@@@@====@@@===:::<:<<::@#............Xooooo$%%%%****8000yfffffCCCPPPPCCPIIII^^^^^^^^[]]]]]]]]]]]]]]]]]]]]][````^^^^^^^UUYYYYYYYPPPPPLxgfffdddy3>=#X                                  ",
"                                                                X#:3<<<322333<::::<<<:::<<<:==<<<<<<<<:<<111311311322skks23322jh2223333333132hkkkkkkkllkkkkkkkkkkkkkkkkkkkkkkkkklllvvvvllllllllllzkkkzzk22jklvvvvvllllllkkkt21<=@.@@.X                          X##@4,+++<<<1<<<3<4<<<<11<+<32222tt33331<<<<<:==@@=@===:@@O#O@=======<<<<<<<<<<<<<<<<:@O#............Xoooo$$-%$%***50y0yuffffCCCZZIICCCCIII/^^^^^^^[]]]]]]]]]]]]]]]]]]]]]]]```^^^^^^^UUUUYYYYYPYPPPPLPLLPcxxdddy1:oX                                ",
"                                                                .:33333331<;;:::<33<:@:<<<<=@=:<<<<<<<<<<<13311311332kks222332222233333333112hkzlkkklnlllllkkkkkkkkkkkklllkkkkkklvlllvvvllzzlllllzkkkllkjkkklvvvvvlllllllkkj21<@O.#@.X                         X.#O44@+++<<13<<<1<4<1<<11@@122312kt33333<:<<<:=@@@@@======@@OOO@@@@@@@==::::<<:=@@@@@OO##............ooo$$$$-%o$****800yyfffffCCZCPIPCCCPIII^^^U^^^^[]]]]]]]]]]]]]]]]]]]]]][``^^^^^^UUUUUYPPPPPPPPPLLLLLPPPPLxgffy>=oX                              ",
"                                                               X@333<<<<<;;;::<33223<<<<<<@@@@::<<<<<<<<<11333111133322tkkj222h222333333331132hkkkkkllllllkkkkkklllkkzlllkkkkzzlvvlllnvvllzlnnvllzkkzllkmkkklvvvvvlllllvlzkk21<+#.@..                          X.O;4,@+@+<<13<<<1<@<1<<3<@<223<<22231133<==:<:=@@@@@@@@@====@@O##########OOOOOOOOOO@@@@=@@@@O###....Xooo$$$$$$$$%*5**8000rfCfffCCCCIPCfCCIII^^^II^^^^]]]]]]]]]]]]]]]]]]]]]]```^^^^^^UUUUUPPPPPPPLLxxxxxLLPPPLLLggffy>OX                             ",
"                                                              X@323<44<;;;:<33322kkt23<<<:@+@==:::::<<<1113331113333222tkkkjjhhh22333333311322222kkzllzllllllkkklllllvlllzkkkllvvlllllvvlzzlnnnnlzzkzllkkkkklvvvvvllllvvnlkk21<@..@.X                         .#.@44@++O@3<11<<<<@@<1<<3<@3k3<<13331<113<=@@==@@@@@@@@@==@==@@@@@@@@@O@@@O@@@@@@@@@=:<<<<<<<:==O#Xoooooooo$$$$$$%*5***800rfCffffCCCPPCfCCPIII^/II^^^^]]]]]]]]]]]]]]]]]]]]]][``^^^^^^^UUUUPLLLPPPLfffffffxLLLLLLLCCgfy>=XX                           ",
"                                                             X#<3234;;;::<32ssstskkks21<<:@@@=::====:<13311111113322222tkkkkkkkh22233333111322232kkllkzllvvllkkkllllvvvllllkklvbvllllllvlzklnnnnllzzlnlzkzzzlvvvvvlllvvvvlks21<@.#+.X                        X@.#;4,@@++<3<1<<<<<@@<1<43<<221<<111<<<<<1<=@@@@@@@@@@@@==@@@=@@@@@==========:::<<<<<<<<<<<<<<<<:@#ooo%ooooo$$$$$%%&****8yyyrfffffCCCCPCCCCCIIII^/II^^^^]]]]]]]]]]]]]]]]]]]]]]]````^^^^^UUUPLLLPPLLfffffffffffLLLLLCCgfd0=XX                          ",
"                                                            XX;323<4;4<12skzzkt3222ts221<:@@@@======<<333111111133222jkkkkkkkkkjhh22333111132232hkkkkkkzllvllkkkllnvbvvllllkklvbvllllzzllzkzlvnnnlzznvvnnllllvvvvvlllvvvllkk21<O.O@.X                       X.@.#@@,,,+@33<1<<<1<@4<<@<3<3k2<<<<<<<<<<<<<:@@@@@@@@@@@=@@@@=======@@=====:::::<<<<<<<<<<<<<<<<<<=OooO--%ooo$%$$$&&%****8yrrrffffufCCCPCCCCCIIII//I^^^^^^]]]]]]]]]]]]]]]]]]]]]]]`````^^^UUUYPLLLLLLxfffffuuufffgCLLLCCgfdy>XX                         ",
"                                                           X.@3223<<<32szzzzks3111133311<<:@@@=====::<133111111113322tkkkkkkkkkkjh223331<<132222kkkkkkzlvvvvllkzllvbbvvvvvlllvbbbvvvlkzllzkkzllnnlllnvbbbvnlvvvvvvllllnlllzk23<O.O#.X                       X.@.O@@,,,@<23<1<<<1<@<1<@<3<3k3<<<1<<4444=4:==@+@@@@@@@@@@@@@@@@@@=========:::::::::<<<<<<<<1113331=OO-=--%oo$%%$%**%&*5*50yrrruCCfffCCPPCCCCIIIII/^^^^^^^[]]]]]]]]]]]]]]]]]]]]]]]````^^^^UUUYPLLPLLxgffffffffffffCCLLLCgfd0=oX                        ",
"                                                          XX;32iiikzzzzkkkkst31<<<<<<<<<<<<<=@@==:::::<<11111111133222kkkkkkkkkj222223311113333hzlzkkklvvvvlllllllnvvvlllvvnnvY'bbvvnzzzzzkkzlllnllllnbbbvnvvvllnvllllllllzk23<..O..X                      ..#;#@;@,,,,33<<1<<1<,@<3<@<3<121=4<1<<44==@@@@==@@@@=@@@@@@@@@@@@@=@@@=========::=:::<<<<<<<111322t21=O-===-oo$%%o$%**&*5558yurrruCfffCCPPCLLCPIIII^/^^^I/^^^[]]]]]]]]]]]]]]]]]]]]][````^^^UUUUUPPLLLLxffLLLLLLgffffCCLLCCffy0>OXX                      ",
"                                                        XX#@3iskzlvbvlzkkkt23<<<<<:@@=<<<111:@@===:=::<<11111111322tktkkkkkkkj223332t23333111132kkkkkzllvnlllzkkkllvvvlllvvvbbb'bbbbvllzzkzzzlllnllllnb|blnvvvlllvllllllllkh31+..#..                       ..#:#@;@,,@43<@<3<<<<@@<3<=33<13<@@<<<@@@@@@@@@=::@O@@@@@@@@@@@@@@@=@@@@@@@=@@@=======:<<<<<<<<<111331=O-===-ooo$$$$%*****8888yrr9rfCfffCCPCLPCCIIIII/^^///^^^[]]]]]]]]]]]]]]]]]]]]]]`````^^^^^UUYPPLLLxfxLLPPLLLCfuufCLCCCCCp00:OXX                     ",
"                                                      XX#;:<2kksiklvvzkkkks21<<<:@+@@===:<11<<<:=====:<<<111111322tkkhjkkkkkkj22322222332231133hkkkzlvnlllllllkkkkllvvvllvvvvvbbbbbbvnlzzkzzzlllnllllvb|bvvvvnlllvnlllllllkh34#.#..X                       ..#:O@@,4,@11+@33<<<<+@<1,,32<11<@@<<@@@@@@@@@@==:@OO@@@@@@@@@@=@@@@@@@@@@@@@@@===@======<:::===::::<<=@OO-==%oo$$$$%%**&&80888rr00eCCfffCCCLPCCCIIII^^^^/I^^^^[]]]]]]]]]]]]]]]]]]]]]]````^^^^^^UUYPPPLLxLPPPPLLLLCfffCCCCCCCffy0>-#X                    ",
"                                                    XX#@<3iss23<<3klllllzks3<<<:@@@@@@@@@:<111<<======<<<1111<1322kkjhjkkkkkkkj222222322j222322kkkzlvvvllnllllkkkklllllnvvvvvvbbbbbbvvlzkkzkkzllllllnvbbbbbvvllllvvlllllllkh1+.##..                        ..#:#@+44,,3<@<23<<<<+@<<@@33<1<<++<<@@@@@++@@@@@=@@OO@@@@@@@@@@@@@@@@@@@@@@@@@@@@@@@======@@@@@@@=====OOO----o$$$$%%%***&*00880rr0rfCCfefCCCPLCCPIIII^^^/I^^^^^]]]]]]]]]]]]]]]]]]]]]][````^^^^^^UUUYPLLLLPPPPLLLLLCffCCCCCPPPCfy0>=OXX                  ",
"                                                  X.@:<3szks3::;<2kllnvvnlk2<<<:@@@@@@+@@@<<111<<:====:<1111<1222jkk2tjkkkkkkkk22233222kk22222hmkklnnlllnlllllkkkkzllllvvvvvvvbbbbvvvvlkkkzzzzllllllvbbvnbbvnllllnnlllllllk2<@.O..X                        ...@##@4,,<3,+32<<<<,+@<<@<33@<<,++@@@@@@@@@@@@@@=@@OO@@@@@@@@@@@@@@@@@@@@@@@@@@@@@@@@====@=@@==@@=====OOO--%-%%$o$%%%*****008580ur0efCCeefCCCCCCCPIII^^^/I^^^^^^[]]]]]]]]]]]]]]]]]]]]]````````^^^UUUYPLLLPPPPLLLLLLCCLLLCCCPPCfryy0:OXX                 ",
"                                                 X#@<2szzk2:;@@:3skkznbbnlk21<<<<<<<<<@+@@+4<1111<<=@@:<11111222jj2hjjjkkkkzkkh222222222222222hkzlllllnvbvnlllllllllllvvvvvvbbbbbbvvvllkkkkzzzlllllnvbvnlvbvllllllllllnlnlk2<+@@..X                         ..@@@@+@431+@21<<<<@+<<<@<3<+<<@++@@@@@@@@@@@@@@@@=@OOO@@@@@+@@@@@@@@@@@@@@@@@@@@@@@@==@@@@@@=@@=====@OOOOOO--%oo$%%%%*****00880rerruCCfefCCCCCCCPIII/^^/I/^^^^^^]]]]]]]]]]]]]]]]]]]]]][```````^^^UUUPLgLPPPPPLLLLCCLLPPPCCCPCCffy0>:-oX                ",
"                                 XXXXX      XX XX@;@:ikks3;@@@:32kkzlnllkt233111111<<<<4@++=<111111:@@=<<113322jjh2jkjjkkkkkkj222222222222222hkzllllnvvbbbvllllllllllvvvvvvbbbbbbvvvnlkkkkzzzlllllnvvbvnlvbvllllllllllnlllk34O@@.X                          ..@<@@#O3h<+12<@<<<@+<<@@<3<+<<+@+@@@@@+@@@@@@@@@@@=@O#O@@@@@+@@@@@@@@@@@@@@@+@===@@@@@@=@======@===@OOOOOooo--%oo$$%%*****808880rrrrfCffuCCCCCCCCPIII^^^II^^^^^^[]]]]]]]]]]]]]]]]]]]]]][``````^^^UUUYLxLLPPPPPPLLLCLLPIIPCCCCCCCff0>>-OXX              ",
"                XXXXXXXXXXXXXXXX######XXXXXXXXXX@;;;<323<::::<2kkkkzzzkt2333333111<<<<<<<@@<<1111<<<::<<<1332222hhjkhhkkkkkkkj222222222222222kzllllnvvbvvvnlllllllllnvvvvvbbbbbbbvvvllkkkzzzllllllvvvbvvnvvllllllllllnnllzh1@++#.X                          ..@<;@#@mh,<234@<<<@@<<@+<34+<<+++@@@@@@@@@@@@@@@+@@@@#OO@@++@@@@@@@@@@@@O@@=<<:=@@@=@=@=============@@OOOooo--%oo$$%%%*****80888rrrrrfCfffCCCLCCCPIII/^^/I^^^^^^^]]]]]]][[]]]]]]]]]]]]][```````^^UUUYPLLLPPPPPPLLLCLLPPIPPCCCCffffy0>>-OXX             ",
"          XXXXXXX#############@;;<:::;;;;;;@@@@;<<<33333332iiskzzzzzkt22222233111<<<<<<<<<<<111<<1111111133222h2hhhhhkkkkkkkkh222hh2jk222222mkzlllnvvvvvvnnvnlllllllvvvvvvbbbbbbvvvnlkkkzzzllllllnvvvvvvvnllllllllllnnnllk2<+@@.X                           ..@<;@#<k2432<4<<<<@<<<+@<<@@<4+++@@@@@@@@@@++@@@@@@@@@OOO@@+@@@@@@@@@@@@@@=:::=@@@===================@OOoooo---ooo$$%%%****800880rrrrrfCCCCCCPPCCPPII/^^^II^^^^^^^]]]]][[[[]]]]]]]]]]]]][`^````^^^UUUPLLLLPYYYPPLLCLLLPPIIPCCCCfffyy0>>--OX            ",
"  XXXXXXXXX###OO@@@@;;<<;;;;::<333333<<<<<3<<3332ii2222sskkkzzzzzkktt222222221111111111<11111<11132223333322222h2hhhkkkkkkkkjh2hhhkkkkkkm22hkklllnvvvvvvvvvvvllllllnvvvvvbbbbbbvvvvlzkkkzzzlllllnnvvvvvvvnlllllllnnnvnllkh3<@@#.                             .#;4@+2k1323<<<<<<<<<,@<<<+,<@++@@@@@@@@++@@+@@@@@@@++@OOO@++@@@@@@@@@=:::============================@OoooOO--%o$$$$%%****5808880rrrruCCCCCCLPCCCPIII^^/II^^^^^^^[]]]][[[[[]]]]]]]]]]]][``````^^^^^UPLLLLPYIYPPLLCCLLLPPIPPCCCffffy0>>>>-OXX          ",
"XX#O@@@@OOO@;;;;;:<<33333333332iii23333333332issssskkkkzzzzzlzzzktt2ttskst221111111111111111113222223332322222hhhhhkkkkkkkkkjhjkmkkkkkkkh22hkzllnvvvvvvvvvvvlllllllnvvvvbbbbbbbvvvllkkzzzlllllnnnvvvvvvvnlllllllnnnvnlllk2<,@+.X                             .#@;@<h2331<<<<<<<<<<@<<<@@<<@+++@@@@@++@+@@+@@@@@@@@++@@OOO@@@@@@@@=<<:======================::======@OooooOO-%o$$$$$%&****500880rrrrrfCCCCCCPPCCLPII^^^IIU^^^^^^^]]]]]][[[[]]]]]]]]]]]][``````^^^^UPPLLLPYIIYPLLCCLLLPPIIPPCCCfffyy0>>>>-OXX         ",
"O@;;;;;;;;;<<<333332222ii22iiskksii222222iisskkkkkkzzzzzllzzzkkstttskkkst2231111133331111111322222333323322222h2hhkkkkkkkkkkkkkkkkkkkkkk22hkkzllnvvvvvvvvvvllllllllllvvvbbbbbbvvvllzkzzlllllllnnnvvvvvvnnllllllnnnvnlllkm3<@@#.                              .#@;<22333<<<<<<<<4@<<<<<@@<@+++@@@@@+++@@@@+@@++@@@@@@++@@@@@@@@@=<<<=======================::::=====@OooooOO--%o$$$$%%*****80080rrrrrufCCCCCLPCCCPII^^^III^^^^^^^[]]][[[[[[]]]]]]]]]]]][``^^```^^^UPPLLLLPIIYPLLCfgLLLPPIIPLCCffffyy0>>>>-OXX        ",
"<<<<<<<<<<1332iimiiikkkkiiiskkkksiiiisskkkkkkkkkzzzzzzlllzzkkkkssskkkkst222311333233311113322222232332332222222hhjkkkkkkkkkkkkkkkkkkkkkh22kkzllnvvvvvvvvvnllllllkklllvvvbbbbbbvvllzzzzzllllllnnvvvvvvvnnlllllllnnvvnlllk21<@@.X                              .@4432333<<<<<<<<4<<<<<<,,@<@+++@@+@+@++@@@@+@@++@@@@@@@+@@@@@@@@:<<<========:============::::::::=====-OOooOOO-%o$$$$%%%****580880rrrrrfCCCCCCPPCCCIII^^IIIU^^^^^^[]]]][[[[[]]]]]]]]]]]]][``^^``^^^UYPPPLPPIIIPPLCggLLLPPIIIPLCCfffuyy0>>>>-OXX       ",
"333333333332ikkkkkkkkkkkkkkkkkkkkkkkkkkkkkkkkkzzzzzllllzzkkkkkkkkkkkkst222333332222233332222t22222233222222222hhhkkkkkkkkkkkkkkkkkkkkkkhhkkkllnvvvvvvvvvnllllllkkkzllvvbbbbbbvvllzzzzzllllllnnvvvvvvvvnllllllnnvvvvvnlzk3<<+O.                               .122m233311<<<<<<4<<<<<<<<<<=@=@@@@@@@@@=<4@+@@++@@@@@@@+@@@@@@=<<<<1<1<<::::::==========:::<<<<<<<:======@OOO--%%o$$$%$%*****80000ruuuufCCCCCCLPCCCPIII^^IIU^^^^^^[]]]]]][[[[]]]]]]]]]]]][```^``^^^UYPPLLPPYUIYPLLgfgLLLPPIIIPLCCffffy00>>:>-OXX      "
};
