/* XPM */
static char *weapon0[] = {
/* columns rows colors chars-per-pixel */
"500 456 90 1 ",
"  c None",
". c black",
"X c #0C0B0B",
"o c #070906",
"O c #130B08",
"+ c #121211",
"@ c #151A14",
"# c #1B1916",
"$ c #1C1B1B",
"% c #181717",
"& c #14130D",
"* c #221E1B",
"= c #231B16",
"- c #2C1106",
"; c #1D221B",
": c #23221E",
"> c #2A231D",
", c #352512",
"< c #1C1D21",
"1 c #242323",
"2 c #292623",
"3 c #2B2925",
"4 c #2C2C2B",
"5 c #262827",
"6 c #322D29",
"7 c #34322E",
"8 c #343433",
"9 c #3C3B3B",
"0 c #393736",
"q c #2F2F30",
"w c #202021",
"e c #471C0B",
"r c #522913",
"t c #6A3518",
"y c #413E3B",
"u c #523627",
"i c #6C3B29",
"p c #3D413C",
"a c #44413E",
"s c #594536",
"d c #75472F",
"f c #77411E",
"g c #3E3E41",
"h c #413F41",
"j c #444343",
"k c #4C4B4B",
"l c #4A4846",
"z c #514D4B",
"x c #54514E",
"c c #545353",
"v c #5B5A5B",
"b c #595756",
"n c #4F4F51",
"m c #615D5B",
"M c #765545",
"N c #67625D",
"B c #5E5E61",
"V c #686767",
"C c #787777",
"Z c #726F6D",
"A c #5F6060",
"S c #3F4142",
"D c #8D5434",
"F c #98623D",
"G c #8F5C46",
"H c #9A6447",
"J c #956C56",
"K c #A46A49",
"L c #AA7454",
"P c #8E7A70",
"I c #A97C65",
"U c #A05F41",
"Y c #86827D",
"T c #B28A72",
"R c #B2815D",
"E c #C29778",
"W c #7E7E80",
"Q c #888685",
"! c #979492",
"~ c #B49889",
"^ c #AEABA9",
"/ c #A8A19B",
"( c #C29D8C",
") c #CCAB95",
"_ c #D8B9A5",
"` c #CBB7AA",
"' c #E0BFA8",
"] c #E0C6B3",
"[ c #E1DAD4",
"{ c #808080",
/* pixels */
"....................................................................................................................................................................................................................................................................................................................................................................................................................................................................................................................",
"....................................................................................................................................................................................................................................................................................................................................................................................................................................................................................................................",
"....................................................................................................................................................................................................................................................................................................................................................................................................................................................................................................................",
"....................................................................................................................................................................................................................................................................................................................................................................................................................................................................................................................",
"....................................................................................................................................................................................................................................................................................................................................................................................................................................................................................................................",
"....................................................................................................................................................................................................................................................................................................................................................................................................................................................................................................................",
"....................................................................................................................................................................................................................................................................................................................................................................................................................................................................................................................",
"....................................................................................................................................................................................................................................................................................................................................................................................................................................................................................................................",
"....................................................................................................................................................................................................................................................................................................................................................................................................................................................................................................................",
"....................................................................................................................................................................................................................................................................................................................................................................................................................................................................................................................",
"....................................................................................................................................................................................................................................................................................................................................................................................................................................................................................................................",
"....................................................................................................................................................................................................................................................................................................................................................................................................................................................................................................................",
"....................................................................................................................................................................................................................................................................................................................................................................................................................................................................................................................",
"....................................................................................................................................................................................................................................................................................................................................................................................................................................................................................................................",
"....................................................................................................................................................................................................................................................................................................................................................................................................................................................................................................................",
"....................................................................................................................................................................................................................................................................................................................................................................................................................................................................................................................",
"....................................................................................................................................................................................................................................................................................................................................................................................................................................................................................................................",
"....................................................................................................................................................................................................................................................................................................................................................................................................................................................................................................................",
"....................................................................................................................................................................................................................................................................................................................................................................................................................................................................................................................",
"....................................................................................................................................................................................................................................................................................................................................................................................................................................................................................................................",
"....................................................................................................................................................................................................................................................................................................................................................................................................................................................................................................................",
"....................................................................................................................................................................................................................................................................................................................................................................................................................................................................................................................",
"....................................................................................................................................................................................................................................................................................................................................................................................................................................................................................................................",
"....................................................................................................................................................................................................................................................................................................................................................................................................................................................................................................................",
"....................................................................................................................................................................................................................................................................................................................................................................................................................................................................................................................",
"....................................................................................................................................................................................................................................................................................................................................................................................................................................................................................................................",
"....................................................................................................................................................................................................................................................................................................................................................................................................................................................................................................................",
"....................................................................................................................................................................................................................................................................................................................................................................................................................................................................................................................",
"....................................................................................................................................................................................................................................................................................................................................................................................................................................................................................................................",
"....................................................................................................................................................................................................................................................................................................................................................................................................................................................................................................................",
"....................................................................................................................................................................................................................................................................................................................................................................................................................................................................................................................",
"....................................................................................................................................................................................................................................................................................................................................................................................................................................................................................................................",
"....................................................................................................................................................................................................................................................................................................................................................................................................................................................................................................................",
"....................................................................................................................................................................................................................................................................................................................................................................................................................................................................................................................",
"....................................................................................................................................................................................................................................................................................................................................................................................................................................................................................................................",
"....................................................................................................................................................................................................................................................................................................................................................................................................................................................................................................................",
"....................................................................................................................................................................................................................................................................................................................................................................................................................................................................................................................",
"....................................................................................................................................................................................................................................................................................................................................................................................................................................................................................................................",
"....................................................................................................................................................................................................................................................................................................................................................................................................................................................................................................................",
"....................................................................................................................................................................................................................................................................................................................................................................................................................................................................................................................",
"....................................................................................................................................................................................................................................................................................................................................................................................................................................................................................................................",
"....................................................................................................................................................................................................................................................................................................................................................................................................................................................................................................................",
"....................................................................................................................................................................................................................................................................................................................................................................................................................................................................................................................",
"....................................................................................................................................................................................................................................................................................................................................................................................................................................................................................................................",
"....................................................................................................................................................................................................................................................................................................................................................................................................................................................................................................................",
"....................................................................................................................................................................................................................................................................................................................................................................................................................................................................................................................",
"....................................................................................................................................................................................................................................................................................................................................................................................................................................................................................................................",
"....................................................................................................................................................................................................................................................................................................................................................................................................................................................................................................................",
"....................................................................................................................................................................................................................................................................................................................................................................................................................................................................................................................",
"....................................................................................................................................................................................................................................................................................................................................................................................................................................................................................................................",
"....................................................................................................................................................................................................................................................................................................................................................................................................................................................................................................................",
"....................................................................................................................................................................................................................................................................................................................................................................................................................................................................................................................",
"....................................................................................................................................................................................................................................................................................................................................................................................................................................................................................................................",
"....................................................................................................................................................................................................................................................................................................................................................................................................................................................................................................................",
"....................................................................................................................................................................................................................................................................................................................................................................................................................................................................................................................",
"....................................................................................................................................................................................................................................................................................................................................................................................................................................................................................................................",
"....................................................................................................................................................................................................................................................................................................................................................................................................................................................................................................................",
"....................................................................................................................................................................................................................................................................................................................................................................................................................................................................................................................",
"....................................................................................................................................................................................................................................................................................................................................................................................................................................................................................................................",
"....................................................................................................................................................................................................................................................................................................................................................................................................................................................................................................................",
"....................................................................................................................................................................................................................................................................................................................................................................................................................................................................................................................",
"....................................................................................................................................................................................................................................................................................................................................................................................................................................................................................................................",
"....................................................................................................................................................................................................................................................................................................................................................................................................................................................................................................................",
"....................................................................................................................................................................................................................................................................................................................................................................................................................................................................................................................",
"....................................................................................................................................................................................................................................................................................................................................................................................................................................................................................................................",
"....................................................................................................................................................................................................................................................................................................................................................................................................................................................................................................................",
"....................................................................................................................................................................................................................................................................................................................................................................................................................................................................................................................",
"....................................................................................................................................................................................................................................................................................................................................................................................................................................................................................................................",
"....................................................................................................................................................................................................................................................................................................................................................................................................................................................................................................................",
"....................................................................................................................................................................................................................................................................................................................................................................................................................................................................................................................",
"....................................................................................................................................................................................................................................................................................................................................................................................................................................................................................................................",
"....................................................................................................................................................................................................................................................................................................................................................................................................................................................................................................................",
"....................................................................................................................................................................................................................................................................................................................................................................................................................................................................................................................",
"....................................................................................................................................................................................................................................................................................................................................................................................................................................................................................................................",
"....................................................................................................................................................................................................................................................................................................................................................................................................................................................................................................................",
"....................................................................................................................................................................................................................................................................................................................................................................................................................................................................................................................",
"....................................................................................................................................................................................................................................................................................................................................................................................................................................................................................................................",
"....................................................................................................................................................................................................................................................................................................................................................................................................................................................................................................................",
"....................................................................................................................................................................................................................................................................................................................................................................................................................................................................................................................",
"....................................................................................................................................................................................................................................................................................................................................................................................................................................................................................................................",
"....................................................................................................................................................................................................................................................................................................................................................................................................................................................................................................................",
"....................................................................................................................................................................................................................................................................................................................................................................................................................................................................................................................",
"....................................................................................................................................................................................................................................................................................................................................................................................................................................................................................................................",
"....................................................................................................................................................................................................................................................................................................................................................................................................................................................................................................................",
"....................................................................................................................................................................................................................................................................................................................................................................................................................................................................................................................",
"....................................................................................................................................................................................................................................................................................................................................................................................................................................................................................................................",
"....................................................................................................................................................................................................................................................................................................................................................................................................................................................................................................................",
"....................................................................................................................................................................................................................................................................................................................................................................................................................................................................................................................",
"....................................................................................................................................................................................................................................................................................................................................................................................................................................................................................................................",
"....................................................................................................................................................................................................................................................................................................................................................................................................................................................................................................................",
"....................................................................................................................................................................................................................................................................................................................................................................................................................................................................................................................",
"....................................................................................................................................................................................................................................................................................................................................................................................................................................................................................................................",
"....................................................................................................................................................................................................................................................................................................................................................................................................................................................................................................................",
"....................................................................................................................................................................................................................................................................................................................................................................................................................................................................................................................",
"....................................................................................................................................................................................................................................................................................................................................................................................................................................................................................................................",
"....................................................................................................................................................................................................................................................................................................................................................................................................................................................................................................................",
"....................................................................................................................................................................................................................................................................................................................................................................................................................................................................................................................",
"....................................................................................................................................................................................................................................................................................................................................................................................................................................................................................................................",
"....................................................................................................................................................................................................................................................................................................................................................................................................................................................................................................................",
"....................................................................................................................................................................................................................................................................................................................................................................................................................................................................................................................",
"....................................................................................................................................................................................................................................................................................................................................................................................................................................................................................................................",
"....................................................................................................................................................................................................................................................................................................................................................................................................................................................................................................................",
"....................................................................................................................................................................................................................................................................................................................................................................................................................................................................................................................",
"....................................................................................................................................................................................................................................................................................................................................................................................................................................................................................................................",
"....................................................................................................................................................................................................................................................................................................................................................................................................................................................................................................................",
"....................................................................................................................................................................................................................................................................................................................................................................................................................................................................................................................",
"....................................................................................................................................................................................................................................................................................................................................................................................................................................................................................................................",
"....................................................................................................................................................................................................................................................................................................................................................................................................................................................................................................................",
"....................................................................................................................................................................................................................................................................................................................................................................................................................................................................................................................",
"....................................................................................................................................................................................................................................................................................................................................................................................................................................................................................................................",
"....................................................................................................................................................................................................................................................................................................................................................................................................................................................................................................................",
"....................................................................................................................................................................................................................................................................................................................................................................................................................................................................................................................",
"....................................................................................................................................................................................................................................................................................................................................................................................................................................................................................................................",
"....................................................................................................................................................................................................................................................................................................................................................................................................................................................................................................................",
"....................................................................................................................................................................................................................................................................................................................................................................................................................................................................................................................",
"....................................................................................................................................................................................................................................................................................................................................................................................................................................................................................................................",
"....................................................................................................................................................................................................................................................................................................................................................................................................................................................................................................................",
"....................................................................................................................................................................................................................................................................................................................................................................................................................................................................................................................",
"....................................................................................................................................................................................................................................................................................................................................................................................................................................................................................................................",
"....................................................................................................................................................................................................................................................................................................................................................................................................................................................................................................................",
"....................................................................................................................................................................................................................................................................................................................................................................................................................................................................................................................",
"....................................................................................................................................................................................................................................................................................................................................................................................................................................................................................................................",
"....................................................................................................................................................................................................................................................................................................................................................................................................................................................................................................................",
"....................................................................................................................................................................................................................................................................................................................................................................................................................................................................................................................",
"....................................................................................................................................................................................................................................................................................................................................................................................................................................................................................................................",
"....................................................................................................................................................................................................................................................................................................................................................................................................................................................................................................................",
"....................................................................................................................................................................................................................................................................................................................................................................................................................................................................................................................",
"....................................................................................................................................................................................................................................................................................................................................................................................................................................................................................................................",
"....................................................................................................................................................................................................................................................................................................................................................................................................................................................................................................................",
"....................................................................................................................................................................................................................................................................................................................................................................................................................................................................................................................",
"....................................................................................................................................................................................................................................................................................................................................................................................................................................................................................................................",
"....................................................................................................................................................................................................................................................................................................................................................................................................................................................................................................................",
"....................................................................................................................................................................................................................................................................................................................................................................................................................................................................................................................",
"....................................................................................................................................................................................................................................................................................................................................................................................................................................................................................................................",
"....................................................................................................................................................................................................................................................................................................................................................................................................................................................................................................................",
"....................................................................................................................................................................................................................................................................................................................................................................................................................................................................................................................",
"....................................................................................................................................................................................................................................................................................................................................................................................................................................................................................................................",
"....................................................................................................................................................................................................................................................................................................................................................................................................................................................................................................................",
"....................................................................................................................................................................................................................................................................................................................................................................................................................................................................................................................",
"....................................................................................................................................................................................................................................................................................................................................................................................................................................................................................................................",
"....................................................................................................................................................................................................................................................................................................................................................................................................................................................................................................................",
"....................................................................................................................................................................................................................................................................................................................................................................................................................................................................................................................",
"....................................................................................................................................................................................................................................................................................................................................................................................................................................................................................................................",
"....................................................................................................................................................................................................................................................................................................................................................................................................................................................................................................................",
"....................................................................................................................................................................................................................................................................................................................................................................................................................................................................................................................",
"....................................................................................................................................................................................................................................................................................................................................................................................................................................................................................................................",
"....................................................................................................................................................................................................................................................................................................................................................................................................................................................................................................................",
"....................................................................................................................................................................................................................................................................................................................................................................................................................................................................................................................",
"....................................................................................................................................................................................................................................................................................................................................................................................................................................................................................................................",
"....................................................................................................................................................................................................................................................................................................................................................................................................................................................................................................................",
"....................................................................................................................................................................................................................................................................................................................................................................................................................................................................................................................",
"....................................................................................................................................................................................................................................................................................................................................................................................................................................................................................................................",
"....................................................................................................................................................................................................................................................................................................................................................................................................................................................................................................................",
"....................................................................................................................................................................................................................................................................................................................................................................................................................................................................................................................",
"....................................................................................................................................................................................................................................................................................................................................................................................................................................................................................................................",
"....................................................................................................................................................................................................................................................................................................................................................................................................................................................................................................................",
"....................................................................................................................................................................................................................................................................................................................................................................................................................................................................................................................",
"....................................................................................................................................................................................................................................................................................................................................................................................................................................................................................................................",
"....................................................................................................................................................................................................................................................................................................................................................................................................................................................................................................................",
"....................................................................................................................................................................................................................................................................................................................................................................................................................................................................................................................",
"....................................................................................................................................................................................................................................................................................................................................................................................................................................................................................................................",
"....................................................................................................................................................................................................................................................................................................................................................................................................................................................................................................................",
"....................................................................................................................................................................................................................................................................................................................................................................................................................................................................................................................",
"....................................................................................................................................................................................................................................................................................................................................................................................................................................................................................................................",
"....................................................................................................................................................................................................................................................................................................................................................................................................................................................................................................................",
"....................................................................................................................................................................................................................................................................................................................................................................................................................................................................................................................",
"....................................................................................................................................................................................................................................................................................................................................................................................................................................................................................................................",
"....................................................................................................................................................................................................................................................................................................................................................................................................................................................................................................................",
"....................................................................................................................................................................................................................................................................................................................................................................................................................................................................................................................",
".........................................................................................................................................................................................................  ........    .............................................................................................................................................................................................................................................................................................",
".......................................................................................................................................................................................................  ;@  ...... XX .............................................................................................................................................................................................................................................................................................",
"...................................................................................................................................................................................................... @00XX ..... +XX& ............................................................................................................................................................................................................................................................................................",
"...................................................................................................................................................................................................... ;p3XX .... 4@XX: ............................................................................................................................................................................................................................................................................................",
"...................................................................................................................................................................................................... 5q@XX  .. @08XX& ............................................................................................................................................................................................................................................................................................",
"...................................................................................................................................................................................................... ;XXX@;;  X;0c@XXX ...........................................................................................................................................................................................................................................................................................",
"...................................................................................................................................................................................................... #@XXq;4;X@q94XXXX ...........................................................................................................................................................................................................................................................................................",
"....................................................................................................................................................................................................... ;@X@qp3X3cqXXXX ............................................................................................................................................................................................................................................................................................",
"....................................................................................................................................................................................................... $qXX:x6X0V5XXXX ............................................................................................................................................................................................................................................................................................",
"........................................................................................................................................................................................................ 5;XX$+X$4XXX@; ............................................................................................................................................................................................................................................................................................",
"........................................................................................................................................................................................................ %8qXXXXXXXXX@X ............................................................................................................................................................................................................................................................................................",
"......................................................................................................................................................................................................... q0XXXXXXXX@@ .............................................................................................................................................................................................................................................................................................",
"......................................................................................................................................................................................................... wqXXXXXXXX$+ .............................................................................................................................................................................................................................................................................................",
"......................................................................................................................................................................................................... 18XXXXXXXX#X .............................................................................................................................................................................................................................................................................................",
"......................................................................................................................................................................................................... ;p5+XXXXXX$+ .............................................................................................................................................................................................................................................................................................",
"......................................................................................................................................................................................................... ;0:@XXXXXX$& .............................................................................................................................................................................................................................................................................................",
"......................................................................................................................................................................................................... 1q&+XXXXXX#& .............................................................................................................................................................................................................................................................................................",
"......................................................................................................................................................................................................... 5qX@XXXXXX@& ....     ....................................................................................................................................................................................................................................................................................",
"......................................................................................................................................................................................................... 15X@XXXXXX@& ..  X++XX  .....       ......................................................................................................................................................................................................................................................................",
"......................................................................................................................................................................................................... 14X+XXXXXX@@   +;5$X@:@@     &XX&&&X   ...................................................................................................................................................................................................................................................................",
"......................................................................................................................................................................................................... 5qX&XXXXXXX@X+;8q5@XXXX;555;50>X;773;&@   ................................................................................................................................................................................................................................................................",
"......................................................................................................................................................................................................... 54XXXXXXXXXw51$$5qq;+XXX$7#&>aa6assu>>76>@   .............................................................................................................................................................................................................................................................",
"......................................................................................................................................................................................................... 5qXXXXXXXXXqq$&$qpk908#&us,-,dMMJJMdsssu,7>&X                                       ......................................................................................................................................................................................................................",
"......................................................................................................................................................................................................... 5qXXXXXXXXX9p@180y00lluudddtiGLLTTRJJJJJMs=>6>;@@@@@@@@@;;5;:55>:;#@XXX@&X@@@X&XXXXX .....................................................................................................................................................................................................................",
"......................................................................................................................................................................................................... 5qXXXXXXXXXl2+30770yaurrdDdttGLRTTLHLTTTTJdsa64q35555:::q3@&&&XXXXX$;;1;;1;::5555;;XX ....................................................................................................................................................................................................................",
"......................................................................................................................................................................................................... 5qXXXXXXXXXj%X376347udirtDDDfdDLLLFdDLTTTTY~M=@;&XXXXXXXXXXXXXXXXXXXX5;XXXXXXXXXXXXXXX ...................................................................................................................................................................................................................",
"......................................................................................................................................................................................................... 5qXX&XXXXXX@X+322$&>sGDDDDKKDDDFKKHddHTTRR(`P*@@&45&XXXXX&@14;+&@@%XXXXXXXXXXXXXXXXXXX ...................................................................................................................................................................................................................",
"......................................................................................................................................................................................................... 58X@4XXXXXXXXX@:3:%=rdFUDDFLFftDDFFDDDFLTLTYZy2;+8l1XX&&X&@18$XXXXX+XXXXXXXXX@@++XXXX+ ...................................................................................................................................................................................................................",
"......................................................................................................................................................................................................... 58X48XXXXXXXXXX%:36>riDFKDDKFDDDDDDFFDFKLLJMPV::@#1+XXXXXXX0c$XXXXXX+XXXXXXXXXXXXXXXX@ ...................................................................................................................................................................................................................",
"......................................................................................................................................................................................................... 58X48XXXXXXXXXXX@:3>udtDFDtKKFDFFUFUFKFFFHGM!Z#:+X@XXXXXXXX0c%XXXXXXXXXXXXXXXXXXXXXXX@ ...................................................................................................................................................................................................................",
"......................................................................................................................................................................................................... 58X$1XXXXXXXXXXXX&#-rdttDDtDKKDDDFFKFKFDtiduZV*1@X&XXXXXXXX$8@XXXXXXXXXXXXXXXXXXXXXXX@ ...................................................................................................................................................................................................................",
"........................................................................................................................................................................................................ @09X@XXXXXXX1XXXXXXXOrdDtDFDDFLUFFDDFFKFDttrrxb*@XX$XXXXXXXX+1+XXXXXXXXXXXXXXXXXXXXXXX@ ...................................................................................................................................................................................................................",
"......................................................................................................................................................................................................  @5qwX$+XXXXXXc@XXXXXXXrddDDDKUFULLKFDDFKFDdir7zy$XXX#XXXXXXXX+1XXXXXXXXXXXXXXXXXXXXXXXX@ ...................................................................................................................................................................................................................",
".....................................................................................................................................................................................................  @50;XX+XXXXXXXc#XXXXXXXuMdDFDDFKKLLLKFDFKFDdr,>yl3XXXXXXXXXXXX+1XXXXXXXXXXXXXXXXXXXXXXXX% ...................................................................................................................................................................................................................",
"..................................................................................................................................................................................................... X:p0%$w<XXXXXXXvkXXXXXXX6dddDDDFLLKUFKFDDDDdr,,=6z8XXXXXXXXXXXXX1XXXXXXXXXXXXXXXXXXXXXXXX; ...................................................................................................................................................................................................................",
"..................................................................................................................................................................................................... @47j00801XXXXXXqb$XXXXXXudrtdfDFFFKUFKKFDttu--=&:zy+X+XXXXXXXXXX@XXXXXXXXXXXXXXXXXXXXXXXX$ ...................................................................................................................................................................................................................",
"..................................................................................................................................................................................................... @3;lbc95+XXXXXXX9b1+@XXO,urrdDdDDDFKKKFDDtrr,-%O:bz4@#%X&XXXXXXXXXXXXXXXXXXXXXXXXXXXXXXXX ....................................................................................................................................................................................................................",
"..................................................................................................................................................................................................... @7;0nv9XX1111#X1VCVVCk+OO,utdDDttDFFKKFDDdiry=OO7mby%&$8l4$&XXXXXXXXXXXXXXXXXXXXX174551#X ....................................................................................................................................................................................................................",
"..................................................................................................................................................................................................... #7@;0b0X4kj880jVVVVCCCbyur-rddtttfFDDDUFftrrs=XX0bzy%&$7ky:XXXXXXXXXXXXXXXXXXXXXX177qw;; .....................................................................................................................................................................................................................",
"..................................................................................................................................................................................................... @5X+21XX0zljkZCCVvmNVVVZPM,rrddrttDDDDDFDdr,a:XX3kla*+@3097#X@@&XXXXXXXXXXXXXXXXXXX@;$@@ .....................................................................................................................................................................................................................",
"...................................................................................................................................................................................................... $@XXXX#0jlcNVVVvbvvvmbNZPMrrddtrtDftDFDDDu,a:X#jkxx7%+:60y980a01#XXXXXXXXXXXXXXXXXXX;%&X ....................................................................................................................................................................................................................",
"...................................................................................................................................................................................................... @7+XXX@40lvVVVBvbbbbcxxmZZarrrtttDDDDDDDdurs2Xz/Cvba%&*140kklkly4%XXXXX:44411w$#$@XXXXXX ....................................................................................................................................................................................................................",
"...................................................................................................................................................................................................... &8+XXXX140vVvvvvbcccklzbvVNurrrttfddDDDDDdul6Xb^Cbzj#X@*269lzbk01@XXXXXXXX+XXXXXXXXXXX&X ....................................................................................................................................................................................................................",
"....................................................................................................................................................................................................... 7@XXXX$$8vVvvvbccczkjjkzvZMrrrrrddttDDtiira6XjQVclj:X@#:446aVb4XXXXXXXXXXXXXXXXXXXXXX&X ....................................................................................................................................................................................................................",
"....................................................................................................................................................................................................... :q&XXXX@jVvvvvckcckjh9jlcmNu,rrrtdftdDtrr,a3X*cVvxl:X@%$11*3jk1XXXXXXXXXXXXXXXXXXXXXX&X ....................................................................................................................................................................................................................",
"........................................................................................................................................................................................................ :0@XXXXjVvvvvckzkkj999ajkmM,rrrtttdDDftr=y6XX*y984@XX@%$:$:70:XXXXXXXXXXXXXXXXXXXXXX+X ....................................................................................................................................................................................................................",
"......................................................................................................................................................................................................... 08XXXXjVvbbvbkkkkh909900lMu,,rrtttidddr=74XXX&*#XXXX+%@***14*XXXXXXXXXXXXXXXXXXXXXX+X ....................................................................................................................................................................................................................",
"......................................................................................................................................................................................................... 5qXXXXjCVvccckjlkh9999900xMurrerrtrtttr>73XXXX:@XXXX@@%$$=14*XXXXXXXXXXXXXXXXXXXXXX@X ....................................................................................................................................................................................................................",
"......................................................................................................................................................................................................... 5qXXXX9CCVczzj9lkh9099jzllz,,,--eeertrr,02XXXX@&XXXX++&%@@181XXXXXXXXXXXXXXXXXXXXXX@X ....................................................................................................................................................................................................................",
"......................................................................................................................................................................................................... 5qX&XX9CCVkkzj0lk08909jbbla=-,----eerrr,7$XXXX&XXXXX@XX+%%18:XXXXX@$$%XXXXXXXXXXXXX$X ....................................................................................................................................................................................................................",
"......................................................................................................................................................................................................... ;4X++X9CCbyhjy0ll000000lvzsu-,----,eer,=7#XXXX@%XXXX@&&X@@16%XXXX+$:366673$$#XXXXXX$X ....................................................................................................................................................................................................................",
".......................................................................................................................................................................................................... 83XXX9CCk9y988jl0009980lbzy--OOOO---r,-6#XXXX@*XXXX%@@X&@$2+XXXX@$:60ylkl0871$@XXX;X ....................................................................................................................................................................................................................",
".......................................................................................................................................................................................................... ;8@XXkCVjyhy0yzzh90y900ymmyOOOXXOOO-,=-6=XXXX+$XXXX$%@XXX&$+XXX&+$1370ykxza0841@XXq%X ...................................................................................................................................................................................................................",
"........................................................................................................................................................................................................... qqXXcWVjhkjjkmmzlhy9089xma-OOXXXXX&==O6%XXXX&@XXXX@+++&XX+&XX+**112470alkkay84$XX5;@X  .................................................................................................................................................................................................................",
"........................................................................................................................................................................................................... qnj5vCbjkvcbVCZmzljlh09jMz-OOXXXXXO--O2%XXXX&XXXXXXXX%%XX&&XX26633213600alljj0q1@XX@&XX  ...............................................................................................................................................................................................................",
".......................................................................................................................................................................................................... ;9vCCVmklmVcVC{CVbzzkljyyyy--OXXXXXX--O:&XXXXXXXXXXXXX+%XX+&X2mVly6:*:2670yylllja7@XXX:@XX  .............................................................................................................................................................................................................",
"......................................................................................................................................................................................................... @9lnCQVckcVvbVCCVVmmccvbj076--OXXXXXXOOO*&XXXXXXXXXXXXXX+XX&XXv!/Cma3*:2366600ylklj7$+X#$@&XX ............................................................................................................................................................................................................",
"........................................................................................................................................................................................................ XqlkVCCVbcNZVVCCCVvvvbcvVvl3>,-OXXXXXXOOO=+XXXXXXXXXXXXXXXXXXX4![]^!Cb03642236009lxxk04$+XX&++X  ..........................................................................................................................................................................................................",
"........................................................................................................................................................................................................ ;0SnCQCBbvmVZCCZZVAvvbcbVZx>,u,OXXXXXXXXX#%XXXXXXXXXXXXXXXXXXXy^[[[[^!Cxy632226679kxckj04$XXXXXXX  ........................................................................................................................................................................................................",
"....................................................................................................................................................................................................... :ppjvQQCvbvVCQQ{VVVZVvvbnvCb==uu-OXXXXXXXX&&XXXXXXXXXXXXXXXXXXXk^[[[[[[^!Vl073::2340alkkja85+XXXXXXX  ......................................................................................................................................................................................................",
"....................................................................................................................................................................................................... 0nlnCQPZvcbVQ^^^QVmVVVvckcVV==uir-OXXXXXXXXXXXXXXXXXXXXXXXXXXX@b/`[[[[[[[^PNxy7>:22389alkkj9q:XXX@@XXX .....................................................................................................................................................................................................",
"...................................................................................................................................................................................................... @lblvCCCVvcbVCQ!!Q{CVVmbczkbN==idirr-OO-OOOOXXXXXXXXXX$%XXXXXXX@x!/^[[[[[[]^!Zbl0>2226789ajllj02&XXX&;@X  ...................................................................................................................................................................................................",
"...................................................................................................................................................................................................... >xblcCCCVvxcvVVVVVCC{QVccbkzmy,dddiir,--OOOOXXXXXXXXX@131$XXXXX&xQ!/[[[[[[[[`/PNly76>2467009jly044$XXX#5@X  .................................................................................................................................................................................................",
"..................................................................................................................................................................................................... ;8xbjlVZVVbzcbbvAmvVVCQQZvbzkxa,ddiiiiur--OOOXXXXXXXX*1*167$XXX+8NCCQ/^][[[[[[[^!Zby762>367700yy9998wXXX$;XXX  ...............................................................................................................................................................................................",
"..................................................................................................................................................................................................... qpxbaabVVNbzzccbbbbvvvVCCCVvcjurdDdtiddue-OOOOOXXXXXX78$$137*X&7VCZZCP/^^]]][[[[`/Yx0762>>36770000904:@XXXX+XX  ..............................................................................................................................................................................................",
".................................................................................................................................................................................................... ;plbba9mVVvbkkkkzzzkzbbAVCCCCZmdsiDDdtfdire--OOOOXXXXX0l6**:3:%7mY!!PZZY!!^^^^][[[]^Cl7762::3667770y99062#XXX@@XX  ............................................................................................................................................................................................",
".................................................................................................................................................................................................... 5jcvva8bVvbzjjlkjlljjkcbAVVC{QPZMddDDDdftttr---OOXXXXX:00764110V!////YZCZP!!!/`[[[[`!Nla03***2234689ajj9071#XXX+;XX  ..........................................................................................................................................................................................",
"................................................................................................................................................................................................... Xqjbvmk4jNvcky9jjhh99jjkkbvVVCQ!~IMdddDDdttire---OOXXXX&>7ay4$8C^]^^//!/!ZZZZY!/`[[[]/QCZb2****:133689jklj904:+XX@@$XX .........................................................................................................................................................................................",
"................................................................................................................................................................................................... @7abbNk3ycckj9099y99099jjkncvVZY!!PMddDDDdttrr----OOXXXX%*00*&l/[[`^///^/YPZNCPQ^[[[`////P3#=#@#*:13409jljjy964:XXX@@&X  .......................................................................................................................................................................................",
"................................................................................................................................................................................................... @0pcbvk49zkj98880988000099jlzbmVPYPPJJJHDDfttre----OXXXXO&:2O+c^[[[[^^`^^!YZmmVZ!^^^^^``]/6+%%&@@*:24699hjjj99981@XXX%@XX  .....................................................................................................................................................................................",
".................................................................................................................................................................................................... 7qlxck40zkj9886776668qqqq89lzbmNZNmmMdddditiiu,---OOXXO&&**%$j![[[[[]`^^/!YPNzbZ~/!!/^[[/3%##@%%#*:136809yyjjjg085@XXXXXXX  ...................................................................................................................................................................................",
".................................................................................................................................................................................................... 5qplka48kly07644332444q6680jkcxxxlaszMMMMMGJJJMMMssaaazxmmmmmmP^[[[[[[`^////YNsVYPPYY/][/:XX%%%%@$*2:24788099pjj9885+XXX;;+X ..................................................................................................................................................................................",
".................................................................................................................................................................................................... 5p0jx917lj0864431:1154455489aayjNNNZYY!~~~~/~~~~~~!!!!!!///!/!!/^^[[[[[`^^^/!CNZZZZZZ!^[/:XX%%XX@%:6**144678099999994$+XX@;;X  ................................................................................................................................................................................",
".................................................................................................................................................................................................... ;959cp:39y874431:$$154451147764aQQ!!/!///~~!~!!!!!!!!!!!!!!!!!Y!!/][[[[[]^//!QYYPNmmZ!^^!*XOXXXXX&:0*$:1113446809gSjj94%XX&@;&X  ..............................................................................................................................................................................",
".................................................................................................................................................................................................... @5@qcl2;0984321:$@@$5q6211331:*j/////!!!!!!YY!!YYQY!Y!!!!!QYPPZPY!^][[[[[]^!!!/^!ZmxNP!!P#XOOXXXXX*0*@$$$*:1154q09gjjS05;$+XXXXXX  ............................................................................................................................................................................",
"..................................................................................................................................................................................................... ;;5jk6@60843111$%%#58q2*121**$j!/!/!!QQPZZZZCPPPCZZZZZZZZNmmmbNZP!^^[[[[[]^!/^^^!PZNZYYZ&XOOXXXXX#8*%%%@@$$:114000999g08888wXX;$@X  ..........................................................................................................................................................................",
"..................................................................................................................................................................................................... @q50l6+40762111*%+%508311:****yQ!YCZZZNbmNNmmmmNNZZNNmbbxxxzzaaNVZQ!`[[[[[[^`^^/!!PZVZCbXOXXXXXXXX2@XX@%%%@$$114q0080Skkglk0%XX+5$+  .........................................................................................................................................................................",
"...................................................................................................................................................................................................... 50896%28762111*++=60811:***=#7VZVvxxxxxbmNmmmmmNNNNmmmmmxaay7yxxNZQ/^^`[[[[[]^/!!!!CZN6XXXXXXXXXX@@XXXX@@%@#$154q800kbBbncv9$+XXX;@X  .......................................................................................................................................................................",
"...................................................................................................................................................................................................... ;p176*176311::$%@1661$***=##%3bVZNxaallzxzzlllllllaaaaay83>>6azlxNZY!!/`[[[[[`^/!//!QN#XXXXXXXXXXXXXXXXXX@@%@$144qq0SlkkjlbbckqXXXX@XX  .....................................................................................................................................................................",
"...................................................................................................................................................................................................... @q&$2$27631:*##*221:@@***=#%#3bZZbla077700777777y0777772*===6yaazbNZCP!/^[[[[[]^^////Z*XXXXXXXXXXXXXXXXXXXXX@#$1444080jljjbVVAn0;XX+;XXX  ...................................................................................................................................................................",
"....................................................................................................................................................................................................... 5&X+&17631:*@$341*#@@##%#%%&*0aay062>:222366667766666>>>:*=6007axbmNVCQ/][[[[[[^^//!V1%XXXXXXXXXXXXXXXXXXXXX@$1544880glkkVZVVVbnl0;XX+XXX  .................................................................................................................................................................",
"....................................................................................................................................................................................................... 55oo&:7621*#*343:*#@OO&&&&&#>60yy043366666,uuuuu6===**266>*>7660lzzxmZP!/^][[[[[^^!C0==%XXXXXXXXXXXXXXXXXXXX@#1155488qggSnnbVCVVVVbqXXXXXX  ................................................................................................................................................................",
"....................................................................................................................................................................................................... #q&o&*741*$$4411*=$$$**:::270alla97647766>,yuuuu-OOOOO%676:&*230yalzxNZPQ!^`[[[[[`Qa####XXXXXXXXXXXXXXXXXXXXX#11144qqq0gglkACCCCCCZb4XXX@5XX  ..............................................................................................................................................................",
"........................................................................................................................................................................................................ q3oo#63:$$341:*$$*2346807632::321*$$*>**=>uiiieOXXXX#%=:673%=27yayyzmNZCQ!^^[[[[`V7:=*#%%XXXXXXXXXXXXXXXXXXX@$1115444q00SjbCCCWWWCAj4$XX;%;XX  ............................................................................................................................................................",
"........................................................................................................................................................................................................ ;4@o@44:$483***$@$$$$*:::*#=$=**:::::***==uiiir-XXXX:&OO&7l0=*37077azbVZCQ!!^[[[^Va6>:*=##@XXXXXXXXXXXXXXXXX@#$111444qqqgkcVVVVZCCVVBk5XXX@@;XX  ..........................................................................................................................................................",
"........................................................................................................................................................................................................ Xq3oX141:881*:*$#@%%@#*$*$=****:11:12>>:=,ruiir-XXXX#OOOX@0l0##>667yazmmVCYQ!^`]!Zba6:**=*$%XXXXXXXXXXXXXXXX@##<1154554qgknclgkbVZCQCv0w<XXX++XXX .........................................................................................................................................................",
"......................................................................................................................................................................................................... ;5#X;42307212111*$***::1:****==**=*:=====riirr-XXXXXX&*6&;7y8%%:6670lxxbNZCY!//Vbmba62*$$*#@XXXXXXXXXXXXXXX@%#$11115555qq08000gSkvZCnS05w$XXX@5XX  .......................................................................................................................................................",
"......................................................................................................................................................................................................... X07o$117y0643222111:*****####$######==#==riitr-XXX&XXX2l&&*7a7=%:2670azzxmNZCQCzaxbbl72:*##@%XXXXXXXXXXXXXXX@%$11111555554qqqqq0gScAbnl9q5w%XX+@;@X  .....................................................................................................................................................",
".......................................................................................................................................................................................................... qqo+117jy843111:***$#$#@%@%@%%%%%%@##&&=,uitr-XX&%XOX*8XX%#300>=>367yaazzxbVZVkaalbbk03:#@##%%XXXXXXXXXXXXXX@@$11111<w<1554qq0009glvnjnl0q5%XXXX@XXX  ...................................................................................................................................................",
".......................................................................................................................................................................................................... :0;o#$7j0431111:***$$$$#%@@%#@%%%%%##%=--rite-XX@#XXX%#XX&&%2yy3&%*3700alzxmVVmlyylbbz04:$$*$$##@XXXXXXXXXXX@#$$11<w<<<<<<1544q0qq0kkcZCVn0q5%XXXXX@XX  .................................................................................................................................................",
"........................................................................................................................................................................................................... q3o&@30842234432321111:$$*#$#@@######===riir-XX%=@%#&XXX+@@#:0y2&&=68670alxmVZbyyyaxbz973::***1$#XXXXXXXXXXX%$$$<$$$<<$<<<1154q4qqgjnCWZbllj04$XXX55;XX ................................................................................................................................................",
"............................................................................................................................................................................................................ 7#oX:743799y087876321:*****$##@%======-riir-XX+%XX&&XXX&%%%&*0a3%&*36670albmVNayy0axxzl0421*$:1$%XXXXXXXXXX%###$%%%$$$$$$$<<1544qq8gbAVZCQCAl95+XX@5;XX  ..............................................................................................................................................",
"............................................................................................................................................................................................................ 51XX@189kkj07644421*$@%%##$#@#%######==riir-XX++XXXXXX&@%@&X+*0y6*%*26660albNb37000yjlkka841**:::$@XXXXXXXX@%%%%%%%%%##%%%$<<155554q0nACCQQCVvk5X+@XX+XXX  ............................................................................................................................................",
"............................................................................................................................................................................................................. q:X&qbVb94:***$$#@+@%%@@%@@%%%###=###=riir-XXXXXXXXXX&+&&&&&&#7y02%%:3670ylbaXX@6000jlkkj841:*:11:$@XXXXXXXXXXXX@X@@%@%%%%%<<<<<555qkvBkbVZVbS555$+XXX$@XX  ..........................................................................................................................................",
".............................................................................................................................................................................................................. q;3VQV91$$#@%@@@@+@@@@@++%%@%%%#%#%%=riir-XXXXXXXXX%%X&&XX&OO#3yy6&&*3680yl0XXX+700yyalkj041:*:11::%XXXXXXXXXXXXXXX@@XXX%%%$$<111qSl00gbVCCVnS8qq5%XXX@@@XX  ........................................................................................................................................",
".............................................................................................................................................................................................................. 5jbCVj41$:$$@%%%%%%%%%%%%@&&&++&%%&%-riir-XXXXXXXXX%3#@@&X&OXX#>yl6&&*3670a7XXXX+60909ylkl0621$::1:$%XXXXXXXXXXXXXXXXXXXXX%%%%<11qgq5q9nllbbAbllj9q;+XXX@$$X  .......................................................................................................................................",
".............................................................................................................................................................................................................. ;lbbj81$$$#@@#@%@@@@@+@%%@@&&&@%&&&&-,urr-XXXXXXXXX&88$@&+&+&&@%*yk0=%*23703XXXXX&:70009jlj983:;$$:*$%@XXXXXXXXXXXXXXXXXXXX@@@#$1115w5q800glbvbbnkj85$XXX@;;@X  .....................................................................................................................................",
".............................................................................................................................................................................................................. :pp09j909864441$%++++OO+@@&&@%%%+%&&%-err-XXXXXXXXXX+84$@+%+&&&&%:0za1%=:36:XXXXXXX+28800allj94:*::$$$$#XXXXXXXXXXXXXXXXXXXXXX@#$$$$<155q000gkbbbbcj9q5$XXX++XXX  ...................................................................................................................................",
".............................................................................................................................................................................................................. 064jkvvvvckkkkh8421*%++OOOOO&&%%%%%#=--re-XXXXXXXXXXX@41$%+&&&&&+%:0la6#%=>:XXXXXXXXX17090yjjj041:*$$$1*$XXXXXXXXXXXXXXXXXXXXXX@%#%#$<1544qq00gjkbbkkj0qwXXXXX5%XX  .................................................................................................................................",
"............................................................................................................................................................................................................. 507abbbcbcckkklj088884$$%&OXOOO&&+%%#=--ee-XXXXXXXXXXXXX::%@&&&&&&&%=3002O&=%XXXXXXXXXX@7a999yjj9741$$;ww*$@XXXXXXXXXXXXXXXXXXXXX@@%%#$11555qq0000lnknkjgq1<XXX+$;@XX  ...............................................................................................................................",
"............................................................................................................................................................................................................ +>5pbmbcckljh9908844q804$##@&OOOOOO&O%#-----XXXXXXXXXXXXXX@%%@&&&&&&&%#*67>XOOXXXXXXXXXXX+8aa909jj984111$$**$#XXXXXXXXXXXXXXXXXXXXXX@%%$111515448q00jknvvkgg05$XXX+;;XXX ..............................................................................................................................",
"........................................................................................................................................................................................................... X570bmmckkljj9908844344894*$##%+OOOOOOOOO----XXXXXXXXXXXXXXX&%&&&&&&++@+&%37>OXXXXXXXXXXXXX%8ja009jja0741*$$$$$$%XXXXXXXXXXXXXXXXXXXXX@##<111111244q0SlnBVvvvnlgq1%XXXX&XX  ............................................................................................................................",
".........................................................................................................................................................................................................  +4axccbvckljy9908874421238082*#%@%@+%%+&OO----XXXXXXXXXXXXXXXX&%@&+++@@+XXX+261XXXXXXXXXXXXXX+799909jla90411$$$$$$%XXXXXXXXXXXXXXXXXXXXX@%#$$1111111489lnBW!/^!!WVVbl0;;03@XX ...........................................................................................................................",
"........................................................................................................................................................................................................  @q90jllkklja9908877644321114884$+%@@$$#$##%O---XXXXXXXXXXXXXXXXX&@%@@@%%+XXXX%12:+XXXXXXXXXXXXXX;0y000jljj841$#$$$1$#XXXXXXXXXXXXXXXXXXXXXX@@##$<1111140lvC^^^^!QVABVVk9qqq35&X ..........................................................................................................................",
"....................................................................................................................................................................................................... X:09q409999900888767664432121:3887$X&@@@@@$##----XXXXXXXXXXXXXXXXXX+%%%%%@+XOOXX+*11%XXXXXXXXXXXXXX@49909jjj98411<$##$1$@XXXXXXXXXXXXXXXXXXXXXX@%#$111111qkZQ!CVbl0q55q455<%+@;;XX .........................................................................................................................",
"...................................................................................................................................................................................................... X:702:344444434322344444431131::3600:XX+XX+%##&--OXXXXXXXXXXXXXXXXXXX+%@@$@&XXXXXXX%:3*XXXXXXXXXXXXXXX1709999jS98411##%#<$@XXXXXXXXXXXXXXXXXXXXXX@%$w111$18VCCBn98q1<$%<$%%%%XXXX&@X  .......................................................................................................................",
"..................................................................................................................................................................................................... X#72&@:11111111111112344443111111:16aj6@XXXX&+%&OOOXXXXXXXXXXXXXXXXXXXX@#$$$%XXOOXXXX$208+XXXXXXXXXXXXXX@8a98899j98411$++@$$%XXXXXXXXXXXXXXXXXXXXX@##:1111q9VZnS0q441$$$%+%%%%+XXXX@@@ .......................................................................................................................",
"...................................................................................................................................................................................................  &405@&#*$**11w1111**11113333221111:1:3yk8XXXXXX&-&OOXXXXXXXXXXXXXXXXXXXXX%11$%+&XXXXXX%*jNa@XXXXXXXXXXXXXX@8088899900q1$%+@$1$#@XXXXXXXXXXXXXXXXXXXX@%$1114jbBvS8551111$%+%+XX%++XXXXX@@ ......................................................................................................................",
"..................................................................................................................................................................................................  ::5;@@@$$$:$141$$$1*:::::122211221111:*178:+XXXOXOOOXXXOXXXXXXXXXXXXXXXXXXX:3#@+&+XXXXXX%8NZl@XXXXXXXXXXXXXX&388888899841$#@%##$$@XXXXXXXXXXXXXXXXXXX@%@#$18kbnj8511$$$;%%@%+XX++++XXXXXXX .....................................................................................................................",
"................................................................................................................................................................................................. @73&&@@#$###$#4nk91***111:*:::::::1:1111:::261%XXOOOOOXXXOXXXXXXXXXXXXXXXXXXX+2*#%+XOXXXXX+*9VCk:XXXXXXXXXXXXXX#47848q8990851$$#@#$$#@XXXXXXXXXXXXXXXXXX@@@@18kkg4w1w<$##%%%@@+X+X++XXXXXXX@ .....................................................................................................................",
"................................................................................................................................................................................................ ;5q@X@$@#$$%%18kVVZc9*$$$*::*:*:::::112111:**264$%XXOOOXXXOXXX@%+XXXXXXXXXXXXXX11@%@+&X&XXXX@3xZCb3&XXXXXXXXXXXX+144444q89990411$##$$$#%XXXXXXXXXXXXXXXXXXX@@18lj01#$$$$$%%@@@@@+++X+XXXXXXXX@ ....................................................................................................................",
"............................................................................................................................................................................................... 55&XX+%@@#$<14kbvVmVVVa081$@$*$***:::112211:*$*3874:#+&OXXXOXX+$*$XXXXXXXXXXXXXX@4%%%++X&+XXX%:yxZPV9@XXXXXXXXXXXX$444444q880908411$####@%XXXXXXXXXXXXXXXXXX@#14jh41#@#$$%@+@@@@@@++XXXXXXXXXXXX ...................................................................................................................",
".............................................................................................................................................................................................. 57@o&+%++%$$4jvZZVVvbvmVVNk8:@#$**$*::11224311***49y06:=OXXXXOO%:1$XXXXXXXXXXXXXX#6$##++%%+XXX@@3ybCCVy@XXXXXXXXXXX%11111548889S98441<####@XXXXXXXXXXXXXXXXXX@#$1904w%@@@++++++++++++XXXXXXXXXXX@  ..................................................................................................................",
"............................................................................................................................................................................................. 5q@oX@$11111qvCCCCVVVVVVVVVVvk8:***$*:*:11244332:*:40zza6&XXXX%+%12*XXXXXXXXXXXXXXX$%%%+&%@&X+@@#:6ybVVVj$XXXXXXXXXX#111511448809998841$#%%@@@XXXXXXXXXXXXXXXXX@@:qq1#@@++++++++++++++XXXXXXXXXXXXX ..................................................................................................................",
"............................................................................................................................................................................................ ;q+oX+wjbbbnlbCQQCCZVVVbcbNVVVVmzj4$$*****:14444331:*10bVb6XXXX=#%:3:XXXXXXXXXXXXXXXX@%#+X%%&&%@%$1249lzbvl$XXXXXXXXX$1$$11154488899999q1$%@@%##%XXXXXXXXXXXXXXXX@$44$@+++++++++++++XXXXXXXXXXXXXXX#X .................................................................................................................",
"............................................................................................................................................................................................ 37o+$0cvvvvvVCQQQQQQQYVj88jxmVZVbl831:****::134443311:2yzx0XXXX*$%:31&XXXXXXXXXXXXXX&$%#%&%%+&%#%**$$2709lca:XXXXXXXX*1$$1$114448880999984$@@+@##%%XXXXXXXXXXXXXX@@11#+++++++&&XXXXXXXXXXXXXXXXXXXX+X .................................................................................................................",
"........................................................................................................................................................................................... X5@X9bBVkSjkVCWWCCVQ//!Cz81:6jxxk92114411:***:134444331*300*XXXO*1*131&XXXXXXXXXXXXXX+*$$@X+%++@$%##@@*14430kj4XXXXXXX+##$1$$11444488099p904$#%%@%@@%XXXXXXXXXXXXXX%1<@+++XXXXXXXXXXXXXXXXXXXXXXXXXXXXX ................................................................................................................",
"..........................................................................................................................................................................................  ;q@4VVckkkkvZCCWCvcC!!QVxa3#$13331$@@18441$$$$:113444442:44=XXXX*6443:+XXXXXXXXXXXXXX&$$@%&@%+X%$@%@+@$:::$:8lj6@XXXXX+$$<$#$<11444q88899jj941$#@%%%%%XXXXXXXXXXXXX%1$+XXXXXXXXXXXXXXXXXXXXXXXXXXXXXXX%  ...............................................................................................................",
"........................................................................................................................................................................................  ;qSkkbvccbBvvCCCCWZvkcVZVj084*#%@@@@%@@:7j93$$*$*::13444432222XXXX@8j941@XXXXXXXXXXXXXX&#@@%&@@+X%@+@@&@@$@$$$$40y0#XXXX#*<<$##w111544888889gja841$@%+%@%@XXXXXXXXXXXX$#XXXXXXXXXXXXXXXXXXXXXXXXXXXXXXXX@@ ...............................................................................................................",
"......................................................................................................................................................................................  X;qpnvbvVVAchnVQQQ!!QVj88jcj721::$%@@++@+$4jj01****$*12244333332$XXX&1jj81#XXXXXXXXXXXXXX&%%%+XX&XX#*+%@&+%%%%%@+@*498:XXX$$*$$$$$<111544888880Slj941$@++%#$@@XXXXXXXXXX$#+XXXXXXXXXXXXXXXXXXXXXXXXXXXXXXXX;X ..............................................................................................................",
"..................................................................................................................................................................................... X@;qplvVVVZVBg4vPQQQ!^!Cb948lk02::34*+&X&+&#289y81:11:;1154444343342XXX+4981$@XXXXXXXXXXXXXX%+++XXXXX$:+@+X&@+%+++XXX#267:&@$$1*<$$$$*111444q788889klj81$%&+%%$$@@XXXXXXXX$$+XXXXXXXXXXXXXXXXXXXXXXXXXXXXXXXX@@ ..............................................................................................................",
".................................................................................................................................................................................... X@4q0lNCWCCCCVkcCQQQQ!!!!Cn089yjy71462$*%&&+$487804:11;$11154443444604+XXX1441$+XXXXXXXXXXXXX@&X+&++XX@$++XXX&XXXXXXXXX&$70411$w;;$$$$$$$1154444q888jkvc941@%%++%@@%XXXXXXX$$@XXXXXXXXXXXXXXXXXXXXXXXXXXXXXXXX+;X .............................................................................................................",
"..................................................................................................................................................................................  X5qplxNC!QQQQWVnVQCQQQQCVml6:148lvmk0860k4&&+$36744211$$*<11114444444487$XX@1841$+XXXXXXXXXXXX@XX&XX&&X+%&+&XXXXXXXXXXXXXX$4841*;$$<$$$$$$$1144444q480jcbkj81$%%+++@%@XXXXXX$<@XXXXXXXXXXXXXXXXXXXXXXXXXXXXXXXXX@@ .............................................................................................................",
".................................................................................................................................................................................  @qplkbVQQQQQ!!CkSVQWQQ!!QCb962::*5hAVAckVZ9XX+$264251111$#$<111134444434992%+#8941$+XXXXXXXXXXX@XX+&&XXX@$@XXX&&XXXXXXXXXXXX@241$w$$$$$$$$$$$11111544q889jkkk94$@%&&@%%@@XXXX$$+XXXXXXXXXXXXXXXXXXXXXXXXXXXXXXXXX+@X ............................................................................................................",
"................................................................................................................................................................................ X@qplcvCQ!QCCQ!!Vj0vVCQQ!/!QCVVba4:$$1ybVCQV8+XX+18q442111$%#$w1w1113444337al0$%18841#+XXXXXXXXX+@X&&XXXXX@#XXXXXXXXXXXXXXXXXXX@111w$$$$$$$###$$<1111444qq09jkkkj41$@&@@%@%@XXX:$+XXXXXXXXXXX++XXXXXXXXXXXXXXXXXXXXX$X ............................................................................................................",
"............................................................................................................................................................................... X@qjSnVCQ!QCVCQ!QVjjckbCQ!!!!Q!QZvl6$%+%1jVCAy1XXX@588441151#%#$$w11115334330lkg1#w894$@+XXXXXXXX+@&X&XXXXXX@XXXXXXXXXXXXXXXXXXXX*11$$$$$$$$$$###$$$1115444q809jkvk031#+&@@@#%X%1#+XXXXXXXXX++@@+XXXXXXXXXXXXXXXXXXXX@+X ...........................................................................................................",
".............................................................................................................................................................................. X:0lbbVCQ!!CVACCCCk8jk80vQ!!!!!QVckj94$++O%8VCZc8+XX+3q4451141<#$1*$$::111343349kh1+1901@@+XXXXXXX+@&&&XXXXXXXXXXXXXXXXXXXXXXXXXXX111<$$#$$$##$$##$$$w11344448890jvvk961#@@+@###w5$+XXXXXXXXXX@%@XXXX&XXXXXXXXXXXXXXXXXXX ...........................................................................................................",
"............................................................................................................................................................................. &:0abVVCCQ!QCVVCCCv4%14119vCQ!!!Ck868084w@++8VC{CV8XXXX$111511441#$1$$$$:1123311q894@@1841#@&XXXXXX+@&X&XXXXXXXXXXXXXXXXXXXXXXXXXXX141<$$#$####$$##$$#$<115444q8880jcmb941$@@@@@#14$+XXXXXXXXXX+@+XXXXXX+++++&XXXXXXXXXXX+X ..........................................................................................................",
"............................................................................................................................................................................ XqjnbvVZVC{QQQCCCVkqXXXXX+%1jVPQPVk72608q4$++1cPQQQv1XXXX$1111<4881#$$$$$11::111148811@+104$@+XXXXXX+@&&&&yk8411$+XXXXXXXXXXXXXXXXXXq81$$$#$####$$$##$#$$$1111144q888jvVbj441:#@@#14$+XXXXXXXXX+@@++++++@@++++XXXXXXXXXXXXX@& .........................................................................................................",
"............................................................................................................................................................................ 5jkcvVVVkjcAVvcnk94%XXXXXXXX%49jnvvk99y0861#+@4VQQ!Qc1XXXX$1$*17884$@#$<<$::;111154941$X@481%++XXXXXX@+&+@cVbz88908998411$$$$$1480q<q8111##$#####$$$$$$$$$$$111144488ycvVVvj41$@+$45$@+XXXX++++@%#$$$$$<$$$#++XXXXXXXXXXXXXX@@ ........................................................................................................",
"........................................................................................................................................................................... ;0jnvVVAj456q4551$$$+XXXXXXXXXXX+$9cbzklg981$@X+yC!!QV9%XXX+155111482$%#$w$<$$::111490#1#X$44$@+XXXXXX++&&@kk9944408888888844448hlnj<$41;$#$####$#$##$##$$$$$$w11154448jkvCCvj4<;#1441#@XXX+++++@%#$$w11111$#@++XXXXXXXXXXXXXX;@ .......................................................................................................",
"........................................................................................................................................................................... qqjVCCVk0qqq411w<%+++XXXXXXXXXXXXX+28hlj9981#%++1b{!QCv4XXXX$0j4$%#141$$#$$$$$$;114548111+X141$+XXXXXXX&X&@l4$@+##$$$#$1451111544400%X151$#$$####$$##$$$$##$##<<:11155489kvVVVc0489941#+XXXXXXXXXX++++XXXXXXXXXXXXXXXXXXXXXXXXX@X ......................................................................................................",
".......................................................................................................................................................................... q5pVCCVblg845q4qq55w@+XXXXXXXXXXXXXXX+%w1q995$$$$w9V!QQ{k$XXX+5jkj4@+@14q1$$$$#$::151184$#@XX#11#+XXXXXXXXX@k8+XX5111$$14q44515804q00+X+141##$$###$$$$$#$#$$###$$$$<w1154899nVCWVkbbj81@XXXXXXXXXXXXXXXXXXXXXXXXXXXXXXXXXXXXXXXXXXX .....................................................................................................",
"......................................................................................................................................................................... ;ppVCVbnkjlglcvbnl00q5#XXXXXXXXXXXXXXXXXX+w0y61111*1kCQCQV8@XXX@2kvk4+X+$98$$$$$#$;1111481$$+XX$11#+XXXXX+XX+98+o%99088q09999889jjjjbj+XX@44$#$$$$$$$$#$$$$$$$$$#####$$115q00jbCQQQCvl8$+XXXXXXXXXX14;$111111111114qq441XXXXXXXXXXXX@ ....................................................................................................",
"......................................................................................................................................................................... qpcVn99jjkVCCQ!!!CAl081$+XXXXXXXXXXXXXXXXX+18q5111w$4cCQCCv4+XXX@1jcj1XoOql4$#$$$$$w111545$1@+X@151%+XXXX@++@85%X%gvvvvbvvvbkllkbvvvVk+XXX#74<#$$$$#$#$$$$#$###########$114000jAC!^Ckj1+@XXXXXXXXXX8vkkbcbvvbncbbVVZCCCV1XXXXXXXXXXXXX ...................................................................................................",
"........................................................................................................................................................................ :plbk80jlvCCQ!!!^^^!Cbj01<$$#+XXXXXXXXXXXXXX+$11111w*$8vCQCCk4@XXXX$9cl2XX1la1#$$$$$$111144$@#%+X%44<%+XX+@++@85%++0VVVVvvVVvbnkkvVVVVjXXXXX#44<###$#$###$#$$#####$$$#%##$<54q00lvC!Vp8$@@XXXXXXXXXX$kbACCCQQ{CCCCCCCCCWV5XXXXXXXXXXXX@X ..................................................................................................",
"........................................................................................................................................................................ 0plk99kvVCQCZVZCQ!^^^QVn011111*%%%@%%<1$++XXX+%$w121114hVQQCCk1@XXX+:9nj1@$8j8%#$$$$$$111541%##@XX$441$@@@@++@h0%++4jj99809j999809jkvv8&XXXXX@441$#$$$#$#$#$$$#####%%%##%%$<15qq0jvCcp4%@+XXXXXXXXXXX$49zvVVvvbbckkj988jj$XXXXXXXXXXXX+@X .................................................................................................",
"....................................................................................................................................................................... ;430kbbVCCCVckcbBZQ!^^^QCbgq11545w<$$<5q411$@+XX+#1554444kCQQCVk1+XXX+<8j95@;881#$$$$$$$<1151#@#%XXX$q41w$#@+X@l0%+%151w#%#$11111544q088$XXXXXX@485$<$###$$###########%@%%%%$<15500lvk91++&XXXXXXXXXXX#48jlkkjjj984441$w88%XXXXXXXXXXXXX@X .................................................................................................",
"...................................................................................................................................................................... &4:3jmCCC{CblhhjjlnbVCQ!!!QZc0554q6515w1444q64<+XX%<1551148nCQCCCk$XXXXX$8991#144$$$$$$$$*$w15<#$$+XXX1q441$%++#k0%++11##++@%#$w1<111114j4XXXXXXX+$141$#$$####%####$##%%%@+%%%$<w<489nk91++XXXXXXXXXXXX#8akbbxkklS88q0q5588$XXXXXXXXXXXXXXXX ................................................................................................",
"...................................................................................................................................................................... q0pcVCQ{CCAlg0900ghg0hkZQQ!!WVnhh900qqq54qq8qq5$%X+%w34w1549bCQC{V9+XXXX+;q9q:113<#$$$$$$$$1$11$#$@XXX+1q44;%@+%k0#++11#@++@##$$$11151;191XXXXXXXXXX141$#$####%#######%%%@+%%%%<<<1q0nb9w@+XXXXXXXXXXXX@438988888455541$#$$#+XXXXXXXXXXXXXXXX ...............................................................................................",
"..................................................................................................................................................................... 55qvCQQCVvvk0qqqqq000009nBCCCQQCVBvnl90g00qq08q41w%XX%145ww5q9VQCCCv4XXXXXX$4q41$$$#$$$$$$$$$$<4w#$#+XXX#6841%+X%k0@+@11$#@%#$$$<:14441$$:+XXXXXXXXXXX1q41<###%#########%@@+@%%%$<<11qlc9w@XXXXXXXXXXXX&#3380998808888411$#%%@XXXXXXXXXXXXXXXX ...............................................................................................",
".................................................................................................................................................................... ;55kYQCVvckj055464q8808jkkkcbVCC{CZVBbkjjklhyh9000q1XXX#15w<w5qlVCZCVk1XXXXX+<44<%#$#$$$$$$$$w$$11##$@XXX+1841@++%98@+@111:$<$$$$$114443;$#$@XXXXXXXXXXX5841$###%#######@@@@++%%%%<<<159j8$%+XXXXXXXXXXXX+114088q4445441$$#@@%%XXXXXXXXXXXXXXXXX ..............................................................................................",
".................................................................................................................................................................... q0kCQQVbk98q5154qq008q0lnbnjkcBVCCCVAvbckcbbcckjgg94%XXX$51$<140nVCZCVj$XXXXX@1q1####$#$$$$$$$$$11$#$#XXXX+141@@+%45#@+14311111<11111511:$@03XXXXXXXXXXX+4851######$####%@@@+%%%%%%%<158941%+XXX&XXXXXXXX&@$$4888444511#@@@@%%%XXXXXXXXXXXXXXXXX ..............................................................................................",
"................................................................................................................................................................... 5qnCCCVvk94451114qqq8qq8hknkhhlbbvVVVAbVVvbBVVVVvjjj01+XX+<w11w1q0kVZVVb6+XXXXX*41$##$$$#$$$$$$$$;11##%+XXXX+1#@++@$1#@X$841111111w<115111$@94&XXXXXXXXXXXX584$#####$###%%%%+@%%%%$$%%<1q04$%+XXXXXXXXXXX+X###$1111$%%@+XXXXXX++XXXXXXXXXXXXXXX+@ ..............................................................................................",
"................................................................................................................................................................... 9lVCVAbkS8511111468qqqqq89jh00jnkknvVvkvVvvAVVZCVVvbl8<%X+%$11ww48hcZCVvl5+XXXX@$1$@%141$$$$$$$$$$11#@@@XXXXX+@@++@@@%@X$08511111111115441#@1$+XXXXXXXXXXXX+441w$####$$%#@%%@%@%#$$#$$$1145#@+XXXXXXXXXXXXXXXXXXXXXXXXXXXXXXXXXXXXXXXXXXXXXXXXXX+ ..............................................................................................",
".................................................................................................................................................................. pvZZVvkj9851w1114466q88888000q0lnj9jkbvcckkcvvVZCCCCVb94w$+++$$<<5q9lvCZVv0+XXXXX%$#@%585$$$$$$$$$$11#++%XXXXXX++$:$@XXXX<j0111111111111541$%+$@XXXXXXXXXXXXX++494$%#$##%#%%@@@@%#$$$$<$$141#+XXXXXXXXXXXXXXXXXXXXXXXXXXXXXXXXXXXXXXXXXXXXXXXXXXXX ..............................................................................................",
"................................................................................................................................................................. 5mCVbljp981$$11548qq4q9jj988q8glccj989jcvj99hkcvVZWWCCBh04<<%++%#$w509lVCVVk<XXXXX@#%%$181$$$$$$$$$$11#++@XXXXXXX@yb0:XXXX#98111111111111155<@+81#XXXXXXXXXXXXXX#9g4#@%%###%%@@@%%###$$$$$141#+XXXXXXXXXXXXXXXXXXXXXXXXXXXXXXXXXXXXXXXXXXXXXXXXXXXXX .............................................................................................",
"................................................................................................................................................................ :jVVlg999841$$11488q889kzkj99hnvvvn98qq0lvkq4q0lknvVCWWVkg851<%XX@%<140hcVZVbq%XXXX+@##$4841$$$$$$<$$11$++@XXXXXXX@2vm9$XXXX481<1111111111155$@@k941@XXXXXXXXXXXXX$901#%##%@@@@@@@#####$$$$141#+XXXXXXXXXXXXXXXXXXXXXXXXXXXXXXXXXXXXXXXXXXXXXXXXXXX+X .............................................................................................",
"............................................................................................................................................................... ;pbVlS9888441w$148900hjkvckjjkvVCVvj88448hvn84q80hjlbVCCCbg0805<+XX@%15q9jcVVvh1+XXXX+%$$4881$$$$$$<$$11$++@XXXXXXX%#abk01XXX$4$#$11111w<w1111$++8908841#@XXXXXXXXX+$881%%@@@@@@+@%#####$$$$151%XXXXXXXXXXXXXXXXXXXXXXXXXXXXXXXXXXXXXXXXXXXXXXXXXXXX@X .............................................................................................",
"..............................................................................................................................................................  7qqp90844q41111489jjakkbBbkcvvVCCVvj88888gcch88qq0gjkbVCWVl0gj85<%+XX<5480lcvAk8$XXXX+%$w111$$$#$$$<<111#++%XXXXXXX#$@5a81@XXX1$%#w1111$$ww111#@X#Skkkj884111@XXXXX+&@1q4$++%%@++@%%###$$$$$$1*+XXXXXXXXXXXXXXXXXXXXXXXXXXXXXXXXXXXXXXXXXXXXXXXXXXXX$@X ............................................................................................",
".............................................................................................................................................................  q5@>47731144445489jkkkbbvVvvVVVVVZVvj8888qhbvk9qqqq8hknbVCPVkkkh05<%XX%<1qq0lbVbj5+XXXX@#$$$#####$$$*$*11$++@XXXXXXX%1@%11##+XX;8$#<1111$$$$w1$#%++kVVBbkjS8884XXXXXX+XX498$@%@@++%%#####$$$$$1$+XXXXXXXXXXXXXXXXXXXXXXXXXXXXXXXXXXXXXXXXXXXXXXXXXXXXX@X ............................................................................................",
"............................................................................................................................................................  q>&:2:135111444489jkcbbvvVCVVCCVBVCCZk88886hcvbk0qqqq8hjlnVCCZckj065<+XX%w1q8jbAvl4%XXXX+#$$##%#%#$#$$$$11#@+@+XXXXXX@1$@@@@%@XX1h1$$$$::1<$<$$w#@+@jVZZVVvckjj9wXXXXXXXX+184$@@@++%%###$$$$$$$$$+XXXXXXXXXXXXXXXXXXXXXXXXXXXXXXXXXXXXXXXXXXXXXXXXXXXXX+X ............................................................................................",
"............................................................................................................................................................ :3@;31:5431:11544489cvVVVVCQCCCCZAZ!^!v988840hlnch000q80gjlcVCWVkjg0q4<+XX$w58jcVVnq$XXXXX@$$$#%###$##$$$ww#@+++XXXXXXX#@@@%@$1%X#41#%##$ww<$$$$$#@+@19zvvvvbvmvk8@XXXXXXXXX@44#+@@@%%%##$$$$$$$$$XXXXXXXXXXXXXXXXXXXXXXXXXXXXXXXXXXXXXXXXXXXXXXXXXXXXXX@X ............................................................................................",
"........................................................................................................................................................... ;:;:q5144411;<144889kvVCCCCQQQQQQQCQ^^!m88884800jcngg98000hlnbZWCvlhg905%XX%<14ykVZv91%XXXX@#$#%@#%######$$$#+X++XXXXXXXXX##@@;1$XXX#%+@#$<$$$$$$#%@@@+13q09alxvVb91XXXXXXXXXX@44$%%%%%####$$$$$$$$XXXXXXXXXXXXXXXXXXXXXXXXXXXXXXXXXXXXXXXXXXXXXXXXXXXXXX;X ............................................................................................",
".......................................................................................................................................................... q5;37353355153q888plbvVCQQQQQQQQ!!QQ!!!Qc4480q800gnbhhj00080jkkvCCCch9jl8$XX%$<50jvCVlq$XXXX+@@@++@%######$##%+X++XXXXXXXXX@##@@$@XXX##+@@#$$$$$$$#@@@@@%@$:1:540knj9@XXXXXXXXXX+541#%@%####$$$$$$$%+XXXXXXXXXXXXXXXXXXXXXXXXXXXXXXXXXXXXXXXXXXXXXXXXXXXXX:X ............................................................................................",
"......................................................................................................................................................... ;p#&32:244709jcmVVmZCQQ!!!!!!!!!!!!!Q!!QVlqq84q8089kvzlh900880hjkBCCVkgnc01%XX%%<qhbCVc94#XXXXX+++++@%##$###$#@+X+++XXXXXXXX&+#$$$$@@X+@%$$w11$##$$@@%@@@+@@$@&XX+19kj1XXXXXXXXXXXX141#@%####$$$$$$$$+XXXXXXXXXXXXXXXXXXXXXXXXXXXXXXXXXXXXXXXXXXXXXXXXXXXXX;X ............................................................................................",
"........................................................................................................................................................ @5q$;348akcNVZCCYQ!!!/^^^^^^!!!!!^!!!!!!CAj80q148980kVvkj90008009jcVWCvnbcj4$XX+%%59nVVbjq1%XXXXXXX++++@%$$#$$#@XX+++XXXXXXXXXX+$1#+&XXXX@112q5:$@@##%%%@@+@@@+XXXXX*ak8+XXXXXXXXXXXX48$+######$$$$$$:%XXXXXXXXXXXXXXXXXXXXXXXXXXXXXXXXXXXXXXXXXXXXXXXXXXXXXXX ............................................................................................",
"........................................................................................................................................................ 7880jzbVCCCQQ!!!/^^^^^^^^^^^/!/^/^!Q!Q!!Cvj99812888ybVVbkj0080qq0hkbVCVbcnl0<+XX+%wqlvBcj0q4@XXXXXXX++X+%#%#%%%+XXX++XXXXXXXXXXX+#XXXXXXX+$w4884:@@@%%@@@+++&&XXXXXX+19j#XXXXXXXXXXXXX11#####$$$$$$$$1#XXXXXXXXXXXXXXXXXXXXXXXXXXXXXXXXXXXXXXXXXXXXXXXXXXXXXXX ............................................................................................",
"........................................................................................................................................................ pjcVVCCQQ!!!/^^^^^^^^^^^^^/!!!!!QCVVCCCQCBjgj944488jbvvVcyq088qq0gknkVCBcnl05%XXX+$59cbnl998*XXXXXX++XXX@@@@@@++XXX++XXXXXXXXXXXX@+XXXXXXXX+59j93*#%@@@@++X++XXXXXX@$+9z$XXXXXXXXXXXXXX#1<#%#$$$$$$$$5$XXXXXXXXXXXXXXXXXXXXXXXXXXXXXXXXXXXXXXXXXXXXXXXXXXXXXXX  ...........................................................................................",
"....................................................................................................................................................... 0cNCCCQ!!!^^^^^^^^^^^^^^^^^QW{{CCVvlplcvZCvjjk944489lkkcVvyqq88qq0gkckbZCvnlhq<+XX+%<8lkkjjh94+XXXXX++XXX++XX++@+XXXX+XXXXXXXXXXXXX++&XXXXXXX#0bj31:@&&+++++&+XXXXX@80*kz@XXXXXXXXXXXXXXX+11##$$$$$$$$5:XXXXXXXXXXXXXXXXXXXXXXXXXXXXXXXXXXXXXXXXXXXXXXXXXXXXXX$@  ..........................................................................................",
"...................................................................................................................................................... 3kCQQQQ!^^^^^^^^^^^^^^^^/^^QVbbbklp94448gnbkjkkj98449kckkVNl0q88qqq09lklbZVckhq1%XXX%$3yjjjljj91XXXXX+++XXXXXX+@%%@%#@@XXXXXXXXXXXXXX+&&+X@+XX@*9y:*2%&X+++&+&&&XXXX&4j0xy;XXXXXXXXXXXXXXXX+11$$$$$$$$153XXXXXXXXXXXXXXXXXXXXXXXXXXXXXXX++%++XXXXXXXXXXXXXXXXXX1$+  .........................................................................................",
"..................................................................................................................................................... 5aNY!/!!^^^^^^^^^^^^/!QCCCCCVl8741111$11540jlkkckjhq48kvbcVVbg8qqqqq4q0jjjvVvkj85<+XX+%w0hhjkkkl0$XXXXX+XXXXX++@%#@@%$$@XXXXXXXXXXXXXX&@&@X11X%%X$4&X*#+XX+&&X++&XX@3@2lbz48+XXXXXXXXXXXXXXXX@1511:$$$*<14XXXXX+%#$$w:*$##$$#$11111$<11111$$$$$$1$$$$$###%#%#+XXXXXX .........................................................................................",
".................................................................................................................................................... @pmCQ/^^^^^^^^^^^!/!!QCVmvvbk9q511111554411q09kcbbkj889kvvvVVvchqqqqqqqq09lvVZvhq51%XXXX#409jkkkkl8XXXXX+XXXXXX+@@@++@##+XXXXXXXXXXXXXXX%@@X$$X++&X*%XX+%&XXX+++X&XX2Vz18cj2l@XXXXXXXXXXXXX+XXX+54111111:69XXXXXX++@+++++@#@+X++XXXXXXXXXXXXXXXXXXXXXXXXXXXXXXXXXXXXXX ........................................................................................",
"................................................................................................................................................... @qamCPQQQQQQQQQ!/!!!!QQWCVVNbk98844888889851114jcbvbl9jjlbbcvvvBn0q8qq44qq0kvVVVj045<XXXX+1q0yknccz9#XXXX&XXXXXXX++++X++%@XXXXXXXXXXXXXXX#@@XX31XXXX+1XXX@%&X&&&+&&XX1Q!8%j94j+XXXXXXXXXXXXX++XXX@48084454jk@@XXXXXXXXXXXXXXXXXXXXXXXXXXXXXXXXXXXXXXXXXXXXXXXXXXXXXXX@X ........................................................................................",
".................................................................................................................................................. X509bVNVNvvvvbnvZZZZCCCYQQWCCCCVvbcncbnjkbnSq1w58kvVvkyjjlbbcbbAVb080qqq44q0jnVCVn045w%XXXX$5q9kcccky1XXXXXXXXXXXX+%%@@@%%+XXXXXXXXXXXXXX+##@XXa0XXXXXXXXXX+%@+X&&++XX*Q]b&4579XXXXXXXXXXXXXXXX++XX@8kcj944jc@@+XXXXXXXXX&&&XX+$$XXXXXXXXXXXXXXXXXXXXXXXXXXXXXXXXXXXXX&X ........................................................................................",
"................................................................................................................................................  &50ppzvbcxkllkjjlkkcbvvNVVVZCYQQQQCCCCCVvVCVvlq154ybAvzjzjkvbcbvVCCj0q454454q0lvBBbh445$XXXX+$50lccnlh6@XXXXXXXX+@@@#$#%%@%+XXXXXXXXXXXXXX@$$@XX4:XXXXXXXXXXX#:%X&&&&XX@V/m%&@84XXXXXXXXXXXXXXXXX+XXXX18899q0j1$@XXXXXXXX4lzzzzzmN3XXXXXXXXXXX&+&&&XXXXX*:==--OXXXXXXXXXX ........................................................................................",
"..............................................................................................................................................  :4700pakkljjjyaj99jjjccxcvvcxmVCQ!^^/!QQQCCQ!QCvj0440lbbzkbknvczcVCCWAgq555555qq9kncvk08q$XXXXX#18lnckj9q$XXXXXXXX+@##$##@%%@+XXXXXXXXXXXXX&%=$#XXXXXXXXXXXXXXXX#@&&&&&&X&0vl$X@7$XXXXXXXXXXXXXXXX+XXXXXXXX$118j9$+XXXXXXX=MPPYYPPPPz#XXXX+&+++++++++&&XX#yzyuuu6=OXXXXXXXX ........................................................................................",
"............................................................................................................................................. #>704379jljjay999909999kkljljjakbVCQQ!^^/!Q!!^^^!Cvl9889jklkbczckkzvVVCCkq31151445qgjnBbj0q<+XXXX+$8jkkj9981+XXXXXXX+%$1$##@%%#+XXXXXXXXXXXX&%@$*#XXXXXXXXXXXXXXXXX@&&&&&XXX107@X@4+XXXXXXXXXXXXXXXXXXXXXXXXXXXX1jj$+XXXXXX%aPT~~~TTTJPu&X&+++%++++++++++XX&yMMsuiis,OXXXXXXX ........................................................................................",
"...........................................................................................................................................  30743::40aaaja0008877848y08008880kVCVAVC!/^!!!!!!QCVkj988999jkccnzkkccACCbq5155545140jbZVk0q1$XXXXX@49kj98881+XXXXXXX+#$$#%%%##%+XXXXXXXXXXXX*:$$*@X&XXXXXXXXXXXXXXXXX&&X&XXX$6:&X@2XXXXXXXXXXXXXXXXXXXXXXXXXXXXXX18@XXXXXXXuZ~~~~TTTIPPZu#%#%%%%%@++++++%&XO=sMdrridd-XXXXXXX ........................................................................................",
".........................................................................................................................................  40003*::17700yj07688844647844874444jvbcbcnvC!/^/!/!QCVvcj98448hjcckkjkbcvCCV051ww111140hbVVc9q21+XXXXXw8jy86881+XXXXXX+@@@++@@##@@+XXXXXXXXXXXX44*:$&X@&XX&XXXXXXXXXXXXXX&&&XXX@2%XXX$XXXXXXXXXXXXXXXXXXXXXXXXXXXXXXX#+XXXXXX=MITTTTTTTTIICZu=#####%%%@+@++++XX-uMMr-ridrOXXXXXX ........................................................................................",
".......................................................................................................................................  :0aa442*$$1337788744787334788344511238jjkcckkcVQ^^^^^!QCCVkj9q3409jkjjjkbbvVVVk8<<w<<<1q0gnvVvl051%XXXXX%49984482@XXXXXX+@&XXXXX+@++XXXXXXXXXXXXX601:$XX%+XXXXXXXXXXXXXXXXXX&XXXX@#OXXX&XXXXXXXXXXXXXXXXXXXXXXXXXXXXXXX+@XXXXX&yJT~T~~TTTTIIPJM6==#####%%%%++++OXO,uMdrrddduOXXXXX ........................................................................................",
"...................................................................................................................................... ;7aaa0555:;:532332112443:1:1343133111114qq8jkljjcVCCQ!^^!Q{Cvkj03380ajjajlkcvCCVVk5<$$<<1q8gjnBBn05w$+XXXX+18084441@XXXXX+@XXXXXXXXXXXXXXXXXXXXXXXX:04:$XXXXXXXXXXXXXXXXXXXXXXX&&XX&XXXXXXXXXXXXXXXXXXXXXXXXXXXXXXXXXXXXXX+XXXXX>mT~~~((TTTTIIITPM,==#####%%%++&+&OO-uiMdddddduOXXXX ........................................................................................",
"....................................................................................................................................  3paap073234774432111:121$@:*:1::$345515154540909jkkbbAC!^^!QCVbkp7q89yj999yjkbVVVZbq5<#$w55489lvAcg5w<$+XXX+$6884541%XXXXX++X&33q7@XXXX&XXXXXXXXXXXXX301$&XXXXXX+XXXXX&XXXXXXXXX&@&OOXXXXXXXXXXXXXXXXXXXXXXXXXXXXXXXXXXXXXX+XXXXX7P~~~((((TTTIITTTYM====###%%%@+&+&OOO,rudGGDDDdrXXXX ........................................................................................",
".................................................................................................................................   60lnxla086489yaa987887431$@$:*131::341111151545548g9999jkvQ^^^QZvcj99jjja0899hjcVVVZVnq<$w<w15q0jbAbj8111#XXXX@14q411w%XXXXXX+X+73q7:$;3aaXXXXXXXXXX&XX$93:%XXXXX+@+&XX&+&XXXXXXXXX&&XXXXXXXXXXXXXXXXXXXXXXXXXXXXXXXXXXXXXXXX+XXXXXuY~~((EETTTTTITTTTPu====###%%++&&&OXO-,udGGGGGDd,XXX ........................................................................................",
"...............................................................................................................................   &7zzbNbxxxl909ajlzkllklja986774784444421111111141$148qqq489jb{^]^CVbjalcxzkj99jhjnAVZZZV0w$$##<540hnvvk05541+XXXX%1441$*$+XXXXX+XX;     @3p5XXXXX%XXXXXXX+244$@@X&+@%#@@&+++XXXXXXXXXXXXXXXXXXXXXXXXXXXXXXXXXXXXXXXXXXXXXXXXXX++XXXXXuY((((TTTTT~TTITT~TMu====##%%%+&&++&OO-,udGGGGDdrO&X ........................................................................................",
"..............................................................................................................................  #7azbbNZZZVVVmbbbbccbccxzxzljlkklxxjyp973533321$11*#14411518jkkv!]`!ZvljkccvvcjjjlkkbVVVVZn5$%%%$5489kvvcj0qq4$XXXXX$511$##+XXXXXXXX@ .... #q+XXXXX%&XXXXXX+@;4*@%&X&++$1$+&&&XXXXXXXXXXXXXXXXXXXXXXXX&+XXXXXXXXXXXXXXXXXXXXXXXX++XXXXXuITEEETTEE((TTITTTTIM6===#=##%@+&&%%XOO-,udGGFDDt,,= ........................................................................................",
"............................................................................................................................  ;0axblzbVCQ!!!!!!QQCCCZZVVVVVbccbbbmNvccj088800874322136744338azbbV!^/YVbccknvvckllklkcbncAZV91%@%$1480jbvbkgqqq1+XXXX%111$%@&XXXXXXXX+ .... ;8XXXXXX+&XXXXXX+@@41%&@#@&X+74@X&&&&XXXXXXXXXXXXXXXXXXXXXXXX+++XXXXXXXXXXXXXXXXXXXXXX+XXXXXuPTTEETT(((ETTTTTTTTId,===###%@%@+@%+XOO-rudGDDDdr,,& .......................................................................................",
"...........................................................................................................................  ;0la0p00axVC!////!!!!!!!!!!!!!YCCCZVVVVVvkj99ajjajj9999yjla0440lmVVvC!/QCVVVzkcckkkccnnnnllbVCn<%+%#w5q0jnbbclq4q4<XXXX+<51#@+XXXXXXXXX+ .... :8XXXXXX%&XXXX+XX+X*2*$11$XXX281++XX&&XXXXXXXXXXXXXXXXXXXXX++++++XXXXXXXXXXXXXXXXXXXXX+XXXXXuJRTTEEEE((TTTTTTTTTIJu=====#%%%%+%%$$+O-=uidDDFDdr,&X ......................................................................................",
"........................................................................................................................... 10kl900777pkNC!!!/!!!!!!/^^^^//!!!!!!!QQCVvzkkkxxzbbckxxxcczj909kmVCZVCCQQCCCVAmbllnvVVVbkhlAVZc<%+%%<5q0glncck04q9q$XXXX#51#+XXXXXXXXXXX .... :0XXXXXX@&XXXX%+X+&+*$$%XXXXXX281+XX&&&&XXXXXXXXXXXXXXXXXXX+++X+++X+XXXXXXXXXXXXXXXXXX+XXXXX7MJLTETTE((TTTTTT~TTRYJu==****##%@%%%$%&&-,uudGFDDtr-&X .....................................................................................",
".......................................................................................................................... 59lcxl986467yzVCQ!!!!!!!!/^^/!!!!!//^^^!!YCZZVVZZZVVVVvmmvNvcczkxbbmCCCVvVCQ!!!!QCAbvVCQQVckcVVZc<$++%<5q09hkcbnj040gq%XXX@11%XXXXXXXXXXXX .... $8XXXXXX%@XXXX++XX+@+XXXXXXXXXX44%+&X&+++XXXXXXXXXXXXXXXXXX+@++++++XXXXXXXXXXXXXXXXXX++XXXXX,ddGRETTTE(TTTTTTTTTRTTJu,>2:::#%%%%%%%&OO-,uiGGGFDt,,&  ....................................................................................",
"......................................................................................................................... 4plkkly8633360lxNZCYQQQ!!//!!!!QQQQQQ!!!!QYCCCCCPYPPCCCCZVZZVmmvmVCZNVCCVkkmP!^^^/!QCCCQ!!CBcnvVCAq<%X+<5q000jnbbn048jj4XXX+11@XXXXXXXXXX+X .... ;0XXXXXX@@XXXXXXXX%$XXXXXXXXXXX+*$@&&&&+&&XXXXXXXXXXXXXXXXX+@@++++X++XXXXXXXXXXXXXXXX++XXXXX,udDJTTRTEETTTTTTTTTRITTM,6433::#%@@%%&&OOO-,udMDHFdr,,& ....................................................................................",
"........................................................................................................................ 30aljl9762332370lxNZCCCCPYQQQYPCQQCCCCCCYQYYPCPPYQQQ!!QQQYPCCCCZZZCPYVNZCVzlxZ!/^!!!!QQQ!/QCVbbvVCVh1$++#1q000jnvvbl44jl8$XX&:1@XXXXXXXXXX1X .... :0XXXXXX+&XXXXXXXX$$XXXXXXXXXXXX+1@&&&&@@@+@%XXXXXXXXXXXXXX+@@@@@+++++XXX+X%4XXXXXXXX@+XXXXO,uriGTTTEEEETTETTTTTTTTTIMu762>:*$%%%+O&OOOO-ruidGGDdr,-O ...................................................................................",
"....................................................................................................................... ;08899y062:22:260yjxmVZZZCCCCCCCCCCCZZCCCYQQQYPPPYQQQQQ!!!YPCCCCCVmmVZZVZZNbzzmC!^!!!!!QQ!!QCZABVVCVk4$$++<qqq9jnBBvk419l0$XXX$1@XXXXXXXXXX# ..... :0XXXXXX&&XXXXXXXX#*XXXXXXXXXXXXX@$+&&&+@@@$$@XXXXXXXXXXXXX+@@@@@@+++XXXX+X$91XXXXXXX%@XXXXO,rrrDITTE(((((ETTTTTTTTTTTJsu7>>::=#%&O+OOOO-rudddGDDdr,-X ..................................................................................",
"...................................................................................................................... @qq5700062>::>:>670yzxmVVZZCCZZVVVVVVVZCZZCCCCZZZCCCCZZZVVVmbbbmNNxlaazmZZNmxljcZQ!!Q!!!QQ^!QQCVVCZVVv9$$%+<5q8ghcBBBc81qkh<XXX#<@XXXXXXXXXX& ..... :0XXXXXX&+XXXXXXXX@*XXXXXXXXXXXXXX@@@+&+@@+@@@XXXXXXXXXXXX&+@%%%@@++++XXX+X#99#XXXXXX#@XXXXX,urrdLTTEE((((((~TTTTTTITTIJMsu,,>:=#%+&&OOOO,uddddDdddr,=X .................................................................................",
".....................................................................................................................  5033708762>::*=2000ylzbNVVZCZZVNmvbvvvNNNNNvvbxzxbbbmmmbbbxxlzxxxxxza77lNVNxzzzbZY!!!!//!!!!QCCVCCCVAAk5%%+$140gjcBVVcg54nj$XXX%#&XXXXXXXXXX& ..... :0XXXXXX++XXXXXXXX%1XXXXXXXXXXXXXXX+@&XX+&XX+@XXXXXXXXXXXX&+@####%%+++XXX+XX1j4XXXXXX#@XXXXX,uuriGLT(E((((((~TIT~(TTTTIIIPMsuyu,>=#%OO&---rdddddidDdrr& .................................................................................",
"..................................................................................................................... 53::68076632>:==3yyyalzbmmVZVVVVmbbbcxxccxbxxcxllzbbbbmmmczzkkzxxzllzl727bNbaylxmZPQQ!!^^^^!CCCVVCZZVAVBh$+%#11q9jnbVVcjq5nh$XXX+@XXXXXXXXXXX& ..... ;0XXXXXX+&XXXXXXXX%*XXXXXXXXXXXXXXXX&&&&&&XXXXXX&XXXXXXXXX+@%##%#%@@++XX+@XX+j4XXXXXX#@XXXXO,uurrdJEEEE(((((TTIIT(TTTTTRIIJGGJJdu6====,uuurridddddFDdr,& ................................................................................",
".................................................................................................................... 38:$2667766222*#:0lljlzlkcbmNVVVVVNbbxkkzklllzzlllxxxzbbzllzxzzzxxlyyll026zxz07lbVZZCQ!!!/^/QVVVVVCVVAvvAbq%%%$w40gkcvVvk0qk91XXX+@XXX&&XXXXXX@ ..... 5qXXXXXX+@XXXXXXXX+$+XXXXXXXXXXXXXXXX++&&+XXXXX&@&XXXXXXXX+%##$###%@+++X+%XXX85XXXXXX%+XXXXO6ureetDITEE(((((TTII~(~TTTTIIIRRRRTIMMuuzssdMGdrriddiiDFdr--& ...............................................................................",
"................................................................................................................... ;q3=2777776622:=*8llllzzzzzxbbvmVVVVVvbbbbxlllklajllzzzxxa0lxxxzzzlyyyyla6277070lbZZVCP!!!/!!QCVvvZCVVvccAVk5$<$wq0SlbvABnS0k91+XXX+XXXXXXXXXXX& ..... 4+XXXXX+@%+XXXXXXX+#+XXXXXXXXXXXXXXXXX+&&XXXXXX&@+XXXXXXXX+%%###$#%@@++X+@XXX1#XXXXXX%+XXXXO,rrerrdGITEEEEET~TTT~((~TTTIIRTTTTTIIJGMdddidMdiiiiddddDDdr,-X ..............................................................................",
".................................................................................................................. 57#&:6777776322660zzljlzzxzzzxbbmVNNNVVNmvmbxllljaajllzzla99lkxxzzlayy77000227770lbZZVZCPQ!^!QQQCvvVVZVvncvVV9w%@<q0jkvBBAbk0j81@XXXXXXX&XXXXXXXX ..... 4XXXXXX@##+X+XXXXXX@XXXXXXXXXXXXXXXXXXX+XXXXXXX&@@&XXXXXX&@%@#$#$#%@@@+X+#+XX1+XXXXXX@+XXXXO,rrerriDJTTEEETT(TIIT~((~TTIIRRTTRIIJIIJduuiidiiiddidDDddDdr,-  .............................................................................",
"................................................................................................................. 5q>&#3777076600ybbbbzlzzkllllllzbvVNVVVNmvvvbxlllaayaaajy00ajllklllllay76666227770axVCCZVVZQ^/QPQCZVVVVAbzkcVZbq%++w5jnbvBVBl0941#XXXX&&&&XX@XXXXX .... @qXXXXX&*$1++@XXX&XX+XXXXXXXXXXXXXXXXX+X&XXXXXXX&%@&XXXXXX+@%##$$$$%@@@+X%1$XX@XX+XXXX@XXXXXO,rrrrdddGLTEETTT(~TTTTT~~TTTRTTRLLILLIJGduuiiirerdDdiidDDDDd,,& .............................................................................",
"................................................................................................................ q7#@@>70ya000abNmVmblllzlayajaaaalbvvVZVNvbbbbxklklaay090000alljjaaaaaaay762>>666630lxVCCVmVY!!QCQ!QCVVVvcklkVCVj1++%50knbBABk9941$+XXX++&&XX+XXXXX .... #0XXXXX@1:1++@&XX@XX+XXXXXXXXXXXXXXX@1@XX&XXXXXX&@@+XXXXXX+@##$$$$$#@@@+X#q1XXXXXXXXX+@XXXXXX,rrrtdddDHIEETT~((~TTTT~(~TTTTTTLLILILJDiuruiiirerddiidDDdddr--& ............................................................................",
"............................................................................................................... 50;&::40yalllzbVZVNxzlllj900yyyypalcczmVVVVNvvbbxzzlaay000870aljalzzayazxza7==:3322>7ylcVZNbmZQQCCQ!QPZBAvczljBCCv0%+%w0glcvVVn9941$%+XX@@+&&XXXXX$X .... #0+XX+X%211++#&XX@XX+XXXXXXXXXXXXXX#1<+XXXXXXXXX&@@++XXXXX+@%%#$$$$#%%@+X#q5XXXXXXXXXX%XXXXXX=,rrdddddDLTTET(()((~~~~)(~TTTTTRIILLILGdiiuiiireriitiddttrtr,-&X ...........................................................................",
".............................................................................................................  5q;@$360yyyxNmbbmmmbzzxzay00000yyyazbcxmVVVZVVVvbxzljay9099080ajyykcly7yazza7*=22222:37jzxcbbvVCCCCPPCPCVmvkkjjvZCZkw%%<50SkvVVn9941$#XXX@@++&XXXXXX ..... #9+XX@X#411++#+X+@XXXXXXXX+XXXXXXX14<XXXXXXXXXXX@#@++++XX++@%###$$##%@@@X@54@XXXXXXXXX@XXXXXX-,rrddtiidHLITTE())(~~(((((TTTTTTIRILIIJGddiiidirrdddttiitrrdt-O&X ..........................................................................",
"............................................................................................................  50;@@*8yy00ycVmxzxbbxzcbxayy00770yyaxbcbVVVVVVZZVvckja999000000099yjjy000yall022>3322234yl9ykvvvVZCZZZZCCCvckljjbVCCVq%@%<50kvVVc0941$%XXX+@@++XXX@+ ...... ;0+X+@X$41w++$+X@@XXXXXXXX+XXXX+%<q<+XXXX&XXXXXX@#@@++++++@@#%@@@#$$#@#%++141XXXXXXXX+@XXXXXXO-rriitttiFLLITE())(~~T~~((~~((TTRRIILLLJGGdddGdtrDHHDddddtttdrO&>  .........................................................................",
"...........................................................................................................  ;q3&#>6yla080azzlzzzlzllxzaajy866700akkkvNNZCVVVCCVmckjaa99999000ajy080yyy0yyyay732233344yj09jcvmbvVVmVVZCVvkkjjlbVCWZk1%%<w0kbvVc9041$%XXX+@@+&XXX;X ...... ;9XX@#@$111@+<@X+%XXXXXXXX+XXX+++<q%XXXX+++XXXXX##@++@+@@+@##%+XX%$####@@+$45%XXXXXXX++XXXXXXO-,rudtrtdDLLLITE()(TJJP~((())(TTRRLLLLLJGGGGGJGirdHJLHGGDDittt--,>  ........................................................................",
"..........................................................................................................  @53;#270jzl07700ylxzlljjlzzlzly007800alakvbvVCCCCZVVVmckkkla9987809j98770007767ll0332233360ayyjzbmvbmVVVCCVVckljhjbVCWCV9<%$<0lkcBb9041$@XXX+++&XXXX# ....... 59XX%$#$$11@+$+X+#XX&XXXXX+++++%+$5%XXX%@+++XXX@$1#@+@%@@@@%#@XXX@######@+@14<XXXXXXX+@XXXXXXX--rrddttdDLLLITT~(~JdJQ~)))))(TTTRLJLLJHGGGGGGdiriGHLHHHHDdtttr--:; ........................................................................",
".........................................................................................................  #73;;2778ylj977770alllllllzllllay00000ajjkckbNVZCCZNmVVmvmmcljy08800999000006>:6al0666366779jlajlzcvbvmmVVVVvnj9jjkbVVCCCn4<#<qjlkvb085<#@XXX+@@XXXX@  ....... 55XX#$#$$11%+#@X+%XX+XXXXX+++@@%%<1+XXX+++++++#111w#@%#%%@%%@@XXXX##$##$$++141+XX+XX+@@XXXXXXXO-,rididDDHLLITTT~IddI~)))))_)(TTTIIILJHJGGGdiiitiDGHHHUHHDDitteOX#X .......................................................................",
"......................................................................................................   @;00&&26633700633460yaajkkllljlllj9009999ajjlzbvvmVZVVVVVVVCCVczckj90009jjaay6:*:0ly066666780ylla9yjlcbmvbvvVvckj999jcVVVCCVj1%<qhjcAc001<#$%XX+%@XXXXX ........ 5XX+###1w11%@#@XX+XX@XXXXX@+++%$141+XXX++++++X#q85$$##%#%@@%@XXXXX#$$$$$#%#$1$@++XXX+@@XXXXXXXO-,ridddDDDGLLITETGiJ~((()))_)(TTTTIILJJJGGDddditiGHGGGGGUKUDtttrOX&& ......................................................................",
"....................................................................................................  @5q4;3>&#67733376224668yajlkllllllljjjj99y99yyajxvmbcbmVVVVVVVCCVVNvbccky9ajjjj06337aa764336670y9aly990jkcvvckcbckjg889jbVVVCCCbq<<qgjvVc9q1<11$XXX%%XXXX ......... q+X@$#$1111@@$@XX@XX@XXXXX++++%$141@XXX+@++++X+8l01$$@@@%+@@+XXXXX@$$$$$######@+++XX+@@XXXXXXXOO-erddddDddHLITTJdGT((~()))__)((ETRRIJJHGGDdddittDHHGHHGGKLUDtttr-X@& .....................................................................",
"..................................................................................................  $57aap042:268622466233623700alljalllajllj99yaya99ykcczkcvNVZCCZVVVVVVvzcmvzlljjaay0yaaja764476689aaajay90jkbbckjjklj99889jvCCVCWCVj3140jvVbh01111<+XX@&XXXX ........ Xq+X#w$$11<;#@#@XX+XX@XXXXX+@@+@$151+XXX&+++&+&+5kk8$$$@@@++++XXXXX+$$#$$$#%#%%++++XX+@@XXXXXXXXO--riididitDLLLTJDI((~~~())__)))(~TRTLJJJJGddGdiidHHHLLKUUHKKDdtrrO#>  ....................................................................",
".................................................................................................  5q0pklllly76676667334333333370alaaalllljjj99yyaa90ykzkjjzbNVZVVZCCCVVVvzcNmvckljayyylxxlly0770070allj90009jkbvckjhy9998q48jVCCVVCCVk05qggvVbj05155$XXXXXX&X ......... XqXX$1$$41<$$$#@XX@XX@XXXXX@#@+@$11$+XXX++&+++++#8n91$$%@@+++XXX14X+$$$$$$##%%+++++XX++@XXXXXXXXOO-eiididdtDLLLLLJT((TT~~())__)))(TTTIJJIIJGGGdiidGGHLLLKFFKLLGdtr,-=& ....................................................................",
"...............................................................................................  ;5plkmVNmxkly780809088007090766709yyyalxkjy999yjaja9jlklaalcvVVNVCPQCVvvvvVVVVNvxljjyjzmmclaj90009yyakj8880jjjcvvvlh90088448jVCVbvZCVclqqggbVbj05151$XXXXXX&  ......... Xq+X$1$$411#$$#@XX@X+@XXXXX@$#@%$<$#+XXXX&&@+++@@#0j4:$%@+X+XXXXjv%X$$$$$###%@+++++X++++XXXXXXXXOO--riiiidtdKLJLLIT(((~~~~()__))(~TTTRIITTIJGGDiidGGGHKHUGGKLLHDdddr-&O ...................................................................",
".............................................................................................  ;7alxbVPCZVmxklalljkckajxxzzbml073609009jkkj9009jjjjjalzzljalzbVVVVVZCZNvvVVCCCVVVvczllkmVVmlya90889jaala8669kjjnbmmkh98008448kVVczvVVVvc0q00cVvk85111@XXXXX+& .......... @0+&$1$$411$$1$@&+@X@#XXXX++;%+%$$#@XXXXX++X++++@X@801#%+++XXXXX9m1X$#$$$##%@@+++++X++++XXXXXXXXXOO-riddddtiFKLLLTT(((~~~~~))_)))(TTTTTTRIJGGGdiiiDGGDDDFGGUHLKHDDDdrO&X ..................................................................",
"...........................................................................................  @>0lxbVZCQYYCVVmcxbvmVmxlkvNVZCZVvxa0780000aja9009jljlljlzxxkjlkbmNVVVVVVmmNVVCCCCVVVVNmbbZCCVl0000740aaajy0749ljkbvvvjj90084448cVVckbvBvvn9008cVvk8511$XXXXXX@ ........... ;0+X$1$$411$$11%++@&$<XXXXXX@++@$<%+XXXXXX++++++++X198$%+++XXXXX;9%X##$$<$%@@+++++XX++@+XXXXXXXXOOO-rudddDttDHLLKLTT(((((~~)___))(~TTTTTIJGGGddiiidGGDdDDFGGHLLKHGFDi,--  .................................................................",
".........................................................................................  &:q0lxbvZQ!QQQQPYCNmVVVVvclkvVCCCCCCVNca77770ya99009jjjjklkkkzlajlcvmvVVVVVmNNVVCCCCCCVVVVNVCQ{Zky90078yllay9989jkkcvvVvljy0884449vCVckkbvbbng088cVblq1<#@XXXXXXX ........... >7XX#1%1811$$51%@@@+$1XXXXXXX+@@$<@XXXXXXX+X+XXXX++@4a4@@++XXXXXX@XX@##$$$#%@++++++++++@XXXXXXXXOOO--ridDDttDFKKHHLTE((((~~)____))((ETTTIJJJJGdiiiMGGDdDGHHHLLLLLKHDdr,,- .................................................................",
"........................................................................................  @270anxxxNY!!QQQYYYZVVVVVmbccNCCCCCYCCCZvxl0780990000yy9jkzklljy09alzcmVNNNvmmmNVVCCYQQCVmvVZPQQCvkly999kbcjy99jbbzbvbvVAcky8q4444jVCVkhjkbnckg008cVbjq1#+XXXXX@@ ............ 5+X+%<$5q11$$51@@$@&$1XXXXXXX##@$<@XXXXXXXXXXXXXXXXX@8a$&@+XXXXXX+XX@%##$##@@+++++X+@@@@XXXXXXXXOOOO-riDDDdtdDFHHHLTTE((~~~)_____))(~TTTIJJGJddiiidddiiidDDdDGHLLLLHDdr,-- ................................................................",
".......................................................................................  #4347aaaaakNCQ!QQCQQCZVVCCZNvNZQQCVCQYCCPCZVbl07000000ayyjlkljyy00jjlkzvVNvNVVNNNVVVZCCYCZVVmVCQQCVczljjjcbclljlbVANAvvVVVVch844q44jCQVj09lnknkg088cBcjq$+XXXXXX@X ............ qXX+%%$4415#$41@$:@+%$XXXXXXX2:@$$@XXXXXXXXXXXXXXXXXX@84@@++XXXXX@XX%%#####@++++X+++@@##XXXXXXXXOOOO--rDDDDDtDdDHHLITE(((TT()____)))((TTRJGGGdddddre-eeeeeeeertdHLLHHFdr,,& ...............................................................",
"......................................................................................  ;44:6007870ylVP!!QQ!!YCCCQYCNNVCQPVVP!YVZYYYCVbkp009999jjalkla00909y99alxccbNVZZVVVVVVVZCCVVVbmZPQQZvnlkkcvvbbbzxVVNVAvvmVZZvj647647kCQv0q0jkkckj080bvch5%XXXXXX+@ ............. qXX+%%<5411#$41@$1#@%$XXXXXX@3;@$1+XXXXXXXXXXXXXXXXXXX#41@++XXXXXXXX@@@####%@+++++XX@@#$XXXXXXXXOOOO--rdDDGDiitiFHLLTE(EETT()_____))(((TTLJGdGGJJGdeeeeereeerrrtDHLHHHGdr-&& ..............................................................",
".....................................................................................  q4>>400777770ylVY!!!!!QQQ!!PVVVZYQCNVQ!CVZYYYYCVVvzjyyalkkjlljy9aajay08009jkcVZCCCZZZZVVZCZVmmmVVZQQPVbkcvVVvvVVmVNvvvbbbvmVCVl747648bQ{c849gjknlgg0jbbkg1XXXXXXXX  ............. qXX+++<4511#$41##1#@@#XXXXXX5$@@$1+XXXXXXXXXXXXXXXXXXXX#4$+XXXXXXXXX&%@@$$#@@++X+++++@$1XXXXXXXXXOOO--eiDFUDitrtDHKLRTEETTT()))___)))((TTTIJJGJJIJGiiddddddddDDdDDHHKKHGd,-,  .............................................................",
"....................................................................................  q7>>770077776670lNP!/!!!!Q!QCVZZCQQCVC!!YZCYYWYCCCVVvczlkxkkkzklajkzklja900akbNZCCCCCCZZVVZZZVVVCVAZQQCVbvVVVVAVVVVvkzzcbvbbVZVk746440VQClq480Slkjg00nvnl0#XXXXXXXX ............. @q&X+++%4$<1##41@@1$@$#XXXXXX1@#+$1+XXXXXXXXXXXXXXXXXXXXX11@XXXXXXXXX&@#$$##@@++X+++++%11XXXXXXXXXOOO---rDFGDdtrtDFHJLRTETT((((()___)))(TTTRIJGGJIIJGGGGGJJGGGGDDFFFHLLLHDt,,> .............................................................",
"...................................................................................  qq>267777776632667amC!/!!!QQYCZCCQQPCCY!!PCYQYYYQYCCCVVVvbcccbbxzllzccxcckjalcvVVZVVZCCCZZZCCCPZVZCvvVCQCVAVVVVVvcVVcljjkcvNvmVVk74444aVQZh44q0gSj0000cvnj5XXXXXX@@ .............. #5XX+++%5%$;%@51%@1$@$@XXXX&&@$1+$1+XXXXXXXXXXXXXXXXXXXXXX$@+XXXXXXXX+@@%@##@@++X+++++@11XXXXXXXXXXO----edDDFDittDHFHHLTTT~()((~(_____))(TTTRJGGGJJJGGGJJJGGGGDDDFHFHKLLKHDr--# ............................................................",
"................................................................................... 33@>>676666666322360lmC!!!!!!!!!QYQYYPC!!YCQ!!Q!!QYCCCZZZVVmvvNmbxxbbcxbbbcxkkkbNVVmNVCYCVVCCCYYZZZZvkcZQCvvVVZCCAvVVckj99lxNNvVVl63446lCQV94400ggg088gcvk0%XXXXXX;X .............. ;5XX++%#4$1$@%51@@1$$:@&XXX&XX:1X$1+XXXXXXXXXXXXXXXXXXXXXX@#+XXXXXXXX+@%%%@%@+++X++X++#:1XXXXXXXXXXO----eiDDDDDdtDFFHHLRTT~((((~~)____))(TTTTJGddJJJJGJJLJGGGGGGGHHHHHKLLKHDr-%# ...........................................................",
".................................................................................. ;7:;>>6466666622222360axZPQ!!!///!!!!QQQ!QYCQ!QQ!!QCCCZZZZVZVNNNNNbbmmbxcvmmvbczcVVVvbVCPCCVZCCYCZVVmvcvCCCmbbvAVVVVVNbbxlaakVNcNmj62378zCQV94480000q80gbblq+XXXXXXX ............... 5qXXXX+$qw1<@%1*@@1*$:@XXXXXXX@XX<3+XXXXXXXXXXXXXXXXXXXX++X@%+XXXXXX&+@%@@+@++++++XXX+#$1XXXXXXXXXXO-,--erdDDDDDdDFFHKKLITT(E~~T~(_____)(~TTTIGddGJJJGGHIIJHGGGGHFHKKFHKKKKHGi-&X ..........................................................",
"................................................................................. 333243366646663>>>2266670lxmZPQ!/^^^//!!!!!!QQQQQQPCCCZVVZZZZCZZZZVVVVVNvmVmbNVNbxVCCVvVPQ!QZVCYYCZVvcvmmVVVVvccvmbvVNbckkla9lvbcvvl73460bQQv8440q800880gcbj4+XXXXXX ................ 5;XXXX+$8441#@:$@@1$:1@XXXXXXXXXX$1+XXXXXXXXXXXXXXXXXXXX%XXX%&XXXXXXX&&+++++++XXX+++++%#1XXXXXXXXXXO--eeertdDDFFddDDGLLLITTTTTTRT()_____)(TTTIJGMGJIJGGGJJLLHHHHHHHHKHHKKKKKKHuOO  .........................................................",
"................................................................................ q7#:466666666662>:2223336707yxNZY!!/^//!!!!!!!!!QYYCCCCCZVVVVZCCCZCZZZVVVVVVNmVVVNbNVZVVZP!!QCVCPCCCVbbVVvvbvVvbnbbcvVVclalj90yllxvcl83449VQPc854qq0qqqq09cbh4+XXXXX  ................ q@X%X+@<84q1$$1$@%*#:3@:114q1$XXX$5+XXXXXXXXXXXXXXXXXXX+@XX++XXXXXXXXX&&+&X+++XX+X+++X@$1XXXXXXXXXXOO-rreertdDUGdtddDHLLLITTTTTIT~)______)~TTIJJGGJJJJGGDGJLLLKHKKHFHKKKKKKKKKDr,= .........................................................",
"............................................................................... 30:#:43366666663>>:>262>>>22470lbVCPQ!!!QYQQQ!!QQYYYYYYCCVVVVVVZZZZZZCZZVZZCCVVCVVVbbvVVZVZPYCCCCVVZZvcvVvbckzbvbnncccvmblykj0009pkcxk0344aCQCk8154qqqqqq8gbb95XXXX@@ ................. 0;X$%%#14541$:1$%%$#1p0bCYQ!!Yp:4gj84111+XXXXXXXXXXXXX&@@XX%%XXXXXXXXX&&&&XXX++XX+X+++@$1XXXXXXXXXXOO-rreerrtDFUDiitiGLLHLLTTTTTT~))__'__)(TTIIJJJJIIJJGddGHLLLKKKHFHKKKKKKKKKFdr,> ........................................................",
".............................................................................. 572=*>2222322222>:**:2:>>:::>260ylzbmVCCCCPPPYYQQYYYYPPCZVNNVVVVVVNNVVZVVVZCCVVmVVVZVVVVVVVVCCPPQCVmVvklcckkkklkcckkkckjlk99ay00889lkcx0344lCQCk8154qq8qq80lvc8%XXXX@ .................. 0;X%###11141*11$+@16jCQ!!/^^^^!QQ!!!!!!QA8XXXXXXXXXXXX+$$XX%%&XXXXXXXXXXXXXXXXXXXXX+++$$1XXXXXXXXXXOO-,rrrrerdDUFdtttDHHHHGJRTTTTTT()_]'__(~TIIIJJJIIJJJGdDGGHKLKHHHHKHHFFHHKKKFfr,& .......................................................",
"............................................................................. @0q:::>2222322>2>::*=*>>::::::>260ajalbmmNVZCCCCCZZZCCCCCVNNNNVVNbxxcvvvvbvNNvbbvmvmNVVbbNVZCCCCQYCVbczjajj99hhhjlkjlxbz99jj990087099jbc9347cYQVk8124qq8qq80kvc5XXXX& ................... 0@X@%%%41151151#@1avCQ!!!!!^^^^^^^^^^^^^^!v98XXXXXXXXX@:$X&%#+XXXXXXXXXXXXXXXXXXXXX++#111XXXXXXXXXXOOO--rrreetDUFDttrtDGHHDGLTTTTTRT~_]'__))~TTIIJJIIIJJGGDDDDGLLHKKKHFFFDFFFFKKFdr-& ......................................................",
"............................................................................ Xqa72:>222121232********:*::=***>670aalzxbmNVCCZZVmmNmmVZCZZZVVVNmbkkbvbcxzklljjkcvvNVVVvbVVVZZVVCYYCNcklja8689909jjjlkcz99jjy99088099acby468bQQVk81144qqq889lbj@XXX&& .................. @9@X%%%+81w11$41#:aVCQQQ!!!!!!!!!!!!!!^^^^^^^^bqXXXXXXX#:@X+@$@XXXXXXXXXXXXXXXXXXXXX+++$11XXXXXXXXXXOOO--rrreeriFUDDDrrtGHGiiJTTTTIJJT()_____(~TTIIJJJJIJJGGDDdDHLKLLLLHFDDDFFKKKKFd=-  .....................................................",
"........................................................................... ;q0062>22::::::::*===*#=*=*:****=:6660yjlzxvVVZZVVVNmvbccmVCCVVVNbbxlkbbxkcclaa99alkcNVVZVvmbxcbvVVCQPZvckka8888q689jllkkkyjjy9hj9740yyacvl879vQQVl851444qqq80jz4XXXXX ................... ;9%X$%%+q1111$511aVCCCPYYQQQQQQQQQCCCC!^^^^/!/^!vj4XXXX@$XX+@*$@+XXXXXXXXXXXXXXXXXXXXXX#11XXXXXXXXXXOOO--rrireetDFDFFttdFHHtrDRTTTIGGR~))__'_)(~TRIJJJJIIJGGGGdDGHLLLLLLHFDDDFKKKKKFrr, .....................................................",
".......................................................................... #pp0732222::::**:*=##==#=*==::***=:36878lzzbNVVVVVZVVNvbcxcmVVVVmckcckcbklkxzjjy99999akcbmvvVVVvbvvvZPQCNvbckj9884448jkklkljjj99jlh84709ycvz079mQQNj8115444q80009@XX@& .................... ;jwX%%%+455w$#33aVCCCCCWYYCCCWYYCVVvvmVVCCVVVVQ!!^Qz1XX@@XX+$*$##&XXXXXXXXXXXXXXXXXXXXX#11XXXXXXXXXXOOO--rritrettDDUKDtdGHHdetHITTTLJT~()_']]_)(TTIJJJJJIIJGMDDDGGHLLLLLLKHFDDFFKKKKdr,- ....................................................",
"......................................................................... @0lp08766633211:::*#%#==*==*>>:****:62633yajzvvVVVVVVVVmbbbbvVVVvbklxcvVvxlja99ya909099allcvmVVZVbzkbVCPCVNNvxlhy98q449kklljjjjh9jlj078889zvc978vQQVj8115444qqq41@+X@X ..................... wq%+%+++444$#$14bZVVVZCCCCCCCCCCZNbczxccbvbcccvVCQ!/YqX$@XX+$*$**%XXXXXXXXXXXXXXXXXXXXX$1<XXXXXXXXXXOO---rriirrrtiDFKDiDHGHDttDJLTTTRTT()_']]'_)~TRIIIJJJIIJGdGJHGHHLLLLLLLHFDDFHKKKGdr,, ...................................................",
"........................................................................ @0alapp000766432222*#%#===*::222>***263226099ylbVVVVVVVVVvvvvbbvvcxzkklcvklj987489y90880aajcbbvVVVVvbxbVCYZVNvcljkklh8489jjjjh99y9hy9878870zNb978bQQVj4<$4444qq5$X+;@X ...................... ;@X%%++@244$#$39vVVNVVVZVZZZVVVVNbczzzkkkkkkkknvVCY!^QVj@XXX$$$*:$+XXXXXXXXXXXXXXXXXXXX#1$XXXXXXXXXXOOO---rritrrrtDFKUdDFDDGDdDHLITTRRT~()']''_))~RIIIIJGJIIJMGJJJHHHLLLLLLKGDDDFHKKHGdr,& ..................................................",
"....................................................................... #8alllkllja9008744331*#*:::22266422:266623709yylbmNmmVVVVVNvbbbxxccxzkjyaayy908644777746789alzzbbvbvNvcvVCYCVVNvzkcbbk9q4q99hjhy999088688779zVvj88cQQV94$$544444$XX5#X ....................... q$o+%+X%<11#$48kbcvNVVVVVVVVVVNbxkkkllllljjllkkxvVCQ!//C8XX@@$@#**@XXXXXXXXXXXXXXXXXXXX%1#XXXXXXXXXXXOO----rrtttrtdFHHDDFDtFFDDHLLTTRIITTT)_'___)~TIITTJJMJIIJJJJLJHGHLLLLLLHFDDDFLLLHDdr,  .................................................",
"...................................................................... &5plxbbbbbxxkkla9088874466670y0yy077677776660809hzxbxxcbNVNvvvbzjjjllja900900877744446788647889jxkkkcNbbVVCCCCZVVbbvvvcj9444809yh9988q4qq4489kmAl84kPQA01#$544441+XX@X ........................ p1o++&X$%$1$:08alkbNmmvmmNVVNmbxlljjjjaajjjjjjllkcvVCQ!!Z4@#@*#*$*$@XXXXXXXXXXXXXXXXXXX@1#XXXXXXXXXXXOO-----eiitttdDFGFDFDtDKHFHLLRRTIIIRIT_'___)(TTT~~PMMMJPIJJJILJHGHLLLLLLHFDDFKLLLLGd,, .................................................",
"..................................................................... @470xmVVVVVNNvvcxzkllljajaaayyaallaay09y76667768uyllllllcvmbbvvbkj99aay9080987464666444600644789jxzlzvVvvVVZCCQCVVZVvbbbkh81154489998884641569lbvk84jCQv8<#114451+XX&X ......................... 0;o++X+<@$1$19080jxbbbbbbbvvbckljaaaay999999yyyajknvVVCQ!PV92*$$:$$$+XXXXXXXXXXXXXXXXXX+1%XXXXXXXXXXXOO-----ertttttdDDFDDDttHKHHKLLLRTTTIIT)____)((~~~IMduddMMMdDGJHGGHLLLLLLLKHFFKKKLLKDrr, ................................................",
".................................................................... #8jpSmVCCCCCZZZZVVVVVVmbbcxzzllzzzzllaalay000yy00yyjlzzzxcbcccbvbzjyy99008888433444444444642247789ja9jxvbbmVVVVQQZCQCVvnbbkyq41114q8888804514q9jzbk94jCQv4$$1155$+XX@X  ......................... ;&oX+X+1%$:$:y9080lkkkncxccxkla99999990099999999hjkkcvVZP!!QV0*$*$$**&XXXXXXXXXXXXXXXXX@1@XXXXXXXXXXOOO------rttttttdDDdDDttDKKFHLLJLTTTIIT)____))))(TGurr,rrrrudGJGGHHLLLLKKKKKKHFKKKKLKDrr- ...............................................",
"...............................................................     @qlklbCQQQQQQQQQQQQPPPCCCZVNmbbbbbbbbxxbbzlllllllhylzcbxzxczkxbcbckllj90990876312332344644112467709jy88yyjkbbNVVY!YC!QVAccbckj051w14666q88644660jkbc96jCQv4$$1151+XX+X  ......................... 5@o&++X+1#1$$$09867ajjlkknkklja90088000000009999999jkkcvVVCQ!!Ca4:***:#&XXXXXXXXXXXXXXXX@1@XXXXXXXXXXOOOO-----erttttttdDfDDttDHKFFKLHLLITRITT)_____))~IMMMduu,-,udGJJJJJLLLLKHHKLKKFKKKKLLHDr,- ..............................................",
".............................................................. +w:::>0xNVC!!!!!!!QQQQQQQQQQQQQYCCCVmbbbcmmbmNmbvmbxczzzzzcbcllkljlzkzkjjjj909y90884123211344441348800ykcvclkjykcxvVNCQQQQQCVbbbvvkj85112344446666668ylccy6jCQb4w$151#XX+X  .......................... 5%X+%+XX1$4$$$785540yajlllj99yp98878887788000000999yjjlzcbVCQ!!!C9::$*;$&XXXXXXXXXXXXXXX@#+XXXXXXXXXXXOOO------etttttttDtDDftdFHFFHKHKGGJIJIT()____))~IIIYIJMu,-udJJJJLLLLLLLKKKKKKKKKKKLLLFdr,  .............................................",
"............................................................. @505>30bVCYQ!!!!QQQQQQYCCZCQYCCCCCCZVNmmmmmvcvmNmmmbbcxzlllkxmzgy09ljy9yyyyja99aja9831131*::134212468889lbVVzxkjxvvVVxNYQQCWQCAvcvvbcj811$w122223643368yxbjq9VQb5<w15$XXX+X ........................... 81+%%+&&114w$$11$:1370jjlla73899077776677777808000999yajlkcvVCQ!/C03$*:1$XXXXXXXXXXXXXXX+@XXXXXXXXXXXXOOOO-----ertttrrtDdDDdttDFFFKHHKDtdJJITT()____)(((~~~TPMu,rdGJJLLLLHKLLLKKKLKKKKKKKKKHDtr, .............................................",
"............................................................. ;q5:67zmZCQ!!!!!QQQQQQPCVVZCCVVNvbbmmvmbbbbbcbmmmvbzzllyhyyhlzzl069zk99yy99allaall9743211:**:2432234666440zzalkazmNVVlcCQQQCWCVvcvvvvb961$#$$::1362*268jvvj88vCc4151$XXX%X ............................ 4$+@#++@1141<11<@#$$:79aya94:30y07666467766677788880999ajjlzbmVP!!QV4#:12@XXXXXXXXXXXXXXX+XXXXXXXXXXXXOOOO---eeerrttreriDFDDttDFFHKKFHDrtJIRTT~()_'____)(~TIJGdrrudJILILILLLLLLKKLKLLKKKKKKHHDdr- ............................................",
"............................................................ @31$6yyzmZP!!!!!!QQQQQQYCCCCZVmvcckzbvvbzlkxxxxxzklyy99yyhyyy9ylky70kkjy90789jkllkljy08631$@#$1322344666428lklccllxbvclcVCQQPCCVVvvvvVvj04w#@@@$*23:=:26lNbj80bCcq451+XX;X ............................. $X@#%++#11q11881###@@1899y06::790866664444444464677880099yajlzbVCQ!!Vl851:@XXXXXXXXXXXXXXXXXXXXXXXXXXXOOOO---eeeertttrrtDFFDftDFFKKKFKHitGJRTTT()_'____)~~TJJJJMiidJILLLLLLLLLLLLLLLLLLLLKLHKHGd,- ...........................................",
"...........................................................  5;@*7yhlxmZCPQQQQQQQQQYCCZVVNbccxckzbmVmbkjlljlyy0776q8yyyyy080yzzj0aa9998478akzkklljy9863:@&@$111124674348azxcbxxlkkllcVVCQQCCVVVVmvbcl981$###$$::*=:6ycmcl99bCnq5w1+X%X .............................. ;X##%++$:$411Sj1<##@@$4090083$38876646444443344444667880099yajlxvVQ!!QV941@XXXXXXXXXXXXXXXXXXXXXXXXXXXOOO-----eeeerttrrtdDDFDdfDFKKKFKLGdGJRTTT~(______)~~~IIIIIPGGGJLIILLLLLLILLLLLLLLLLLLLLLHdr,& ..........................................",
"........................................................... w8+@27yyjzbVZZCPPQQPPCCCZVNvbccxxzzzzbbxkkllja998886366680y906600ykcljy09aa000ylkxczkljj9872#+@:31**1344313489jkxbNkllkxcVVZQQWCVVVVmbzkkjhq:**$$***$#>yvmvckl9cVk5<$$X@@ .............................. 05+##%@@11#411jj1$@#@%#1899077:$3777434333323333333344667880099yjkcVC!!!Zc8@@XXXXXXXXXXXXXXXXXXXXXXXXXXOOOO----eeeertttrrtdDFDDtDFKKKKKLLHJLRTTTT~)_____)~~TTTTIIIIJGGJIILLLLLLLLLLLKKKLLLLLKLLLGdr,  .........................................",
".......................................................... @qq;3800yazbNVCPPPCCCZVVVNvbxklkklkkzbbxzljyyyy0q6631246668086676689lkkj00ajj90yajzccxzccj9971$$3641112443344489jkbvkjkcbbbbVCQ{WCVVVmvclkkl851111*$#$$1jVVVvkk9jVj$+%+XX ............................... q;+#$%@@4<#11w99;;####%#4007783@$67842333332323322323333467888009yjkbVY!!!b3*@XXXXXXXXXXXXXXXXXXXXXXXXOOXOO--O-ereertitttttDFFDddFFFKLLLLLLLLTTTIT(_____)(~TTTIIPJJJGGGIILLLLLLLLLLKKKKKLLLKKKKKKFdd, .........................................",
".......................................................... 5w@57800yaxmmVCQPCCZVVVvbbbcxljjjjlkzzljlzyylly0421*11234444446866778ykj0748889j99alccbvbzjja844774111332447q4449kbxa0jkxcccbVQQ{CVVVvVAznkj044411$%@#$19cvVVbk09vp@X&;@ ................................ 5&+%#@@@41$w1$88$$1$#$#@17077782#:686::3332223311222222123447880009alcVCQ!Cbl:XXXXXXXXXXXXXXXXXXXXXXXXOOXOOOOO--rrrrrtidfttdFHFDDKHDFLLLLLLLLRRJMI~)_____)(~~TIJJJJJGGGJILLLKHKKKKKKKHKKLLKKHKKKKKHdr, ........................................",
"......................................................... ;0;;q809yylzbbVCPCCZZVNvczzzzkjjyajayajhy009all962***112232112677780840lkj8788jbbj999lbbvvbklj07808411111*1474:w14lcj879aajxbvVCQQCVVVVVVvkjj98qq51#@%#$40kbVVvk08b0+o@; ................................. wX%###@@414;$$44$$45$$#@$37864881*2772:23232232111121111112344678800yjkvVCYCN4@XXXXXXXXXXXXXXXXXXXXXXXOOOXOOOO--ruirrtddddtdFHHFDKKDDKLLLLLLLLJdsJ~))_____)((TYIJJJJGGJLTLLLHGUUHKLKKHKKLKKKUHKKLLLGdu, .......................................",
"........................................................ Xq4;5099yyylzxbVZZZZZVVvczklayyjllljjjayy8809906431:1::12122122688709047ykk9900zmcljljjkcvVVvkj98006324641114885:$49j0479a989xvvVQQQCVVVVVvk9jj90841#%#$w2qhbVVvcg0kqo&  ................................. 51X$$@#@+448:$#11:$841*$@%:6763707:$40721223222111121111111123334477809yjxmCYZj1%XXXXXXXXXXXXXXXXXXXXXXXOXOXOOO---rtrrttdDdddDFUHFFFDDFLRLLLRLLJusIT~())____)(~TIJJIIJGGJRTILLHKHLLKLLLKKKKHHKHKKLLKHGd,& ......................................",
"........................................................ ;05:0a9yyyhlzbVZVCCZVVbckjaa00alklllkla0q80006421:2331:2>12:2136867yla447099009kk989ja98lbNVvcljjla8424861154098454890789a9009lbVCQ!QCVVAbzkjjljh941$*ww1130bVVvbk9j5X@ .................................. q4&:$%$+@418<$@$11:041$$%@$26647782@:707222322212211111111112122233446800akcVCVj1@XXXXXXXXXXXXXXXXXXXXXXXOOXOOO-O-rrrerrddDdtdDDHFFDDDDKLLLLLLLIddITT(())____)(TIJJIIJdidJIIIILLLLLLLLLLLLKKKKKKKKKHHGdr-  .....................................",
"....................................................... @qp00ayyyyyjzxmVVNVVbzkklj99ayylxky9jzklay008632211362w**366321146314aa7q7789akxbl98800009kbvvbklkcz9q214455448000848j984898099jkvVQ!QZVvckkkkjlljh041111w110kvVVvlqq5@ ................................... q+@:@@#+$5w4<#$111w071$##@@*46467861$2806123222222:::>:11:1:11112123346670yjzNZVa*XXXXXXXXXXXXXXXXXXXXXXXOOOOOO-O--ereeetdDDttfDFFFDDDDFLLLLLLLJtdJTTT~()____)(TTIIIIJGdddJIIIILLLLLLLLLLLLKKKKKKKHHHHGdr, .....................................",
"....................................................... q0ppj90yyyykzxbbcxkllkljay09y9alla909jlzxkhy00886660863:*366q4237733444434488jbvcl988909999jcvvnkkck9844488899jjjj9q8jy8q8q54480jvVQ!CVvckkklljljjjg0q411$<18jcVVvl515; ................................... 5o;1@@#+11$1#$14*$<981$##@&$344446q71#:803122121122>:2:>::::1:11:12223436780ylbZm7@XXXXXXXXXXXXXXXXXXXXOXXOXOOOOOO--ee-eridDdttDFFDDDDDDFLRKLLLHriJIRTTT~)___))(~TIIJJJGGGGLITILLKKLLLKKLLKHUKKKKUKLKKKGdr- ....................................",
"...................................................... ;0pajj90yhyhlllllklaylkj99066889ljyy99ajlkkkljyyayyyjljy62324421144234411474440kkllj844488q80jcvbkkcky8888999jjjkcck99j9888q411449bVQ!CCVbzkkkklllllhgq41ww$$49kvBvk:+;+ .................................. 05o;1@@@+11$1#$44$$$881$$$%&@:344444641#1081*2221::2>1:11::::::::1:>22223347700lbNk1@XXXXXXXXXXXXXXXXXXXXXXOOOOOOO----e--erdDDttDFFDFDDDdDKLHKLJHrtGLRTTTT()___))(~TIIJJJJGGLTTTLLKKKLLKKLLKHUUUKUFUHHHHHdr,& ...................................",
"..................................................... @qpplyyyyjjjhjljyyyy00ya9yj94468aklj999aajyjjjaylljy9lbcl066322:$:33*:11;:484338jjlck9444q80099jcvvbbclhjjjjkj999jlkbnj988888844489kvC!CCVbccnzkkkknzlh0q41w<<50kbvBk$X@X .................................. 05o;$%%+@41w<##48$$$84111$@@+#1444446661@10q2132:11:*:1>>:::::::::::111223334770ykxy2&XXXXXXXXXXXXXXXXXXXXXOOOOOOO-------ertdDDfdDFDDDDDDDDUKLLLHtdHLLRRRTT()___))~TTTIJJJJJLITTTLLKLLKLLLLLHHUUUUFFFGFDFFdr,- ..................................",
"..................................................... 5809yyyjhjjjyjhyyy8867099aj97447999988ylkzzlllayzxzllzzzj0807441:134$$;$$*12126808jzl04468999999jbvvvvckkckkbkj9899jcbk0888888q4q89jnC!CCVvbcbbcnnncckjg0q41$$58kbbBk$XXX .................................. q;o$w%@+%4451$@34$1144114$%#+@;3444446461%4982:::21>=1222:::::::::::1:112522334780al0$XXXXXXXXXXXXXXXXXXOXOOOOOOOO------eeertdDdddDDFFDFDDDDKRLHHddHJJLLRTT~()___)(~TTTIJJLLJLTTIILLKKKKLLLLKHHKKUFFGHHGFFFdr-  .................................",
".................................................... 199q09ylkkzklly907646434470908448009988ykzklzkjalkxczvVmky09ly841:1541:::$**:149086800424qq6888099lnvAvvvbblkbckjjjkjkbk9889988445488jVQYCVmvvvvbcnkcbklh9841$$58lbbVc$XX@ .................................. 1XX<w%%+w4481$@14$1881144$@$@&$5433444444*#606:**::1>:112::::::::::::11:2>2223367709y3@&XXXXXXXXXXXXXXXXXOOOOOOOOO------ereertdDdtdDFFFFFDDDKLLLHFFHHHHJLTTT()_''_)(~TTTIJLLJHITTTILKUGUKLLLKHHHHUFUHHKKHFFDi,- .................................",
".................................................... q44q0lzcbzklyy866434674434777888080y9877999ylxzxmvvbzbVmzjjlbcl98q44q75::$$$138aay908844q844q8qq999jcvvVVVBklknjSlkkkcvk848998884111q9VQQCVmAAvbbbnzcbnlh90q5$$1qjcvVv1XXX ................................. 44X+<%%@+55491$%11$1981174#@@%&@:3444334364==6863**>2::>11:::::::::::::2111112233347806*@&XXXXXXXXXXXXXXXXOOOXOOOOOO------reeertDDttDFKFFFFFFKLLLLLLLHFGHLITTT)_']__)(~TTIJIIJGLTTIIILHGFFHLLHGUHUUFGGGHHKHFFDr,, ................................",
"................................................... 55#5gkbbbcly088667876708312112680868088800000yjllzbnkxvvzlaylbvczla9999411:$:138000088q44888800889h99jbvvVCVAkknkllklkkbc044898q841<148vQQCVVAmvbbbbbbbkj000q5<%$qgcbVv1XXX ................................. q8X%$<#@+42403;$1$#1j81485@+@@@%$34333221362##2783*:::22:>:::::::1:::::::111121223336082$@XXXXXXXXXXXXXXXXOOOXOOOOOO------eeeertDDttDFFKFFFKFHKKKLLLLLHHHJJIRT()_''_)((~TTIIIJGHITTTILLHDDDGHUGUHHUGFFFFFHHFFDdr,- ...............................",
".................................................  &5;qSbVvckjy8644346844442::21138090800099900866yykbvbvmVvkja9ykccckljajj0431113444446886448q4409889jj99kcbvZCVvccbbcnkkkkk9qq88844451114kCQCZVVVvbbbbbbcj0q88q1<%%49bbBc1XX .................................. 85+$$$#@@q4484112$$1j81485@X+@%+@:33213211362=%3072**121:2:1::1:11::11111:1::11122233684*$+XXXXXXXXXXXXXXXXOOOOOOOOO-------ereerDDDddDDKHFKKFFDFHLLLLLLHHJLLIT()__''_)((TTTLJJJJLTTTTTLKHDDDDGHHHHHGFFFFFGGFFFDdr-& ..............................",
"...............................................  X@@:0xvVvkj99q46322113123111363389y009067877666460lmVVVVvbxjlkklkxxxnklajj07q4344q88434884488q46088889h99jlzvVVVvvbcbvbcbbkS08q80844q41$<5jVWCCCCVVvbbbbccj0q88q5w%$40cvvkwXX .................................. 5&%1$%$@@84q73144$$1l01505@XX%$@&@:11111511266=#277>**::>:>::11:111122111::11:11>2223466:$@+XXXXXXXXXXXXXXXXOOOOOOOOO------errerdDDDdtDFKFKLKFDDFKLLLLLLLLLLLTT()__'__)((TTRJJLJJLTTTTRLHGdddGHHHHHFFFGUGGUGGUFDt,-& .............................",
".............................................  X@4p70bNvxlp07643233211212431:11*1898689846764344460lzccbvcklkcvvcxkkzccnlja987444337831368648888999088ylkkj9lcvVVvvvbbbckkbkj908000qq8q5$$19VCCCCCZVmbbbbczjhy00841$w40kvBlwXX ................................. 55X%<$$;@#41875:08$*;j8*481@XX@*$@&$15321121>3631#186:*:21:>1211>2222>22222211112222223331$#%XXXXXXXXXXXXXXXXOOOOOOOOOO-----erreeiDDGdtdFHKLLLFDDDFLLKLLLLRRLJLTE()_''__)(~TTIJIJJHLTTTTILHdttDGHHHHUGGHKHUUFUHHFDre,= ............................",
"...........................................  X@30ppalxnljp0q3331:242*111*1:$$**$19l9680746443233238jlllxckkkzxbbbxkkkxkljap98648907761:34344qq768088809jccj9jxbVBvvvvbbcjkckj9j900qqqqq5$$1qcCWCWCZVmcbvckkjjjh9qq5<1q0lcv9;@X ................................. q@+$%#$$+11:041$08$$$9q<481+XX+:1;&+$122111112222$+1863:::::1232>2*>223332>21222222>>2223>*=%@XXXXXXXXXXXXXXXOOXXOOOO-OO-e---ereetdDGdttDFKKLKFFFFFKLLLLLLRLKJLRT()___'__)(TTTRRIJJGITETTTLDirtdHHLHUGGUKKUFDDDUHHDt,,  ...........................",
"..........................................  @5700770ap000876112:*11:*11*$$$$$:1138a0444432114311:289jllkl9ykbbvvbzlkkklllj987q40jy0084366678998q8808009yjla99lbVVvbcvvvvccnk90Sjg80qqq5w$<15jVCWWCVVVccbkjljjhh98451140jkn0@#@ ................................. 5&%$%#$@&31:02:@88#$173144$+XX+;11@&@:12222111:::2#O2073::*:2221::*:2>122221>121>>22122222:*$@XXXXXXXXXXXXXXXXXXXXOOO-OO--,----eeridDDfttfFKLLFFFFKLLKLLLRRLHHJLT(()__''_)((~TTTTIJGJTTTTTILGdttDHLHUGGGHHUFDDDGUHFDt,,  ..........................",
"........................................  X#qq79pa000763333211>:*1:**11:*:*$#:11:264347862::231*13q89a99y9alcvNmvkjjkkxxkkj99999j900877888779jj9yjhjy9jlaalljzbvVAbcbbvvVVbkljjkj008045w<ww18vCWWZVZVccbkkllklhg0q5511qjjj8@@X ................................ q5+;$@$$&@4117$$@3q#;4711q4#+XX+$153@&@:1121111:::66+O2763:**::22>*1**:122221>::212:11223221*==#&XXXXXXXXXXXXOXOXXXXOO--OO-ee---errtidDDtrtDKLRKFFFLLKFKLLRLLJHJJTET(()____)))(~TTRIJJITTTTTTIHiriGLLHUUUGUUUFFFUGFUFDr,= ..........................",
"....................................... @;;0980zza9ay71:22:::1::11$$*11:$**$$:11$14468yj0421112233668ayyllaajllkxlajlllklkkxxxxxxka087888732q999jljjy09yyjxcbVVVvVBvbkbVCCVcnkknnl00844511$<qkCWCZVVvcbbckllnnh98q551wqgj9q:; ................................. q+@$###$&$4:43$$@;1$:071184%XX+@#1473$@$11111:::12364#%>663:**:221:****12211**:w1>>1::>12>2>**$$#%%@&XXXXXXXXXOOOOXOOO--OO--e---eerrttDFDtrtFLRLUFFKFFFHKLLLLLLJJTTTTT()____)(((~TTTTRTTTTTTTTIGirdGHHUUHHGGFDDDUUHGUGdr== .........................",
".....................................  @;qqq0lzlaa0903::34*$::$$11$$:*:$$*:$1671$:4648907674213446447099y99yjjajxkyjjapjkbvvVVVVVbj0999998444q00jkj9863680jlzvVVvvAVvcbVQQVbbnknbvcg045441$<5hVWCVVVvcbvcjlnclhg0qq51w40S8:;; ................................ 5qo#$%#$#O13$81#$*$:$;j8$394%XX+@#w4883$#:1111::*::12q6*%*676:>>2>12:**************>2::::2332:**=##@%%+OXXXXXXXOXOOOOOO---OO------errrrtDDfttDKLKLHFDDDFHKLLLLTILJRTTTTT()____)))((TTTTTTTTTTTTTIHDdDHHUGGHHGGDDDDUHHHFFdu,>  .......................",
".................................... @5qqq0q8jjy006632::$$#$:$@@#$#*1:*::::#:771*:348lk07008314322124478000alla9jjpkkjjlcvVVVCCVVbljjjjj9088q088yccj7847789yjkbbbbBVVVvVQWVVVvbknbbl044q45115gVW{VVVAbccbklccjg008q51w5892&XX ................................ 8@+<<%%$#O44@81#@:2$@:k0#4y1@XX+@@#49071#$:1111::*::1266*+#2622:112>1:**=**==#=****::2::>222221:=*$##%@@XXXXXXXOOOOOOOO------------rrrrtDFDftdFKKLLFDDFFFKLLLLTLLJITRRTTT()__'_)))((~TTTTTTTTTTTTIJGDGGGGGGHUGGFDDFUHHUHDdr-&X   ....................",
"..................................  507>0p77800066463:$$%%@@=$@%%#*:21::::*$2431::149xc9678833421**12334899999070ajccjjjzvVVZCVNvbxkkkkj98009g868jkp7880880jlxcncvVVVVVVVVVCCVVbcncn0080q51<50V{{VVVVvcnckkbcjg00085<<148:@#X ................................ qX+<<%%$%@45$7:$@:4$@;c9;4j1@+X++X@4la86:@$*:11:::::5*263=O+1462**>321*=#===##==*****::>:>>>1222*%%##@@#+XXXXXXXOXXOO-OO-----------rtrrrdGFFDfDKHKLKFFFFFKLRLLTLLLRTITTT~()__''__))(~~IIIITTTETTTTILGGGHGGGGGGGUHHGDGGGGGdu=-=:#X   .................",
"................................  #q0067ll00066642122=%%%%@@##@$:::::**#@$:266211:116998448847873:*12:::388777889jjjj99jzvVVVVNbbbbbckljj99jjlj088888998778alccncvVVvvvVAVVCZVVAvbBvj00g9q1150BWCZVVVvbkcccbcjjh985w$$148;@; ................................ q+X+$$%##+$q114:$@:7$%$j01591@+X++oX3kl085%#$::::::**:*w264=O&*33>**:3>*##%####**=******:1:::1122$OX&%%@%+OXXXXXXXXOOOOOOO----------ertrrtDFHDfDFHKLLKKFDDFLLLLLLLLTTTTTT~()_']]'___))(TIIITT~~~TTTTTIJHHJHHHHJJJJJJHHJGGJJMu,u7>##;@  ...............",
"..............................  &:0ayazllj0076331****@+@%%%%%%%#::::::1:$*377431::::134480y946764:*:1$@@:46668044999089kAZCVVVvbbvNvbkklkkkkkknkj8889kca880jxcnzbvmvckcAmVZCCVvccbBvvVn0005<50bCCZVVVVvcbvvbckjjg84w<<18g1X@ ................................ 0&&%$$%%#&14182$$$13$%#841401%+X++oX$nx984*@$**:*::::**::366=OO#2631:2>:=#%%%%===**:***::***:**::*#OXXXX&XXXXXXXXXXOOOOOOO--------e--riirrfDHFdDFFFLLLLKDDDKLKLTLLTTTTT(((~)_']]]]]]'__)~TTTTE~~~TT~~TTTIILLLIIIIIITRIIIJJJJMdu,,=>76>>   ............",
".............................  @qpalxNvcka06621*=*##%%&&@%%@%%#*1222111:**246311:11333480090477443443*$@#*1334734ajy889jvVBvvbbmNmvNvbkjjlknkjjjj9888jkjajalcbcbVVVvxlkvvvVVZVvncBBcnZVj0gq550cZCZVVVVvbvVVbcbnj9q51ww58SwX& ............................... 07X+$$#%$#+43;01@$;41@#171$40$+Xo&Xo.+xva872*#*:***:**:::1:243=Oo&*22222:*%+%%#$*****:*:::*******=#*#XXXXXXXXXXXXXXXOOOO-OOO-------e--ridtrtdFFDDDFFKLLLKDDDKLKKRLLRETTT~((~(_]]]]]]]]]]_~~TTYTT~(T~~~(TTTIIILLLJJJJJJJJJJGGGGMddddssuuu7,&   .   .....",
"...........................  ;7palxbVZVNxa0431$%##%%+@@+%@%%@$*:>222::::::33332113443348878889j044741*##@#$:13448aj9889jnvvkllcVVVNvvvckjjkckkj9j98q4880jkkkcbknVCCAckcbbvVVAvvkvVBknBvjjkjq40bVVZZZVVAvvVVvbbcj0641115q4+X ................................ 0@o+%$$$$#+73;91@@17$%#441144@XXX@5447lcj874:@$:**:1:****:**121=&oo&$:232:#%%###===********#*=$**:>34:XXXXXXXXXXXXXXOOOOOOOOO------ee-eritrrtDFFDDDDHLLLLFDDFKKKLLLLETTT~(~~(__]]]]]]]]]')(~~~~~TT~((((((TTTTTTIJJGGGJJJJJJIJJGGMMMMMMddu,,,-- >>@   ..",
"..........................  ;0lllxNCPCCVb0731*#%@%%%+++@%@#***:**:*:*::1268633324674348888809yy86441:*****$;1134488889kvVVVbkxNVVVVvvvvckjjkkckjj9888080jvVvkj9kVCCVcnccbAVVvvclBCVnnbbljnl0qgbAVZZVVBVAvvVVvkjh90841155@XX ............................... ;q&X+%%$%<%@7130:$#17$#$8q1184#+XX4cmvb9j94773$@@$$*:**********:2*&ooO&*266>*###@==@#==#===*:4666678876&XXXXXXXXXXXXXOOOOO-OOO-------e--rrttttDFFFFDDHLLLLKKFFFKKLLLLTETT(((()___']]]]]]]]_)(()~YTT~())(((~T~~T~TTTTITTTIJJJIJJJJGGGGGMMMdddurrus7>>>&  ",
".......................... ;0lxxxNCYQQCCb0431*$$$@%%@+%%%%@#**::****:::148743234786436880908877789y84431::*::*::14778kbVVVNckbvVvvvVNvvvbnljkkkkS98899889kVVbj9bCQCZVvkknvVVVVBbvVvccBBbnl000jbvvCCZBVvbbbvvkjh9999621w%XX ................................ 5;@+%%%$%$+<7180$$#18$#$871498#+X1kVbcb9a947663@@$$$$***********:::%OOoO%*3332222:::1*222233700000063:=&XXXXXXXXXXXXXXOOOO--OO-----O-eee-rtditdDFFFFDFLLLLLLKFDDKLLLLTTTTE(())___']]]]]]]]_)))))~~()))))((~~~~TT~TTTTTTIJJIIJJIIIJJJJJPPJGJGGJJGMssdur,7",
"......................... @qlxxlbVVVVVVVba08631*$$@#@%%@@@$*::11:::1:*$$1467884787237889akkj00089lly842*#$::$$$$11248jkcclaaxvckkxvVNvvBVvkjlnbclhjjkj9999kkkkkvCCCCCCbljncvVVVCVBvncAVVVbSgjkccvZCZBbbbbcvcjlljjh0631<@XX ................................ 05%#%<%%%$+14w98$$$5q$%#8814j8#@1nvbklkkl034464$+#$#$******:*********=&ooo+*>23666667700000877622:*#&OOXXXXXXXXXXXXXXXOOO-O--O-----O-ere-ertitddDFHFDDFKKKLLLFDfFKLRLRTTTE(())))__']]]]]]]]````)((()))))((~T~TIIT~TTTIJJJIIIJGJJJJGJJJJJJJJJJJLLIJJJdddd",
"........................ XqSnxllxbmcjyyljajj0821*$$@#@##@@=*:1:21::2:$*1470008644314099jkxzlj9080908741*#$::$@@$:;:40jcvnjlkBZVvvvmVVvvBAVvkjkbbkkbvAbkjlkj9jvVVvvVVCWVj9kkcvBVCVABccvVVVAnbnnnnvVCCVbbbbkbvkccnj08421$+XX ............................... 55;<<<$%%$%+48$98$#145$%@84$1jq#1nVblapjl94413662%+*$#*:****************%OoXOOOO%###=*:::::*=%&XOOOOO&O%*2=OXXXXXXXXXXOOOO-O---O----OO-rre-ertddtDFHFFDDFKKLLLKdtDHLRRRTEETE(()())_']]]]]]]]]]_``)())))))(~(~~TILITTTTIJJJJJJGMMMMGGGMMdddMGGJJJLIRRIJJGG",
".......................  ;pllzllzxla044809y99841*#@@$*$@%%#*:::**:131*34488888q44447000alljlj90999987743:::*@@@##$189jvvkkbvVZCCZVVVVBvbvVVbczkkkbVVVvbncbkkkvCCblvVCCVl9knbBVVVvbvbbBVZBncVbnknvVCVBbcbbkbVVBbkj9851$XXX ................................ 0w;1$<$%%%++0q1941#185$%@54#191+4bbj9080973111344*O#*$**************$****=#+OOoOOOooOOOO&&%%&&&&%%%$*>367072$%&XOXXXXOOOOOOO----O---OO--re-ertdittDKFFFdDFFKLLKDttDLRRRTTEEEE(((()__']]]]]]]]]___)())))))(((((~TIIIIITTPJGJJGMGMMGGGJMdiiiiddMGJJLIILLRLL",
"....................... >0zslallkj97647878099083:*$$**$@&&@*::*$*::1::4448888908788q4770ajkbbckj99987445111:*$$;@#3009jj9gkbbvvBVVBBBvbcvmVAVVnjkbVVvckknbcbcbVVnSnVCCVSgjnAVZZVvcbbvAVZVknBvnknBVZZBbbbbbBVCVkjhgq21$XXX ............................... 55@;1$<%@%%+5j48011#101#%$11#181+8ca88746q41;::1241%+$$$***$$*$$*****$$$$=***$##@=#%#&+%=****::2222223466668763112=OXXXOOOO-OO----O------rr-eeridttDFKHFftDFHKKKDttdFLRRRTEEEEE(((()_']]]]]]]]]]_`)())))))(((((~TIIIIPIIIJGIIJMddddGJJdirrruiridMGGGJHJLLL",
"...................... #plzzaaaaj984467709yjay07443:**@+&@@#::*****$$18999988084q87347809lxvbxkljj988q431121111:$:488qqqq0jccnknvVVBbcbbvvVVCCvvVVVVVvbzcbvVCVvbcklnVCVlgSnvVVVCZVbnbVCZvknAVbkbVVVVBvvbbbAVCVklj9q11%XX ................................ q;&$w$$%%%++jk198$1<w8#@#141$18$1cc08q4441::*:$*234:+@$$****$*$$****$$=$$=#$$*******:*:>>11221212323256664663366663&OXXOOOOOOOO----O-----eeeeertDdtdDHFFDtDFFKKKHttfDKRRRTTETEEE((~(_'']]]]]]]]]_`)))))))))((((~~TTTTTIITTJJJJGiiddGGGdireerrrriidddDGHHLL",
"..................... @qlzxza0990844880yjjjjay990082$#@%%%@$::*$$$*$:4jjj984474q887379909lkxccnkkkkj08844111:::::409844400jbbklnbVCCVvvvbbvVCCVCQCVVVVVbcbVCQCBbcbcnvVVnggnvBAVCVVcSbZCZbknVZvnbVVVVBvvvvVVVVAbclj041XXX ................................ 5@X%w$%%$%X%lj594<1114#@#891w5q@4Vk8444411$$$***1342@@@@$$$$$$****$$$*=***$$$**********:*****::12322334436666667787*OOXXOOOOOO-----O-------ereerdDddDFHKHddDDHKLLDffdHRTRTTTTTETETT~)____'']]]']_`_))))))))((()(~TTTTTTTTTJGGGGdiidMdddiirrrrrrriiitiDFHKL",
".................... @qpzbxla0998768alkzkljjyyajj9j02:##$@@#::**$***18jh8q114880007470a9lccxcbvckkkj9087431:1::$$4899455q8gjjjgkcvVZVBbncbbvVCQ!!WVVVVVbkbVCCCVbcbnlcBVbj0lbVVVZAvnjbCWCCVVVVvvvVVVVBBvbBZVVVVVblh9q:XX ................................ ;@X%$<$%%$+X5n04041$141@##yl;148#4vk733511:$$$$:11141:@O@$$$*$**$*$$$$$=*$$**************==**=*:1222223336678000yaay7-OXXOO-OOO-----O--,,---ereeriDddddDHKDdDDFKLLKDDDHLRTTETTTTTETTT()____''']]]___`)))))))))))(~~TTTTTTTTIJGGJJGdMdddiiiuruurrriiiitiDGHL",
".................... 4pnbbxla09jljjzcbxklljjajjjljj063$##$#$::****::18aj97447877q43389jjzVvklkcbbckja98874451::##:488454q009ggSnBvVVBvbllnbbVC!!!QQCVVVvbVQQCQCVvbkjkbvvk00nbVVCVvnlkVCQQCWCZAVVVVABBBvbBZVBVVVbj906*XX ................................ 5@X$$<%%$%X+gnq084;$18w@$$jj#$8q$8k043111$**$$$121:121$&+@$***$*$$$*$$**$$$$$**************::22>*>23333466800yyjkzxxa6OXXOO--OO------O-,,---ereeetddddtiFKFDdDFKLLLHFFHLRTTTTTTTTTTRRT()))__''__]''_`)))))))))))((~~TTTYIITIIJGLTJGMddMdiuuiiiiiidddditiDFH",
"................... 5kvVVxljkbbVCZVvbcklljjjjja90883211$$*$$****:::1279a974787434334709jkvbkkkbVVVckzljj9084:#@@$:48q4099gg0SjlVWCCCVVZBncbvBCQ!QCCCCVVVvV!^!QCCCVvkcbbbk00lnbvVCVBvcbVQQ{{{CZCVVvbvvvvbvVBvvVVcjg04wXX ................................. ;X%<$%%$%o5bj<981w$<01@#1j8%*j6$lj43511<$$$$$$141<1221$+&#$$$$$$$$$#$*$*$$*$****$*****=*::*1::>122632336667700ylllzxy=OXXOOO-O---------,----rrrrrtdddttdHHDDdDHLLLKHHFFLRTTTTTTEEETRT(()))____'__]__``)))))))))(((~~TTTTTTTIIJJJJJMdMddiiuiiddDGGGGDdtttdD",
".................  @pNVmvbVNC!QPZmvbcklljjajjy0q47q31:111**$$*:*::111488866887444667899jkccxcvVVVbzxzla9pp97:$$11348440jknnjjllVZZCZVVCVvbvvvCQQCCVVCCCZVVQ!!QCCCCAcbbcbl00jkbbvVVABbcbZQ!CCVCWZVbnbBvvvbvBVVVAnj9q5%X .................................. j;+$++%%+X9cq$08$11$4$@@491#1j4$j935111$$$$$$$151$11212$&+%$$$*$$$$#@$$$$$$$**$*******=********::21>:1:221132266660al6OXXOOO-O---------,----erttertddittDKFDDDFKLLKKKFDKLLTTTTEEEETRTT(()))______'__`_))))))))))((((~TTTTTTIIIIJGGGMddddiiridGGGGGFGDdtttd",
"................  &8lVVYCV!!/!CZVbczkljjaaay984112222125431$$**$**::1134447887468889yjllkkccbvvcj99ja999jll9434q35445149jkkjlljnbbbcnbVvkkcccVCCQ{CVZCQQ{CCQ!!QCCCVbvbkklggSkvbbBVAbnnbC!^WVVCCCBcncBBBBvvBVVVBkj0qwXX .................................. a;o+++$%o<j0ww04$:111$@+89$#1k4@8411111$$$$#$$<11$:*:121%O+#$##$$$#$#$*$$**$$*$***==$$$************==**:===$*==***>676OXXXOO-OO---------,----erireriDdttDHHFFDDFKKKLLFDFLLLRTTTETETTTE((())___________`)))))))))(((((TTTTTTIITIIJJGGGGddiiuidGGGGGGGGDDdii",
"..............  @;0nNCQQCNCQ!QCVbckljjaay9908q2112212343255:#$*$$*$*1144444787448009yjlkkncnkvblja99jjjlkkj0888841111<1q00jnBVvcvvbbbvBcjjkkkcVCQPCVCWQYWCCQ!!QCCCVvvckkllSgSnbvAVVnkkbC!^!ZZCCZbnkcBAAABBAVVVcl985@X ................................... 0%o+++<++q04$581$$141#%+80#$1k4+311::1$$$#####$$<$$$$*11*+&@%@@@$$###$$$*$@$=*=$=**=$$$=*$****=**********=##===$**=*>*&XXXOO&OOO----------e---rtteetdddttFHUUDdDDHKLLFDFKLLLRTTTTTTTTEEE(())___________`_)))__)))))((~TTTTTRTTIIIJJJJJGMduridGGGGDDDGGFGFD",
".........     ;58lmZCZNljlbCQCZvxkljay9990874211122553342122*$$$$***:12335466433789yjllkkkkknVbkzkljjlkkjj080ajj984455q0qqjvCCVbbBAVAVVbllnbnbVVCZVCWQCZVVCCQQCZZCVvbkjlknj9gkcbbvbnccVCCQQCCZVVckkbBAVVBvVVVvkj081XX ................................... 0%.o+$w+<g0w%08w1$101%%#88##3k5+:11$$w$$####$$$$$$$$$*121#XX&%@$$$$#####$$$$$$$=$$=$$#$$$==$==*********************#=*%OXXOOO&-----------ere--ertrertddttdDHKFDtDFKLLFDDFKLLLTTTTTTLTETTE())___________``))))))))))((~T~TTTTTTTTIIJJIIIMdiridGGHGDGGGGGGHH",
"........   33qaxvZQVxp889jmCPZVbckj9999008q3211122234432222242$%#*$=$*1134643334899jjllkkkknbvvklljllljj9009jkkkj98455q00qgbVVVbkbvAvbvnllncncVVVVVCQQQCZCQQPPCVVVVvckjjkklgjkcccbcbvVCCZZZZVVvckccbvVVVvvVVvck904@XX ................................... 0@.o+1<+qj5%1j8w$$101%@184##q91@@<$$$$$$####$$##$$$$$$$11*%X+@#$$#$$$$####$#$$$$$#$$$$*$#=####**=*==$=##====******::>2=OXOOOOO-----O--,--erre-ertreertdtttDFUUDttDKLLHFDDFLLLTTTTTLLTETTTT)))___________`__)))))))))(((TTTTTTTTTIIJJJJIGMiridGGGGGDDDDGDGH",
".......  349akbVZCZaq888jcVCZVbcnlj90008q431111225433332243111*11$%@#$1444342149yjjjjlllklkcbknnlllljj9999ajllj90884<w5qqq9lncvvAvbbnllklkkkccnccvVZCQQQPQQCCZVVvvbcklllknklknbvvVVVVVVZVVVVvbncccvvVVVVvBVVvkj04<+X .................................... 0@.X$5%$kS%%0j41:$14<@@481$$h0#%#$#$$$$$$$$$$$$#$$*$$$*:11$+XO%$$$#@##$$$$$$$$$$$%=*$*=$#+++==****==##=##$%#===$******>&XOOOOOOOO---------erreeertreetiitttDFKFDtDFKKKFFdDKLLTTTTRRLRTTTRTE()____________`_))))))))))((~~TTTTTTTTIIJGJJJMiiidGGHGGDDDGFDFH",
"......  270akAZZVVl45448jvZZVvvckjlj008q4311122333334334325321147$@@#$244422340jjjjjjjllllkcbckkkljj999yyjlljj990884114489jkccVZCZVvbcncncbbbvVVvvVZCCQQYCCZVVvbccknkkncccbcbvvVVVVVVVVVVvvbccccbvvVVVVBvBAvcky85%+X .................................... 0@o+<$+0B0+<jg11$$41#@+48#$1k8@@%$$#$$$$####$$$#$$$$*$$*111$+XX@$$##$##$$$$$$##$$#=*$%+++%*23322:**:::::211*:*==*=$##&O&XOOOOOOOOO---------rrreerttrertfitttDFHFDDFHKKHHDDHKLRTTTTTTTTTTRITT()__)_________`__)))))))))(~TTTTTTTTTTRIJGJJMditiDGHGGGDDDDFFH",
"....   4q0lcAVZZVcq354q9xmVVvvvcklj0074331222333343334353322234q04$%$133333489yjjjjjjjjjlkcckczklja99jyjllljy999908555480jlcbAVZZCZVvcncbvvVVVVVVVZCCCCCCZVVvbccnkknncccbvvvvBVVVVVVVVAvvbbbccbbvBVVVVvBvVAbkj941%+ ..................................... 0$&$<+$bV4+qkq11$$81@@@48#$1kq@@%$$$$$$$$$$$$$$$$$$1*$$**11:#+XX@%%@@$=$$$$$$$$#%%%%%&%*366662::*:**::12266232>>::*$*263#OOOOOOOOO----------rrreertrrertfittiDUKFDDFHKKHDDDHLLRLLTTTTTLRRLITE())))_________`__))))))))(((~TTTTTTTTIIJJJJGMiiidGGHGGGDDDDDF",
"... #1489lcvVZVcg0q448jcvVmvvvbnkl988443222333343344333353325487462*:23334709jjjjjjjjjjjlkkcczkljjyjjjlllljjh99908q444q09jkcvVZZVVVvbcbvvVVVVVVZZCCCCCCZVVvvccccccccccbbvvvvvvAAAVAVAvvbbbbbbbvvvvvAVVvvvvvckj04$+X ..................................... 0;&w%o4VB<<kl51$$$81@+#44$$591@@#$$$$$$$$$$#$$$##$$***$***1*$$+oX+%%#%$*$*$$$$$$%%%%$*67663:************::*>221:::>377702OXOOOOOOO----------,rrreertreertditttDKHFDDHKKKHDDHKLLLLTRTTTLLILIITE)())__________`_))))_))))((~TTTTTTTTTIIJJJJGdiiidGGHGGDDDDDD",
"... 8099lbVVVVkj9jjjkbAVVvvvvvbnly87433335333433433343533534q7q822432233480yjjjjjjjjjajjkkkncklljjjllklljjjjh99088qqq889jkbVVVZZVAvcbvvVVVVVVZZZCCCCCZZVVvbccccccccbbbvvvvvvvvvvvvvvvvbvvvvbbvvvvvBBVVvAAvbkly85$+X ..................................... 50$$++gCk$4n0<1$$185@+141$$q8$++%$$#$$$$$#$#$$$##$$$1*$$$*:1$$#+XX+%#%#$$**$##%%%$148663:*==#**::*******::::::1123667766>&OOOOOOOOO----------erreerttrertifitttDKHDDFHKKKDDDHHHLLLLTTTTLLIILIT((())____________)))_))))((((TTTTTTTTTIIJJJGGddiidGGHGGDDDDD",
"..  9pjkbAVZVcllllkcvVVVvvvvvbnkj08443333334334444333335333q783344333347899jjjjjjjjay9jjlknnkkjjjlkkklljjjjg99088888899jkbvVVVZVAvvvAVVvvmVVZZZZZZZZZVVvvbcccccccbbbbvvvvvvvvvvvvvvvvvvvvvvvvvvvvvvvBVVvvvckl985$+ ...................................... @p5%+3bV45995$<$$441#+14###88#+@%$#$$$$$$$$$$$$$$$$$1*$$$**w*$$$%XX+$$$##$$#$$:2467632*==$$$********:*****:*:122336767666>%OOOOOOOO-----------rrreertrrrrtifittfDHFDDFKLLHDDFHHLLLLRTTTLLIIJJTE)))))___________)))))))))((((~TTTTTTTTIIJJJGGddiddGHHGDDDDD",
".. jjknbAVVVvcccccvVZVVVmvvmvckj98q44333443444444333333334q84444443444809yjjjjjjjjy9jjjlkknkllllkkkllljjjjj99088888099lkcvvVVVVvvvAAvvvbvvVVVVVVVVVVVVvvccccccccccbbbvvvvvvvvvvvbvvvvvvvvvvvvvvvvvvBAAvvvbckj981%+ ....................................... p;+1lbj<8k85w$##841#+14###04@++%$#$$$$$$$$##$$$$$$$11$$$$****$$$%++%@###$*123446431*=$#$$=*******:***:***::1223666766666>#&XOOOOOOO----------errreertrrrrtifittDFHDDFHLLKFDFFHKLLLLRTTILLIILRT()))))_________`_)))_)))))(((~TTTTTTTTTTIIJJGGddiddGHHGDDDD",
". lknbvVVVVVvvvvvVZCZZVVmvAmbnly0864444444444444333333334qq744444444q809yjjjjajyay99yjjkkkklllkkkkkkllljjjj990888009jlkcbvAVVVBvBvvbcccbvvVVVVVVVmvvvbbccccccccccccbbbbbvvvvvbbbbbbbbbbvbvvvvvvvvvvvvvvvbcnkj981%X ....................................... 9$+9nj84005ww$#$841%@14@@$81+++%$$$$$$$$$#$#$$$$$$$$**$*******$$#%%%$$1123333332:*=$#$#=****************::223466666666663>%OOOOOOOOO----------erreerrtrrrrtifittDHFDDFKLLHDDDFHKLLLRTTRLIIIJITE)))))___________))))_))))((((~TTTTTTTTTTRIJJGGMddddGHGGDDD",
"  ncvAVVVVVVvvVVZCCCZVVVVVVvcka08q444444444444444444433468444444444q8099jjjayyy9y99ajjlkkklllkkkkkkkkkllljj9000099jjkkcbvAVVVAAvvbcckkncbbvvvvvvbbccccccnccncccccccbbbbbbbbbbbbbbcbbbbbbbvvvvvvvvvvvvvbbcckkj981%+ ....................................... 9;1ljq8q89511#$183$%$41@+181+X+%##$$$$$$$###$$$$$$$$11$$$$***$$$#$*12233322221:*=$#$##*******:********::223346666663633332=&XOOOOOOO----------,rrreertrrrrrtffttfFHDDFHLLKFDDFUHKLLIRTTLLLLLLIT()))))___________)))__))))((((~TTTTTTTTTTTIJJGGMdddGGHGGDD",
" cvvVVVZVVVVVVVZCCCCZVVVVVmckj087q6444qq4q44444444444346q44446q46q80099yyyyy99999y9jllkkklllkkkkkkkkkkkklj990009hjlkccvvAVVVVAvbckkkkkknccbbvvvvbccckkkkkknccccccccbcbbbbbbbbbbvvvvvvvvvvvvvvvvvvvvvvvbccnkkj9q1% ........................................  9lvnjk ck9h9                 4$$$$$$$$$:*$$$$$$$$$$w1:*:**$$$*1123333221222::*************::::::1122223333366666666677763>#OOOOOOOO-----------errrerrrrrrrtifitiDHFDDFKLLHFDDFHKLLIRTTRLIIILITT))))))___________)))__))))((((~TTTTTTTTTTTIJJGGMdddGGGGGD"
};
